NCOLS 78 
NROWS 66 
XLLCORNER -87.5 
YLLCORNER 25 
CELLSIZE 0.0833333333333333 
NODATA_value -9999 
-9999.000000000000000 -9999 -9999 -9999 0 0 -9999 -9999 -9999 -9999 -9999 0 0 0 0 0 -9999 -9999 -9999 -9999 -9999 -9999 -9999 -9999 -9999 -9999 -9999 -9999 -9999 -9999 -9999 -9999 -9999 -9999 -9999 -9999 -9999 -9999 -9999 -9999 -9999 -9999 -9999 -9999 -9999 -9999 -9999 -9999 -9999 -9999 -9999 -9999 -9999 -9999 -9999 -9999 -9999 -9999 -9999 -9999 -9999 -9999 -9999 -9999 -9999 -9999 -9999 -9999 -9999 -9999 -9999 -9999 0 0 0 0 0 0
-9999 -9999 -9999 0 0 0 0 0 0 0 1 0 1 2 0 -9999 -9999 -9999 -9999 -9999 -9999 -9999 -9999 -9999 -9999 -9999 -9999 -9999 -9999 -9999 -9999 -9999 -9999 -9999 -9999 -9999 -9999 -9999 -9999 -9999 -9999 -9999 -9999 -9999 -9999 -9999 -9999 -9999 -9999 -9999 -9999 -9999 -9999 -9999 -9999 -9999 -9999 -9999 -9999 -9999 -9999 -9999 -9999 -9999 -9999 -9999 -9999 -9999 -9999 -9999 -9999 -9999 -9999 0 0 0 0 0
0 5 0 4.66666666666667 1.23076923076923 37.2222222222222 1.33333333333333 5 5.2 7.4 4.5 2.85714285714286 3.97142857142857 10.8275862068966 5.02941176470588 7.08333333333333 5.85416666666667 -9999 -9999 -9999 -9999 -9999 -9999 -9999 -9999 -9999 -9999 -9999 -9999 -9999 -9999 -9999 -9999 -9999 -9999 -9999 -9999 -9999 -9999 -9999 -9999 -9999 -9999 -9999 -9999 -9999 -9999 -9999 -9999 -9999 -9999 -9999 -9999 -9999 -9999 -9999 -9999 -9999 -9999 -9999 -9999 -9999 -9999 -9999 -9999 -9999 -9999 -9999 -9999 -9999 -9999 -9999 -9999 0 0 0 0 0
5.6 0 8 4.45945945945946 1.9 1.2 2.125 3.125 16.2222222222222 0 2 3.85714285714286 2.40540540540541 5 2.125 3.40740740740741 5.33018867924528 6.71428571428571 6.64285714285714 6.17647058823529 0 0 -9999 -9999 -9999 -9999 -9999 -9999 -9999 -9999 -9999 -9999 -9999 -9999 -9999 -9999 -9999 -9999 -9999 -9999 -9999 -9999 -9999 -9999 -9999 -9999 -9999 -9999 -9999 -9999 -9999 -9999 -9999 -9999 -9999 -9999 -9999 -9999 -9999 -9999 -9999 -9999 -9999 -9999 -9999 -9999 -9999 -9999 -9999 -9999 -9999 -9999 -9999 0 0 0 0 0
1.28571428571429 12.4444444444444 2.57142857142857 5.35955056179775 3.52631578947368 1.89473684210526 2.82954545454545 3.64583333333333 3.27906976744186 4.30952380952381 6.94736842105263 4.66666666666667 8.5 4.02083333333333 4.34210526315789 3.31147540983607 3.95454545454545 3.25925925925926 4.18556701030928 3.52380952380952 7.6 1 0 0 -9999 -9999 -9999 -9999 -9999 -9999 -9999 -9999 -9999 -9999 -9999 -9999 -9999 -9999 -9999 -9999 -9999 0 -9999 -9999 -9999 -9999 -9999 -9999 -9999 -9999 -9999 -9999 -9999 -9999 -9999 -9999 -9999 -9999 -9999 -9999 -9999 -9999 -9999 -9999 -9999 -9999 -9999 -9999 -9999 -9999 -9999 -9999 -9999 -9999 0 0 0 0
1.4 2.125 11.4 6.39473684210526 2.5 1.6 1.48484848484848 1 2.25 2.16 1.875 1.5 1.66666666666667 1.9 4.23076923076923 3.05 2.08823529411765 3.19512195121951 7.10714285714286 7.73737373737374 7.72222222222222 3.8 0 0 -9999 -9999 -9999 -9999 -9999 -9999 -9999 -9999 -9999 -9999 -9999 -9999 -9999 -9999 0 0 0 0 0 0 -9999 -9999 -9999 -9999 -9999 -9999 -9999 -9999 -9999 -9999 -9999 -9999 -9999 -9999 -9999 -9999 -9999 -9999 -9999 -9999 -9999 -9999 -9999 -9999 -9999 -9999 -9999 -9999 -9999 -9999 0 0 0 0
3.51612903225806 7.2 6.5 3.32142857142857 2.5 2.25 0 1 0 0 5.36842105263158 2.61290322580645 2 2.42857142857143 4.11111111111111 3.8 2.25 6.35135135135135 2.64 3 3.75 6.4 3.33333333333333 2.33333333333333 -9999 -9999 -9999 -9999 -9999 -9999 -9999 -9999 -9999 -9999 -9999 -9999 -9999 -9999 0 0 0 0 0 0 0 -9999 -9999 -9999 -9999 -9999 -9999 -9999 -9999 -9999 -9999 -9999 -9999 -9999 -9999 -9999 -9999 -9999 -9999 -9999 -9999 -9999 -9999 -9999 -9999 -9999 -9999 -9999 -9999 -9999 0 0 0 0
5 1.5 3.27536231884058 3.67567567567568 0 0 0 0 0 0 2 2 4.11111111111111 4.83333333333333 1 1 2.42857142857143 2.56862745098039 4.42857142857143 2 9.5 0 0 5.93589743589744 1.2 0 -9999 -9999 -9999 -9999 -9999 -9999 -9999 -9999 -9999 -9999 0 0 0 0 0 0 0 0 0 0 -9999 -9999 -9999 -9999 -9999 -9999 -9999 -9999 -9999 -9999 -9999 -9999 -9999 -9999 -9999 -9999 -9999 -9999 -9999 -9999 -9999 -9999 -9999 -9999 -9999 -9999 -9999 -9999 0 0 0 0
0 0 1.83333333333333 1.75 0 0 0 0 0 0 0 0 2.66666666666667 2 1 1.5 9.07692307692308 3.5 3.61538461538462 4.33333333333333 0 2.875 5.54545454545455 0 0 0 -9999 -9999 -9999 -9999 -9999 -9999 0 0 0 4.46153846153846 4.2 17 4.5 5.09090909090909 2.22222222222222 2.57142857142857 2.25 2.25 0 0 0 -9999 -9999 -9999 -9999 -9999 -9999 -9999 -9999 -9999 -9999 -9999 -9999 -9999 -9999 -9999 -9999 -9999 -9999 -9999 -9999 -9999 -9999 -9999 -9999 -9999 -9999 -9999 -9999 0 0 0
3.25 1.87012987012987 2.88888888888889 0 0 0 0 0 0 0 0 0 0 0 0 2.42857142857143 4 4.27272727272727 11 1.5 0 10.4444444444444 0 0 6.88888888888889 0 0 -9999 -9999 -9999 0 0 0 5.41176470588235 8 4.65789473684211 3.12 0 9.3125 4.5 2.16666666666667 4.125 2 6 2 0 0 0 -9999 -9999 -9999 -9999 -9999 -9999 -9999 -9999 -9999 -9999 -9999 -9999 -9999 -9999 -9999 -9999 -9999 -9999 -9999 -9999 -9999 -9999 -9999 -9999 -9999 -9999 -9999 0 0 0
1.57142857142857 1.20833333333333 2.92857142857143 0 0 0 0 0 0 0 0 0 0 0 2.5 2.86792452830189 1 3.5 0 23.5714285714286 0 3 0 0 0 0 0 0 0 0 0 0 0 17.6666666666667 1 6.11764705882353 4.9 4.8 6.42857142857143 1.5 4.16666666666667 3.08333333333333 2 4.4 2.9 8 0 0 0 -9999 -9999 -9999 -9999 -9999 -9999 -9999 -9999 -9999 -9999 -9999 -9999 -9999 -9999 -9999 -9999 -9999 -9999 -9999 -9999 -9999 -9999 -9999 -9999 -9999 -9999 -9999 0 0
4.87878787878788 1 0 0 0 0 0 0 0 0 0 0 0 0 0 0 0 2.05555555555556 3.63636363636364 0 1.5 6.66666666666667 0 0 0 0 0 0 0 0 0 0 5.5 5.5 13 4.90909090909091 2 4.77777777777778 3.375 5.90909090909091 2 7.56 7.16666666666667 1.28571428571429 1.5 0 4.4 0 0 -9999 -9999 -9999 -9999 -9999 -9999 -9999 -9999 -9999 -9999 -9999 -9999 -9999 -9999 -9999 -9999 -9999 -9999 -9999 -9999 -9999 -9999 -9999 -9999 -9999 -9999 -9999 0 0
5.625 0 0 0 0 0 0 0 0 0 0 0 0 0 0 0 2.34375 4 0 2.2 1 0 0 0 16 7 0 5 1 0 1.5 4.25 13.5 3.7 0 1.5 9.33333333333333 5.83333333333333 1.33333333333333 12.4 3 1.8 2.66666666666667 7.2 0 4.38888888888889 8.23529411764706 2.6 0 0 0 -9999 -9999 -9999 -9999 -9999 -9999 -9999 -9999 -9999 -9999 -9999 -9999 -9999 -9999 -9999 -9999 -9999 -9999 -9999 -9999 -9999 -9999 -9999 -9999 -9999 0 0
0 0 0 0 0 0 0 0 0 0 0 0 0 0 0 0 0 1.70731707317073 2.375 1.33333333333333 6.36363636363636 0 1 0 0 0 5 0 0 0 0 0 5.66666666666667 7.91666666666667 1.33333333333333 8 6.75 3 7 0 1 9.5 4.45454545454545 4 3.88235294117647 1.16666666666667 1.33333333333333 3 0 0 0 0 -9999 -9999 -9999 -9999 -9999 -9999 -9999 -9999 -9999 -9999 -9999 -9999 -9999 -9999 -9999 -9999 -9999 -9999 -9999 -9999 -9999 -9999 -9999 -9999 -9999 0
0 0 0 0 0 0 0 0 0 0 0 0 0 0 0 0 0 1 1.75 2.4 2.62222222222222 3.35227272727273 1 0 1.33333333333333 0 0 0 0 0 0 0 49 2.5 10.8888888888889 20 1.6 3.2 0 0 1 5.46153846153846 6.6 5.5 2.5 1 2.5 3.33333333333333 7 0 0 0 -9999 -9999 -9999 -9999 -9999 -9999 -9999 -9999 -9999 -9999 -9999 -9999 -9999 -9999 -9999 -9999 -9999 -9999 0 0 -9999 -9999 -9999 -9999 -9999 0
0 0 0 0 0 0 0 0 0 0 0 0 0 0 0 0 0 0 0 0 2.93939393939394 2.70873786407767 2.71739130434783 3.09090909090909 0 0 0 0 0 0 0 0 1 5.125 3.83333333333333 5.66666666666667 0 8.5 0 3.2 5.5 1 5 6.5 4 14.875 3.94736842105263 0 0 0 0 0 0 -9999 -9999 -9999 -9999 -9999 -9999 -9999 -9999 -9999 -9999 -9999 -9999 -9999 -9999 -9999 -9999 -9999 -9999 0 -9999 -9999 -9999 -9999 -9999 -9999
0 0 0 0 0 0 0 0 0 0 0 0 0 0 0 0 0 0 0 0 2.52702702702703 2.09302325581395 1.5 0 1 5.33333333333333 13.5 12.2666666666667 0 0 0 2 6.83333333333333 0 5.4 0 7.72727272727273 4.66666666666667 0 5 2.5 11.5 0 11.75 9.17647058823529 9.66666666666667 1 2.83333333333333 3.63636363636364 2.625 0 0 0 0 0 0 -9999 -9999 -9999 -9999 -9999 -9999 -9999 -9999 -9999 -9999 -9999 -9999 -9999 -9999 -9999 -9999 0 -9999 -9999 -9999 -9999 -9999
0 0 0 0 0 0 0 0 0 0 0 0 0 0 0 0 0 0 0 0 0 0 0 0 0 3 0 10.5 0 0 0 0 12.8 3.875 7.41666666666667 3 6.91304347826087 39.8888888888889 0 11.5 0 0 2 3.9 32 5.66666666666667 5 0 4 2.83333333333333 2.66666666666667 0 0 0 0 0 0 -9999 -9999 -9999 -9999 -9999 -9999 -9999 -9999 -9999 -9999 -9999 -9999 -9999 -9999 -9999 -9999 -9999 -9999 -9999 -9999 -9999
0 0 0 0 0 0 0 0 0 0 0 0 0 0 0 0 0 0 0 0 0 0 0 4.83333333333333 1.79411764705882 2.31481481481481 3.36 2 5 0 0 0 0 2.6 8.85714285714286 4.25 13.5 2 17 1.66666666666667 2.5 5.5 3.57142857142857 0 37.6666666666667 0 12.5 3.85714285714286 6.375 7.42857142857143 3.16666666666667 0 0 0 0 0 0 -9999 -9999 -9999 -9999 -9999 -9999 -9999 -9999 -9999 -9999 -9999 -9999 -9999 -9999 -9999 -9999 -9999 -9999 -9999 -9999 -9999
0 0 0 0 0 0 0 0 0 0 0 0 0 0 0 0 0 0 0 0 0 0 0 0 0 0 1.66666666666667 4.33333333333333 2.74193548387097 0 7 3.75 0 2.4 0 2.22222222222222 2 4.75 2 12.2857142857143 0 1 1.58333333333333 5.5 0 7.5 10.3548387096774 3.625 0 0 2.28571428571429 0 0 0 0 0 0 0 -9999 -9999 -9999 -9999 -9999 -9999 -9999 -9999 -9999 -9999 -9999 -9999 -9999 -9999 -9999 -9999 -9999 -9999 -9999 -9999
0 0 0 0 0 0 0 0 0 0 0 0 0 0 0 0 0 0 0 0 0 0 0 0 0 1.84615384615385 1.5 0 3.41176470588235 0 0 11.1 0 1 4 3.54545454545455 11.3 1.5 9.14285714285714 0 12 4.55555555555556 4 7 1.57142857142857 13.5 11.3333333333333 0 2 4.5 0 0 1.5 0 0 0 0 0 -9999 -9999 -9999 -9999 -9999 -9999 -9999 -9999 -9999 -9999 -9999 -9999 -9999 -9999 -9999 -9999 -9999 -9999 -9999 0
0 0 0 0 0 0 0 0 0 0 0 0 0 0 0 0 0 0 0 0 0 0 0 0 0 0 0 0 2.33333333333333 0 0 1 1 0 0 0 3.13636363636364 9.96296296296296 0 1 4.33333333333333 1 1.5 0 0 16.25 8.2 2.66666666666667 1 2.5 3 0 1.66666666666667 0 0 0 0 0 -9999 -9999 -9999 -9999 -9999 -9999 -9999 -9999 -9999 -9999 -9999 -9999 -9999 -9999 -9999 -9999 -9999 -9999 -9999 -9999
0 0 0 0 0 0 0 0 0 0 0 0 0 0 0 0 0 0 0 0 0 0 0 0 0 0 0 0 0 5.33333333333333 3.28260869565217 4.5 0 0 0 24.6666666666667 3 2.2987012987013 6.36842105263158 1.25 2 4 1 1.5 8.2 1.5 17 3.5 0 0 1.25 1.85714285714286 1 0 0 0 0 0 -9999 -9999 -9999 -9999 -9999 -9999 -9999 -9999 -9999 -9999 -9999 -9999 -9999 -9999 -9999 -9999 -9999 -9999 -9999 -9999
0 0 0 0 0 0 0 0 0 0 0 0 0 0 0 0 0 0 0 0 0 0 0 0 0 0 0 0 0 1.5 3.55555555555556 1 0 0 0 0 0 2.45 5.26666666666667 3.33333333333333 7.875 1.5 1 0 1 0 0 0 2 2 0 9 4 0 0 0 0 0 -9999 -9999 -9999 -9999 -9999 -9999 -9999 -9999 -9999 -9999 -9999 -9999 -9999 -9999 -9999 -9999 -9999 -9999 -9999 -9999
0 0 0 0 0 0 0 0 0 0 0 0 0 0 0 0 0 0 0 0 0 0 0 0 0 0 0 0 0 0 9.2 1.82608695652174 3.83333333333333 0 1 0 1 1.6875 5.65573770491803 3.94444444444444 2.64705882352941 1 0 0 0 2 12 4 5.75 1 0 0 0 0 0 0 0 0 -9999 -9999 -9999 -9999 -9999 -9999 -9999 -9999 -9999 -9999 -9999 -9999 -9999 -9999 -9999 -9999 -9999 -9999 -9999 -9999
0 0 0 0 0 0 0 0 0 0 0 0 0 0 0 0 0 0 0 0 0 0 0 0 0 0 0 0 0 2 0 4.81818181818182 0 0 0 1 0 1.42857142857143 1.5 3.22222222222222 2.77272727272727 4 2 0 2 4 5 1 8 1.33333333333333 2 1.66666666666667 1 0 0 0 0 -9999 -9999 -9999 -9999 -9999 -9999 -9999 -9999 -9999 -9999 -9999 -9999 -9999 -9999 -9999 -9999 -9999 -9999 -9999 -9999 -9999
0 0 0 0 0 0 0 0 0 0 0 0 0 0 0 0 0 0 0 0 0 0 0 0 0 0 0 0 0 0 0 0 2.74418604651163 0 0 0 2 0 0 0 1.80769230769231 1 0 0 0 0 1.33333333333333 1 5.75 1.5 1 0 0 1.77777777777778 0 0 0 -9999 -9999 -9999 -9999 -9999 -9999 -9999 -9999 -9999 -9999 -9999 -9999 -9999 -9999 -9999 -9999 -9999 -9999 -9999 -9999 -9999
0 0 0 0 0 0 0 0 0 0 0 0 0 0 0 0 0 0 0 0 0 0 0 0 0 0 0 0 0 0 0 0 2 3.01111111111111 1 0 1 1.5 1 2.5 1 2.22222222222222 0 3.33333333333333 2 1.28571428571429 3.25 7.5 1.2 0 0 0 0 7.66666666666667 0 0 0 -9999 -9999 -9999 -9999 -9999 -9999 -9999 -9999 -9999 -9999 -9999 -9999 -9999 -9999 -9999 -9999 -9999 -9999 -9999 -9999 -9999
0 0 0 0 0 0 0 0 0 0 0 0 0 0 0 0 0 0 0 0 0 0 0 0 0 0 0 0 0 0 0 0 0 0 5.5 0 0 0 0 0 0 0 1.66666666666667 0 4.5 1.5 0 0 0 0 0 0 5.66666666666667 0 0 0 -9999 -9999 -9999 -9999 -9999 -9999 -9999 -9999 -9999 -9999 -9999 -9999 -9999 -9999 -9999 -9999 -9999 -9999 -9999 -9999 -9999 -9999
0 0 0 0 0 0 0 0 0 0 0 0 0 0 0 0 0 0 0 0 0 0 0 0 0 0 0 0 0 0 0 0 0 1 0 0 1 0 8.4 4 0 9.33333333333333 0 0 4.33333333333333 2.2 1 1.5 0 0 0 2.33333333333333 1 3.75675675675676 0 0 -9999 -9999 -9999 -9999 -9999 -9999 -9999 -9999 -9999 -9999 -9999 -9999 -9999 -9999 -9999 -9999 -9999 -9999 -9999 -9999 -9999 -9999
0 0 0 0 0 0 0 0 0 0 0 0 0 0 0 0 0 0 0 0 0 0 0 0 0 0 0 0 0 0 0 0 0 0 0 0 0 0 0 0 13.7045454545455 4.92857142857143 0 0 2 0 0 0 8.75 0 3.125 1 4.38888888888889 10.7446808510638 3.32 1.33333333333333 -9999 -9999 0 0 -9999 -9999 -9999 -9999 -9999 -9999 -9999 -9999 -9999 -9999 -9999 -9999 -9999 -9999 -9999 -9999 -9999 -9999
0 0 0 0 0 0 0 0 0 0 0 0 0 0 0 0 0 0 0 0 0 0 0 0 0 0 0 0 0 0 0 0 0 0 0 1 1 1.2 1 7.47058823529412 5.11111111111111 1 1 4.1 6.66666666666667 1 1.4 0 0 1 3.66666666666667 3.03571428571429 2 5.3953488372093 1.875 0 -9999 -9999 0 0 0 -9999 -9999 -9999 -9999 -9999 -9999 -9999 -9999 -9999 -9999 -9999 -9999 -9999 -9999 -9999 -9999 -9999
0 0 0 0 0 0 0 0 0 0 0 0 0 0 0 0 0 0 0 0 0 0 0 0 0 0 0 0 0 0 0 0 0 0 0 2 0 0 0 3.33333333333333 2.20792079207921 0 0 0 0 2.07142857142857 3 1.625 0 2.35294117647059 2.63636363636364 11.3333333333333 6 4.06451612903226 2.63157894736842 2.5 0 -9999 -9999 0 0 -9999 -9999 -9999 -9999 -9999 -9999 -9999 -9999 -9999 -9999 -9999 -9999 -9999 -9999 -9999 -9999 -9999
0 0 0 0 0 0 0 0 0 0 0 0 0 0 0 0 0 0 0 0 0 0 0 0 0 0 0 0 0 0 0 0 0 0 0 2.5 1 0 0 6.11842105263158 1.86363636363636 1.66666666666667 0 0 0 2 3 4.42857142857143 6 1.11111111111111 5.77777777777778 0 1 8.84 3.27272727272727 4.45454545454545 0 0 0 0 -9999 -9999 -9999 -9999 -9999 -9999 -9999 -9999 -9999 -9999 -9999 -9999 -9999 -9999 -9999 -9999 -9999 -9999
0 0 0 0 0 0 0 0 0 0 0 0 0 0 0 0 0 0 0 0 0 0 0 0 0 0 0 0 0 0 0 0 0 0 0 1.16666666666667 3 2 0 3.28571428571429 0 0 0 1.5 0 0 2 0 1.33333333333333 0 3.57142857142857 5.46666666666667 5.25 2.5 4.3 1.83333333333333 0 0 0 0 -9999 -9999 -9999 -9999 -9999 -9999 -9999 -9999 -9999 -9999 -9999 -9999 -9999 -9999 -9999 -9999 -9999 -9999
0 0 0 0 0 0 0 0 0 0 0 0 0 0 0 0 0 0 0 0 0 0 0 0 0 0 0 0 0 0 0 0 0 0 0 0 0 0 0 3.38888888888889 0 0 1 12.875 0 0 7.33333333333333 0 8.33333333333333 1.5 1.25 0 12.5862068965517 4.1 4.22727272727273 3.67307692307692 0 0 0 -9999 -9999 -9999 -9999 -9999 -9999 -9999 -9999 -9999 -9999 -9999 -9999 -9999 -9999 -9999 -9999 -9999 -9999 -9999
0 0 0 0 0 0 0 0 0 0 0 0 0 0 0 0 0 0 0 0 0 0 0 0 0 0 0 0 0 0 0 0 0 0 0 0 4.66666666666667 1.16666666666667 0 2.31818181818182 0 0 0 1 1.6 0 0 0 1 7.14285714285714 8 0 2.26086956521739 1.9 3.44444444444444 2.625 3.5 0 -9999 -9999 -9999 -9999 -9999 -9999 -9999 -9999 -9999 -9999 -9999 -9999 -9999 -9999 -9999 -9999 -9999 -9999 -9999 -9999
0 0 0 0 0 0 0 0 0 0 0 0 0 0 0 0 0 0 0 0 0 0 0 0 0 0 0 0 0 0 0 0 0 0 0 0 2.36363636363636 1 0 0 0 5 1 1 2.5 2 8 1 0 0 13.6666666666667 0 0 0 5 7 1 0 0 -9999 -9999 -9999 -9999 -9999 -9999 -9999 -9999 -9999 -9999 -9999 -9999 -9999 -9999 -9999 -9999 -9999 -9999 -9999
0 0 0 0 0 0 0 0 0 0 0 0 0 0 0 0 0 0 0 0 0 0 0 0 0 0 0 0 0 0 0 0 0 0 0 0 0 1 0 0 2 0 0 0 0 0 6.625 4.41935483870968 1.5 1 23.8 2.75 4 0 0 0 2 9 0 0 -9999 -9999 -9999 -9999 -9999 -9999 -9999 -9999 -9999 -9999 -9999 -9999 -9999 -9999 -9999 -9999 -9999 -9999
0 0 0 0 0 0 0 0 0 0 0 0 0 0 0 0 0 0 0 0 0 0 0 0 0 0 0 0 0 0 0 0 0 0 0 0 1 0 0 0 1 5 1 3 2 2 3.66666666666667 3.75 2.55555555555556 2.28571428571429 0 9 1.5 29 2 5 5.05 4.23809523809524 2.33333333333333 0 -9999 -9999 -9999 -9999 -9999 -9999 -9999 -9999 -9999 -9999 -9999 -9999 -9999 -9999 -9999 -9999 -9999 -9999
0 0 0 0 0 0 0 0 0 0 0 0 0 0 0 0 0 0 0 0 0 0 0 0 0 0 0 0 0 0 0 0 0 0 0 0 0 0 0 0 0 0 0 2 1.42857142857143 2.5 8 4 1.25 2 0 2.92857142857143 1.42857142857143 4.64705882352941 0 2 0 0 1.4 2.5 -9999 -9999 -9999 -9999 -9999 -9999 -9999 -9999 -9999 -9999 -9999 -9999 -9999 -9999 -9999 -9999 -9999 -9999
0 0 0 0 0 0 0 0 0 0 0 0 0 0 0 0 0 0 0 0 0 0 0 0 0 0 0 0 0 0 0 0 0 0 0 0 0 1 0 0 1 0 1.33333333333333 1 4.42857142857143 0 3.5 2.5 4.92307692307692 2.85714285714286 1.33333333333333 0 1.16666666666667 0 2.8 0 0 5.73333333333333 3.875 0 0 -9999 -9999 -9999 -9999 -9999 -9999 -9999 -9999 -9999 -9999 -9999 -9999 -9999 -9999 -9999 -9999 -9999
0 0 0 0 0 0 0 0 0 0 0 0 0 0 0 0 0 0 0 0 0 0 0 0 0 0 0 0 0 0 0 0 0 0 0 0 0 0 0 0 0 0 6 0 0 1 0 2 16 2.8 1 5.16666666666667 2.33333333333333 1.33333333333333 2 0 0 2.83333333333333 4.6 6.875 5.57142857142857 -9999 -9999 -9999 -9999 -9999 -9999 -9999 -9999 -9999 -9999 -9999 -9999 -9999 -9999 -9999 -9999 -9999
0 0 0 0 0 0 0 0 0 0 0 0 0 0 0 0 0 0 0 0 0 0 0 0 0 0 0 0 0 0 0 0 0 0 0 0 0 0 0 0 0 0 0 0 7 1 0 2.5 1.33333333333333 23.5 12.1428571428571 1 0 2.25806451612903 1.69565217391304 8 0 9 5.75 0 3.26666666666667 0 -9999 -9999 0 -9999 -9999 -9999 -9999 -9999 -9999 -9999 -9999 -9999 -9999 -9999 -9999 -9999
0 0 0 0 0 0 0 0 0 0 0 0 0 0 0 0 0 0 0 0 0 0 0 0 0 0 0 0 0 0 0 0 0 0 0 0 0 0 0 0 0 0 0 0 1 0 0 2 1 1.66666666666667 16 2.11111111111111 5.32352941176471 7.31818181818182 2.42857142857143 11.5714285714286 1 0 0 4.94871794871795 1.55555555555556 1.85714285714286 0 0 0 -9999 -9999 -9999 -9999 -9999 -9999 -9999 -9999 -9999 -9999 -9999 -9999 -9999
0 0 0 0 0 0 0 0 0 0 0 0 0 0 0 0 0 0 0 0 0 0 0 0 0 0 0 0 0 0 0 0 0 0 0 0 0 0 0 0 0 0 0 1 4 0 0 0 1 0 1 1 6.57142857142857 3.94117647058824 2.82352941176471 11.4285714285714 0 7 7.66666666666667 5.33333333333333 4 0 0 0 0 -9999 -9999 -9999 -9999 -9999 -9999 -9999 -9999 -9999 -9999 -9999 -9999 -9999
0 0 0 0 0 0 0 0 0 0 0 0 0 0 0 0 0 0 0 0 0 0 0 0 0 0 0 0 0 0 0 0 0 0 0 0 0 0 0 0 0 8 0 0 4 0 0 0 0 0 0 12.4444444444444 9 3.46153846153846 2.8 1 1.25 1.33333333333333 2.2 1.66666666666667 4.26190476190476 2.25 0 0 -9999 -9999 -9999 -9999 -9999 -9999 -9999 -9999 -9999 -9999 -9999 -9999 -9999 -9999
0 0 0 0 0 0 0 0 0 0 0 0 0 0 0 0 0 0 0 0 0 0 0 0 0 0 0 0 0 0 0 0 0 0 0 0 0 0 1 0 0 0 0 0 1 0 0 1 0 0 0 5.33333333333333 2.2 4.28571428571429 0 8.625 1 2.18181818181818 0 5.73333333333333 5.33333333333333 3.66666666666667 2.78260869565217 0 -9999 -9999 -9999 -9999 -9999 -9999 -9999 -9999 -9999 -9999 -9999 -9999 -9999 -9999
0 0 0 0 0 0 0 0 0 0 0 0 0 0 0 0 0 0 0 0 0 0 0 0 0 0 0 0 0 0 0 0 0 0 0 0 0 0 0 0 0 0 0 0 2 0 0 1 0 0 0 4.625 6.63636363636364 1.58333333333333 1.8 1 7.33333333333333 0 0 0 3.5 4.76086956521739 2.90322580645161 0 0 0 0 0 -9999 -9999 -9999 -9999 -9999 -9999 -9999 -9999 -9999 -9999
0 0 0 0 0 0 0 0 0 0 0 0 0 0 0 0 0 0 0 0 0 0 0 0 0 0 0 0 0 0 0 0 0 0 0 0 0 0 0 0 0 0 0 0 4.6 0 0 0 0 3.45238095238095 0 1.66666666666667 4.44444444444444 3.5 5.30769230769231 1 4.2 1.5 0 0 1 5.44186046511628 5.57142857142857 0 0 0 0 0 -9999 -9999 -9999 -9999 -9999 -9999 -9999 -9999 -9999 -9999
0 0 0 0 0 0 0 0 0 0 0 0 0 0 0 0 0 0 0 0 0 0 0 0 0 0 0 0 0 0 0 0 0 0 0 0 0 0 0 0 0 0 0 0 2.5 1 0 8.2 0 0 0 0 3.5 0 2.41666666666667 5.5 1.75 0 0 0 9 8.5 2.75 4 1 0 0 0 -9999 -9999 -9999 -9999 -9999 -9999 -9999 -9999 -9999 -9999
0 0 0 0 0 0 0 0 0 0 0 0 0 0 0 0 0 0 0 0 0 0 0 0 0 0 0 0 0 0 0 0 0 0 0 0 0 0 0 0 0 0 0 0 1.5 1 0 0 0 0 0 0 0 0 0 7.77777777777778 0 2 1 0 0 0 1.83333333333333 2.86666666666667 0 7 0 3 -9999 -9999 -9999 -9999 -9999 -9999 -9999 -9999 -9999 -9999
0 0 0 0 0 0 0 0 0 0 0 0 0 0 0 0 0 0 0 0 0 0 0 0 0 0 0 0 0 0 0 0 0 0 0 0 0 0 0 0 0 0 0 0 13 1 1 2.5 0 0 2 0 1 2.5 1.42857142857143 1 1 0 1 0 0 0 0 1.95238095238095 1 5.4 3 1 -9999 -9999 -9999 -9999 -9999 -9999 -9999 -9999 -9999 -9999
0 0 0 0 0 0 0 0 0 0 0 0 0 0 0 0 0 0 0 0 0 0 0 0 0 0 0 0 0 0 0 0 0 0 0 0 0 0 0 0 0 0 0 0 0 1.25 1 15.6666666666667 0 0 0 1.25 2.66666666666667 1.8 3 0 0 0 0 0 0 2.25 0 0 2 1.6 2.5 0 0 -9999 -9999 -9999 -9999 -9999 -9999 -9999 -9999 -9999
0 0 0 0 0 0 0 0 0 0 0 0 0 0 0 0 0 0 0 0 0 0 0 0 0 0 0 0 0 0 0 0 0 0 0 0 0 0 0 0 0 0 0 0 0 1.88888888888889 1 1 0 0 0 0 0 0 2.5 1 3.66666666666667 0 0 0 0 0 0 0 0 1.5 0 0 0 0 -9999 -9999 -9999 -9999 -9999 -9999 -9999 -9999
0 0 0 0 0 0 0 0 0 0 0 0 0 0 0 0 0 0 0 0 0 0 0 0 0 0 0 0 0 0 0 0 0 0 0 0 0 0 0 0 0 0 0 0 0 0 1 0 0 0 0 0 0 0 0 0 0 0 0 0 0 0 0 5.66666666666667 0 0 1.66666666666667 0 2 0 0 0 -9999 -9999 -9999 -9999 -9999 -9999
0 0 0 0 0 0 0 0 0 0 0 0 0 0 0 0 0 0 0 0 0 0 0 0 0 0 0 0 0 0 0 0 0 0 0 0 0 0 1 0 1.5 1 0 0 0 2.66666666666667 3 0 8 0 0 0 0 15.5 0 0 0 0 1.92857142857143 0 0 0 0 0 0 0 2 0 0 0 0 0 0 0 -9999 -9999 -9999 -9999
0 0 0 0 0 0 0 0 0 0 0 0 0 0 0 0 0 0 0 0 0 0 0 0 0 0 0 0 0 0 0 0 0 0 0 0 0 0 0 1.5 0 0 0 0 0 1.83333333333333 0 3.5 0 0 0 0 0 0 1 0 0 5.78571428571429 0 0 0 0 0 0 0 0 0 0 0 0 0 0 0 0 0 -9999 -9999 -9999
0 0 0 0 0 0 0 0 0 0 0 0 0 0 0 0 0 0 0 0 0 0 0 0 0 0 0 0 0 0 0 0 0 0 0 0 0 0 0 0 1 0 0 0 0 0 3 0 0 0 0 0 0 0 2 0 1.66666666666667 2 7.54545454545455 0 0 1 0 0 0 0 0 0 0 0 0 0 0 0 0 -9999 -9999 -9999
0 0 0 0 0 0 0 0 0 0 0 0 0 0 0 0 0 0 0 0 0 0 0 0 0 0 0 0 0 0 0 0 0 0 0 0 0 0 0 0 0 1 0 0 0 1 1 0 0 0 0 0 1 0 0 1.33333333333333 5 0 0 9.33333333333333 0 0 0 3.33333333333333 0 0 0 2 0 0 0 0 0 0 0 0 0 -9999
0 0 0 0 0 0 0 0 0 0 0 0 0 0 0 0 0 0 0 0 0 0 0 0 0 0 0 0 0 0 0 0 0 0 0 0 0 0 0 0 0 0 0 0 0 1.5 0 0 0 0 0 0 2 0 14 1 0 0 0 0 0 0 0 0 0 3.5 4 0 3 0 0 0 0 0 0 0 -9999 -9999
0 0 0 0 0 0 0 0 0 0 0 0 0 0 0 0 0 0 0 0 0 0 0 0 0 0 0 0 0 0 0 0 0 0 0 0 0 0 0 0 0 0 0 0 0 3.8 2.25 0 0 0 0 0 0 0 1 3.57142857142857 2 0 0 8.55555555555556 0 0 9.33333333333333 0 3.71428571428571 1.66666666666667 0 3 1 1 0 0 0 0 0 0 0 -9999
0 0 0 0 0 0 0 0 0 0 0 0 0 0 0 0 0 0 0 0 0 0 0 0 0 0 0 0 0 0 0 0 0 0 0 0 0 0 0 0 0 0 0 0 0 1 1 0 0 0 0 0 0 0 2 1 0 0 0 0 0 0 0 0 0 5.66666666666667 0 0 0 0 0 0 0 0 0 0 -9999 0
0 0 0 0 0 0 0 0 0 0 0 0 0 0 0 0 0 0 0 0 0 0 0 0 0 0 0 0 0 0 0 0 0 0 0 0 0 0 0 0 0 0 1.75 1 1 0 0 0 0 0 0 0 0 0 0 0 0 0 0 0 0 0 0 0 3.66666666666667 0 0 0 0 0 0 0 0 0 0 0 -9999 -9999
0 0 0 0 0 0 0 0 0 0 0 0 0 0 0 0 0 0 0 0 0 0 0 0 0 0 0 0 0 0 0 0 0 0 0 0 0 0 0 0 0 0 1 0 1 1.5 1 0 0 0 0 2 3.5 0 0 6 0 0 0 0 14 0 0 0 0 3.04347826086957 0 0 1.33333333333333 0 0 0 0 0 0 0 0 0
0 0 0 0 0 0 0 0 0 0 0 0 0 0 0 0 0 0 0 0 0 0 0 0 0 0 0 0 0 0 0 0 0 0 0 0 0 0 0 0 0 0 2 0 0 0 1.25 1.16666666666667 0 0 0 0 1 0 0 0 0 0 0 0 0 0 0 0 0 0 0 0 0 0 0 0 0 0 0 0 0 0
