NCOLS 78 
NROWS 66 
XLLCORNER -87.5 
YLLCORNER 25 
CELLSIZE 0.0833333333333333 
NODATA_value -9999 
-9999.000000000000000 -9999 -9999 -9999 0 0 -9999 -9999 -9999 -9999 -9999 0 0 0 0 0 -9999 -9999 -9999 -9999 -9999 -9999 -9999 -9999 -9999 -9999 -9999 -9999 -9999 -9999 -9999 -9999 -9999 -9999 -9999 -9999 -9999 -9999 -9999 -9999 -9999 -9999 -9999 -9999 -9999 -9999 -9999 -9999 -9999 -9999 -9999 -9999 -9999 -9999 -9999 -9999 -9999 -9999 -9999 -9999 -9999 -9999 -9999 -9999 -9999 -9999 -9999 -9999 -9999 -9999 -9999 -9999 0 0 0 0 0 0
-9999 -9999 -9999 0 0 0 0 0 0 0 12.7 0 4.57142857142857 4.75 0 -9999 -9999 -9999 -9999 -9999 -9999 -9999 -9999 -9999 -9999 -9999 -9999 -9999 -9999 -9999 -9999 -9999 -9999 -9999 -9999 -9999 -9999 -9999 -9999 -9999 -9999 -9999 -9999 -9999 -9999 -9999 -9999 -9999 -9999 -9999 -9999 -9999 -9999 -9999 -9999 -9999 -9999 -9999 -9999 -9999 -9999 -9999 -9999 -9999 -9999 -9999 -9999 -9999 -9999 -9999 -9999 -9999 -9999 0 0 0 0 0
0 31 0 7.06060606060606 3.20833333333333 15.8846153846154 2.16666666666667 4 63.6 7.33333333333333 10.0522088353414 13.2666666666667 8.02651515151515 7.28125 6.26415094339623 5.32954545454545 5.93886462882096 -9999 -9999 -9999 -9999 -9999 -9999 -9999 -9999 -9999 -9999 -9999 -9999 -9999 -9999 -9999 -9999 -9999 -9999 -9999 -9999 -9999 -9999 -9999 -9999 -9999 -9999 -9999 -9999 -9999 -9999 -9999 -9999 -9999 -9999 -9999 -9999 -9999 -9999 -9999 -9999 -9999 -9999 -9999 -9999 -9999 -9999 -9999 -9999 -9999 -9999 -9999 -9999 -9999 -9999 -9999 -9999 0 0 0 0 0
3.25 0 7.4 4.22689075630252 12.6344086021505 3.16216216216216 4.5625 2.73873873873874 2.97826086956522 1 1.7 3.95151515151515 8.44632768361582 4.71875 3.3287037037037 8.0048309178744 8.89402985074627 8.01945525291829 6.82203389830508 6.34322033898305 0 0 -9999 -9999 -9999 -9999 -9999 -9999 -9999 -9999 -9999 -9999 -9999 -9999 -9999 -9999 -9999 -9999 -9999 -9999 -9999 -9999 -9999 -9999 -9999 -9999 -9999 -9999 -9999 -9999 -9999 -9999 -9999 -9999 -9999 -9999 -9999 -9999 -9999 -9999 -9999 -9999 -9999 -9999 -9999 -9999 -9999 -9999 -9999 -9999 -9999 -9999 -9999 0 0 0 0 0
3.1875 1.78260869565217 15.2954545454545 5.65145228215768 3.36923076923077 2.95555555555556 4.07620817843866 3.43065693430657 4.41224489795918 5.63448275862069 9.6304347826087 6.04761904761905 7.58730158730159 5.54924242424242 4.20364741641337 3.92483660130719 4.04285714285714 5.64026402640264 6.96363636363636 8.1986143187067 7.17021276595745 4.66666666666667 0 0 -9999 -9999 -9999 -9999 -9999 -9999 -9999 -9999 -9999 -9999 -9999 -9999 -9999 -9999 -9999 -9999 -9999 0 -9999 -9999 -9999 -9999 -9999 -9999 -9999 -9999 -9999 -9999 -9999 -9999 -9999 -9999 -9999 -9999 -9999 -9999 -9999 -9999 -9999 -9999 -9999 -9999 -9999 -9999 -9999 -9999 -9999 -9999 -9999 -9999 0 0 0 0
2.4 5.77272727272727 6.33333333333333 4.86580086580087 3.87012987012987 3.47916666666667 6.5 2 1.66666666666667 3.0353982300885 4 3.45454545454545 2.78125 3.6375 2.33333333333333 4.02040816326531 4.93488372093023 5.26837606837607 6.81740976645435 5.23371647509579 6.51912568306011 7.33898305084746 0 0 -9999 -9999 -9999 -9999 -9999 -9999 -9999 -9999 -9999 -9999 -9999 -9999 -9999 -9999 0 0 0 0 0 0 -9999 -9999 -9999 -9999 -9999 -9999 -9999 -9999 -9999 -9999 -9999 -9999 -9999 -9999 -9999 -9999 -9999 -9999 -9999 -9999 -9999 -9999 -9999 -9999 -9999 -9999 -9999 -9999 -9999 -9999 0 0 0 0
6.64137931034483 3.8 11.9230769230769 3.05952380952381 5.26666666666667 1.82352941176471 0 1 1 0 2.3125 4.71084337349398 2.82222222222222 2.25274725274725 3.53260869565217 6.08411214953271 3.95555555555556 5.15303430079156 4.27976190476191 11.4457831325301 3.23333333333333 18 3 14.8666666666667 -9999 -9999 -9999 -9999 -9999 -9999 -9999 -9999 -9999 -9999 -9999 -9999 -9999 -9999 0 0 0 0 0 0 0 -9999 -9999 -9999 -9999 -9999 -9999 -9999 -9999 -9999 -9999 -9999 -9999 -9999 -9999 -9999 -9999 -9999 -9999 -9999 -9999 -9999 -9999 -9999 -9999 -9999 -9999 -9999 -9999 -9999 0 0 0 0
3.65853658536585 1 2.0531561461794 3.40963855421687 2.57142857142857 0 0 0 0 1 4 1.5 3.32432432432432 2.5 1 4.4 4.625 3.03875968992248 1.82978723404255 4.26530612244898 2.5 2.2 0 13.1849710982659 21.4444444444444 0 -9999 -9999 -9999 -9999 -9999 -9999 -9999 -9999 -9999 -9999 0 0 0 0 0 0 0 0 0 0 -9999 -9999 -9999 -9999 -9999 -9999 -9999 -9999 -9999 -9999 -9999 -9999 -9999 -9999 -9999 -9999 -9999 -9999 -9999 -9999 -9999 -9999 -9999 -9999 -9999 -9999 -9999 -9999 0 0 0 0
2.125 0 2.1038961038961 2.8 0 0 0 0 0 0 0 0 2.8 4.44444444444444 1.5 11.325 3.77227722772277 2.82608695652174 3.625 5.31914893617021 3.25 2.5 12.5 0 0 0 -9999 -9999 -9999 -9999 -9999 -9999 0 0 0 11.2985074626866 7.99 13.4545454545455 2.64516129032258 6.77777777777778 3.06140350877193 1.94444444444444 2.17857142857143 2.4375 0 0 0 -9999 -9999 -9999 -9999 -9999 -9999 -9999 -9999 -9999 -9999 -9999 -9999 -9999 -9999 -9999 -9999 -9999 -9999 -9999 -9999 -9999 -9999 -9999 -9999 -9999 -9999 -9999 -9999 0 0 0
3.20754716981132 3.12349397590361 1.65 0 0 0 0 0 0 0 0 0 0 0 1.66666666666667 3.18918918918919 2.7 2.48936170212766 1.57142857142857 2.9 5.75 23.375 0 0 8.0625 0 0 -9999 -9999 -9999 0 0 0 17.1076923076923 8.13 9.75845410628019 8.55191256830601 2.23529411764706 6.44444444444444 2.84848484848485 2.38815789473684 7.49606299212598 6.25 3.63235294117647 27.64 0 0 0 -9999 -9999 -9999 -9999 -9999 -9999 -9999 -9999 -9999 -9999 -9999 -9999 -9999 -9999 -9999 -9999 -9999 -9999 -9999 -9999 -9999 -9999 -9999 -9999 -9999 -9999 -9999 0 0 0
2.3609022556391 3.56914893617021 1.28571428571429 0 0 0 0 0 0 0 0 0 0 0 1 1.94285714285714 1.47619047619048 2.17647058823529 0 7.03333333333333 1 1 0 0 0 0 0 0 0 0 0 0 0 9.88372093023256 2.75 7.97515527950311 6.99264705882353 6.85714285714286 6.79032258064516 5.3495145631068 4.99242424242424 4.671875 2.38636363636364 6.75 3.15315315315315 4.75 0 0 0 -9999 -9999 -9999 -9999 -9999 -9999 -9999 -9999 -9999 -9999 -9999 -9999 -9999 -9999 -9999 -9999 -9999 -9999 -9999 -9999 -9999 -9999 -9999 -9999 -9999 -9999 -9999 0 0
2.35802469135802 1 0 0 0 0 0 0 0 0 0 0 0 0 0 0 2 1.6875 2.71165644171779 0 6.875 1.66666666666667 0 0 0 0 2 0 0 0 0 0 5.05882352941176 11.5272727272727 3.07692307692308 2.6986301369863 26.6 2.60759493670886 2.39285714285714 3.18279569892473 3.59302325581395 2.76793248945148 7.42465753424658 4.14814814814815 2.57142857142857 71.4 2.23423423423423 2.83333333333333 0 -9999 -9999 -9999 -9999 -9999 -9999 -9999 -9999 -9999 -9999 -9999 -9999 -9999 -9999 -9999 -9999 -9999 -9999 -9999 -9999 -9999 -9999 -9999 -9999 -9999 -9999 -9999 0 0
3.57627118644068 0 0 0 0 0 0 0 0 0 0 0 0 0 0 0 2.6969696969697 1.875 1.5 2.86440677966102 1.33333333333333 0 0 0 6.6 3.71428571428571 0 1.7 2 0 10.1 4.64179104477612 2 2.62790697674419 1.125 3.85 3.025 3.35849056603774 12.8529411764706 3.97297297297297 6.87878787878788 2.55555555555556 5.75 8.01639344262295 1.33333333333333 2.5379746835443 6.98850574712644 2.11538461538462 0 0 0 -9999 -9999 -9999 -9999 -9999 -9999 -9999 -9999 -9999 -9999 -9999 -9999 -9999 -9999 -9999 -9999 -9999 -9999 -9999 -9999 -9999 -9999 -9999 -9999 -9999 0 0
0 0 0 0 0 0 0 0 0 0 0 0 0 0 0 0 1 2 2.22916666666667 3.95833333333333 2.22727272727273 1.66666666666667 5.375 0 0 0 1.75 0 0 0 0 0 2 5.11111111111111 9.85 3.60294117647059 5.50649350649351 2.25 2 4 6 15.3770491803279 5.76569037656904 5.40816326530612 2.48529411764706 3.09859154929577 2.33333333333333 2.57971014492754 0 0 0 0 -9999 -9999 -9999 -9999 -9999 -9999 -9999 -9999 -9999 -9999 -9999 -9999 -9999 -9999 -9999 -9999 -9999 -9999 -9999 -9999 -9999 -9999 -9999 -9999 -9999 0
0 0 0 0 0 0 0 0 0 0 0 0 0 0 0 0 0 2.42857142857143 2.3448275862069 3.10606060606061 2.36904761904762 1.79385964912281 2.15 0 3.21621621621622 0 0 0 0 0 0 0 10.5789473684211 2.28571428571429 3.47826086956522 4.6 2.39583333333333 1.78571428571429 2 0 3.03225806451613 6.92465753424658 10.6551724137931 2.82758620689655 2.5 3.6 3.03508771929825 14.962962962963 3.75 0 0 0 -9999 -9999 -9999 -9999 -9999 -9999 -9999 -9999 -9999 -9999 -9999 -9999 -9999 -9999 -9999 -9999 -9999 -9999 0 0 -9999 -9999 -9999 -9999 -9999 0
0 0 0 0 0 0 0 0 0 0 0 0 0 0 0 0 0 0 0 0 1.5 2.22222222222222 2.77272727272727 1.97435897435897 2.625 3 0 0 0 0 0 0 1.33333333333333 2.20967741935484 1.5625 2.875 3.11538461538462 3.05555555555556 0 2.81538461538462 2.22727272727273 2.4 21.3939393939394 3.69811320754717 3.66666666666667 8.72093023255814 2.79207920792079 0 0 0 0 0 0 -9999 -9999 -9999 -9999 -9999 -9999 -9999 -9999 -9999 -9999 -9999 -9999 -9999 -9999 -9999 -9999 -9999 -9999 0 -9999 -9999 -9999 -9999 -9999 -9999
0 0 0 0 0 0 0 0 0 0 0 0 0 0 0 0 0 0 0 1 2.14545454545455 1.87301587301587 2.5 1 3.75 1 2.6 1.75 2.71428571428571 1.33333333333333 2.66666666666667 1.83333333333333 2.38095238095238 1.57142857142857 1.67567567567568 2.625 2.38235294117647 11.7857142857143 0 1.81818181818182 2.52 2.05 0 1.77777777777778 13.2061855670103 61.2 2.72727272727273 2.85294117647059 12.5060240963855 7.7 0 0 0 0 0 0 -9999 -9999 -9999 -9999 -9999 -9999 -9999 -9999 -9999 -9999 -9999 -9999 -9999 -9999 -9999 -9999 0 -9999 -9999 -9999 -9999 -9999
0 0 0 0 0 0 0 0 0 0 0 0 0 0 0 0 0 0 0 0 0 0 0 1.61111111111111 0 6.61538461538461 0 13 0 0 0 0 4.04166666666667 1.64788732394366 3.01315789473684 2.65217391304348 3.20261437908497 2.27272727272727 0 3.8695652173913 0 1 2 2.53571428571429 16.6521739130435 29.2083333333333 8.7258064516129 0 3.19259259259259 2.6875 2.51724137931034 0 0 0 0 0 0 -9999 -9999 -9999 -9999 -9999 -9999 -9999 -9999 -9999 -9999 -9999 -9999 -9999 -9999 -9999 -9999 -9999 -9999 -9999 -9999 -9999
0 0 0 0 0 0 0 0 0 0 0 0 0 0 0 0 0 0 0 0 0 0 0 1 2.48076923076923 2.1358024691358 4.21854304635762 3.03846153846154 3.89473684210526 0 0 0 2.6 2.78260869565217 2.64285714285714 2.19354838709677 2.47126436781609 3.58064516129032 10.1428571428571 3.10526315789474 3.75 2.18518518518519 1.76470588235294 1.5 5.57777777777778 0 10.2222222222222 3.275 5.89380530973451 2.32142857142857 21.1935483870968 0 0 0 0 0 0 -9999 -9999 -9999 -9999 -9999 -9999 -9999 -9999 -9999 -9999 -9999 -9999 -9999 -9999 -9999 -9999 -9999 -9999 -9999 -9999 -9999
0 0 0 0 0 0 0 0 0 0 0 0 0 0 0 0 0 0 0 0 0 0 0 0 0 2 2.81818181818182 4.43373493975904 3.20714285714286 0 2.13888888888889 2.125 2.65 4.578125 0 2.33962264150943 2.38235294117647 1.875 11.8 2.15909090909091 0 2.125 3 6.52054794520548 4 3.30434782608696 10.1032258064516 3.11475409836066 0 0 3.04 0 0 0 0 0 0 0 -9999 -9999 -9999 -9999 -9999 -9999 -9999 -9999 -9999 -9999 -9999 -9999 -9999 -9999 -9999 -9999 -9999 -9999 -9999 -9999
0 0 0 0 0 0 0 0 0 0 0 0 0 0 0 0 0 0 0 0 0 0 0 0 0 2.75 1 0 2.125 1.27272727272727 0 2.30120481927711 0 2.93333333333333 4 3.46 3.21212121212121 2.57142857142857 2 0 3 4.18 2.36842105263158 2.5 3.23636363636364 5.17977528089888 3 0 11.9047619047619 1.90909090909091 0 0 3 0 0 0 0 0 -9999 -9999 -9999 -9999 -9999 -9999 -9999 -9999 -9999 -9999 -9999 -9999 -9999 -9999 -9999 -9999 -9999 -9999 -9999 0
0 0 0 0 0 0 0 0 0 0 0 0 0 0 0 0 0 0 0 0 0 0 0 0 0 0 0 0 0 3.44444444444444 3.77777777777778 1.5 1.77777777777778 1.625 0 8.6 2.25136612021858 3.08873720136519 0 2.25 3.9375 2.83333333333333 2.66666666666667 2.66666666666667 0 1.88888888888889 8.3030303030303 2.55172413793103 2.5 1.6 3.48 0 2.36842105263158 0 0 0 0 0 -9999 -9999 -9999 -9999 -9999 -9999 -9999 -9999 -9999 -9999 -9999 -9999 -9999 -9999 -9999 -9999 -9999 -9999 -9999 -9999
0 0 0 0 0 0 0 0 0 0 0 0 0 0 0 0 0 0 0 0 0 0 0 0 0 0 0 0 0 1.68888888888889 1.79012345679012 2.9 0 2 0 2.90909090909091 4.29166666666667 3.64833574529667 3.50295857988166 3.78571428571429 1.5 3.07142857142857 1.8 1.5 3.42 1.69565217391304 2.68421052631579 8.5 0 0 2.26315789473684 9.93333333333333 4.71428571428571 0 0 0 0 0 -9999 -9999 -9999 -9999 -9999 -9999 -9999 -9999 -9999 -9999 -9999 -9999 -9999 -9999 -9999 -9999 -9999 -9999 -9999 -9999
0 0 0 0 0 0 0 0 0 0 0 0 0 0 0 0 0 0 0 0 0 0 0 0 0 0 0 0 0 1.5 1.93333333333333 2.27272727272727 0 2 0 0 0 2.90582191780822 2.81224489795918 2.66666666666667 2.5 1.28571428571429 3.26666666666667 0 2.96296296296296 0 0 6.6 2.39130434782609 7.3125 0 2.6 2.57142857142857 0 0 0 0 0 -9999 -9999 -9999 -9999 -9999 -9999 -9999 -9999 -9999 -9999 -9999 -9999 -9999 -9999 -9999 -9999 -9999 -9999 -9999 -9999
0 0 0 0 0 0 0 0 0 0 0 0 0 0 0 0 0 0 0 0 0 0 0 0 0 0 0 0 0 2 2 2.91176470588235 1.66666666666667 0 1.76923076923077 0 1.76923076923077 3.17436974789916 4.62339331619537 3.38924050632911 5.90721649484536 2.82758620689655 0 4.54545454545455 0 2.08333333333333 4 3.66666666666667 2.87096774193548 5.8 0 2.41176470588235 0 0 0 0 0 0 -9999 -9999 -9999 -9999 -9999 -9999 -9999 -9999 -9999 -9999 -9999 -9999 -9999 -9999 -9999 -9999 -9999 -9999 -9999 -9999
0 0 0 0 0 0 0 0 0 0 0 0 0 0 0 0 0 0 0 0 0 0 0 0 0 0 0 0 0 1.2 2 1.75 0 0 0 3.78947368421053 0 3.15702479338843 3.66666666666667 2.7280701754386 2.40064102564103 1.44444444444444 3 3.5 2.92307692307692 6 4.4 5.17142857142857 2.62962962962963 6.85714285714286 2.5 2.91666666666667 3.42857142857143 0 0 0 0 -9999 -9999 -9999 -9999 -9999 -9999 -9999 -9999 -9999 -9999 -9999 -9999 -9999 -9999 -9999 -9999 -9999 -9999 -9999 -9999 -9999
0 0 0 0 0 0 0 0 0 0 0 0 0 0 0 0 0 0 0 0 0 0 0 0 0 0 0 0 0 0 0 0 2.03225806451613 2.64285714285714 0 0 1.63636363636364 0 0 1.66666666666667 2.99432892249527 2.76923076923077 0 0 0 0 3.78571428571429 3.28571428571429 4.35714285714286 4.70588235294118 6.03333333333333 0 0 2.68852459016393 0 0 0 -9999 -9999 -9999 -9999 -9999 -9999 -9999 -9999 -9999 -9999 -9999 -9999 -9999 -9999 -9999 -9999 -9999 -9999 -9999 -9999 -9999
0 0 0 0 0 0 0 0 0 0 0 0 0 0 0 0 0 0 0 0 0 0 0 0 0 0 0 0 0 0 0 0 1.5 2.16587677725118 1.66666666666667 0 0 3.34210526315789 3 2.74390243902439 3.2108843537415 3.97894736842105 2.25925925925926 1.93939393939394 1.58620689655172 2.76388888888889 4.63636363636364 2.92857142857143 6.98591549295775 0 0 0 0 5.76470588235294 0 0 0 -9999 -9999 -9999 -9999 -9999 -9999 -9999 -9999 -9999 -9999 -9999 -9999 -9999 -9999 -9999 -9999 -9999 -9999 -9999 -9999 -9999
0 0 0 0 0 0 0 0 0 0 0 0 0 0 0 0 0 0 0 0 0 0 0 0 0 0 0 0 0 0 0 0 2.28571428571429 1.1 2.26760563380282 2 28 0 0 0 0 0 2.6078431372549 1.78571428571429 1.70731707317073 2.27586206896552 2.88888888888889 0 3.66666666666667 2.4 0 0 3.39130434782609 0 0 0 -9999 -9999 -9999 -9999 -9999 -9999 -9999 -9999 -9999 -9999 -9999 -9999 -9999 -9999 -9999 -9999 -9999 -9999 -9999 -9999 -9999 -9999
0 0 0 0 0 0 0 0 0 0 0 0 0 0 0 0 0 0 0 0 0 0 0 0 0 0 0 0 0 0 0 0 2.5 1.2 1.2 0 1.5 0 2.7 1 0 4.57142857142857 0 0 1.75862068965517 2.46666666666667 2.55555555555556 12.28125 0 2.75 0 4.46153846153846 1.28571428571429 10.3475177304965 0 0 -9999 -9999 -9999 -9999 -9999 -9999 -9999 -9999 -9999 -9999 -9999 -9999 -9999 -9999 -9999 -9999 -9999 -9999 -9999 -9999 -9999 -9999
0 0 0 0 0 0 0 0 0 0 0 0 0 0 0 0 0 0 0 0 0 0 0 0 0 0 0 0 0 0 0 0 0 0 0 2.77777777777778 1.33333333333333 1 2.2 2.47058823529412 3.03636363636364 2.17460317460317 0 0 1.95652173913043 2.25641025641026 2.66666666666667 0 4 2.25 3 5.88888888888889 3.61538461538462 6.61065573770492 2.34347826086957 4.86666666666667 -9999 -9999 0 0 -9999 -9999 -9999 -9999 -9999 -9999 -9999 -9999 -9999 -9999 -9999 -9999 -9999 -9999 -9999 -9999 -9999 -9999
0 0 0 0 0 0 0 0 0 0 0 0 0 0 0 0 0 0 0 0 0 0 0 0 0 0 0 0 0 0 0 0 0 0 0 1.25 2.4375 1.26666666666667 1 3.10294117647059 2.59459459459459 1 1.90909090909091 2.14117647058824 3 1.83333333333333 2.65217391304348 0 0 1.57142857142857 3.25 4.05508474576271 2.04040404040404 7.32173913043478 3.02777777777778 0 -9999 -9999 0 0 0 -9999 -9999 -9999 -9999 -9999 -9999 -9999 -9999 -9999 -9999 -9999 -9999 -9999 -9999 -9999 -9999 -9999
0 0 0 0 0 0 0 0 0 0 0 0 0 0 0 0 0 0 0 0 0 0 0 0 0 0 0 0 0 0 0 0 0 0 0 4.92857142857143 1 1.5 1.5 2.82 2.7874251497006 0 1.83333333333333 0 2.26086956521739 6.16666666666667 4.90909090909091 3.35416666666667 1.8 2.63809523809524 2.64 1.92307692307692 2.34591194968553 3.06077348066298 3.71232876712329 6 0 -9999 -9999 0 0 -9999 -9999 -9999 -9999 -9999 -9999 -9999 -9999 -9999 -9999 -9999 -9999 -9999 -9999 -9999 -9999 -9999
0 0 0 0 0 0 0 0 0 0 0 0 0 0 0 0 0 0 0 0 0 0 0 0 0 0 0 0 0 0 0 0 0 0 0 1 3.16666666666667 0 2.75 4.01903114186851 2.80909090909091 2.15 0 0 1.5 1.94444444444444 5.03921568627451 2.36190476190476 2.76470588235294 2.68888888888889 23.7317073170732 0 1 5.54314720812183 2.52054794520548 10.5757575757576 0 0 0 0 -9999 -9999 -9999 -9999 -9999 -9999 -9999 -9999 -9999 -9999 -9999 -9999 -9999 -9999 -9999 -9999 -9999 -9999
0 0 0 0 0 0 0 0 0 0 0 0 0 0 0 0 0 0 0 0 0 0 0 0 0 0 0 0 0 0 0 0 0 0 0 2.58620689655172 2 1.66666666666667 7 7.55357142857143 0 0 2 2.25 1.625 0 2.88 2 2.30769230769231 0 2.2 2.52604166666667 5.45098039215686 2.92465753424658 6.94174757281553 5.34722222222222 0 0 0 0 -9999 -9999 -9999 -9999 -9999 -9999 -9999 -9999 -9999 -9999 -9999 -9999 -9999 -9999 -9999 -9999 -9999 -9999
0 0 0 0 0 0 0 0 0 0 0 0 0 0 0 0 0 0 0 0 0 0 0 0 0 0 0 0 0 0 0 0 0 0 1.75 2 0 3 2 2.14864864864865 1.9 0 3 2.74647887323944 3.5 1.7 2.42857142857143 1.88571428571429 2.28947368421053 1.92592592592593 1.7037037037037 0 15.0384615384615 3.05 7.16 7.7396694214876 0 0 0 -9999 -9999 -9999 -9999 -9999 -9999 -9999 -9999 -9999 -9999 -9999 -9999 -9999 -9999 -9999 -9999 -9999 -9999 -9999
0 0 0 0 0 0 0 0 0 0 0 0 0 0 0 0 0 0 0 0 0 0 0 0 0 0 0 0 0 0 0 0 0 0 1.5 1.75 3.21212121212121 1.84210526315789 0 2.02 0 0 1.5 1.54054054054054 2.94736842105263 1.4 1.25 0 2.41666666666667 1.90909090909091 2.38356164383562 0 2.87906976744186 2.75409836065574 3.41666666666667 2.77647058823529 8.27777777777778 0 -9999 -9999 -9999 -9999 -9999 -9999 -9999 -9999 -9999 -9999 -9999 -9999 -9999 -9999 -9999 -9999 -9999 -9999 -9999 -9999
0 0 0 0 0 0 0 0 0 0 0 0 0 0 0 0 0 0 0 0 0 0 0 0 0 0 0 0 0 0 0 0 0 0 0 2 4 2.3 0 0 0 3.12162162162162 1.33333333333333 3.35714285714286 2.35714285714286 1.9375 1.91666666666667 1.91666666666667 1.48936170212766 0 1.5 0 0 0 2.33333333333333 1.8 2.61538461538462 0 0 -9999 -9999 -9999 -9999 -9999 -9999 -9999 -9999 -9999 -9999 -9999 -9999 -9999 -9999 -9999 -9999 -9999 -9999 -9999
0 0 0 0 0 0 0 0 0 0 0 0 0 0 0 0 0 0 0 0 0 0 0 0 0 0 0 0 0 0 0 0 0 0 1.5 1.25 1.33333333333333 4.75 0 0 3.0952380952381 0 4.74285714285714 2 0 0 2.03076923076923 2.37209302325581 1.81481481481481 4.32692307692308 2.07446808510638 1.9047619047619 38.875 0 2.5 0 75.75 7.82758620689655 0 0 -9999 -9999 -9999 -9999 -9999 -9999 -9999 -9999 -9999 -9999 -9999 -9999 -9999 -9999 -9999 -9999 -9999 -9999
0 0 0 0 0 0 0 0 0 0 0 0 0 0 0 0 0 0 0 0 0 0 0 0 0 0 0 0 0 0 0 0 0 0 0 0 2.6 0 0 0 1 2.3125 2.83333333333333 2.41666666666667 3.88888888888889 1.76470588235294 2.54901960784314 2.09230769230769 2.4 1.86046511627907 3.13793103448276 4.12 16.1428571428571 2.63636363636364 1 2.25 8.81730769230769 3.91044776119403 1.63636363636364 0 -9999 -9999 -9999 -9999 -9999 -9999 -9999 -9999 -9999 -9999 -9999 -9999 -9999 -9999 -9999 -9999 -9999 -9999
0 0 0 0 0 0 0 0 0 0 0 0 0 0 0 0 0 0 0 0 0 0 0 0 0 0 0 0 0 0 0 0 0 0 0 1 0 0 0 0 4 1.71428571428571 2.61538461538462 3.01923076923077 5.16666666666667 5.08333333333333 2.8125 2.7027027027027 2.60240963855422 3.80769230769231 0 7.93650793650794 3.71875 2.56296296296296 0 5.8 0 0 3 13.3333333333333 -9999 -9999 -9999 -9999 -9999 -9999 -9999 -9999 -9999 -9999 -9999 -9999 -9999 -9999 -9999 -9999 -9999 -9999
0 0 0 0 0 0 0 0 0 0 0 0 0 0 0 0 0 0 0 0 0 0 0 0 0 0 0 0 0 0 0 0 0 0 0 2.5 0 2.1 0 0 4.875 2.66666666666667 4.28947368421053 6.51666666666667 3.475 2.25 1.94736842105263 2.18604651162791 2.86708860759494 2.52631578947368 2.68382352941176 0 4.17073170731707 0 4 0 0 2.63888888888889 2.33333333333333 0 0 -9999 -9999 -9999 -9999 -9999 -9999 -9999 -9999 -9999 -9999 -9999 -9999 -9999 -9999 -9999 -9999 -9999
0 0 0 0 0 0 0 0 0 0 0 0 0 0 0 0 0 0 0 0 0 0 0 0 0 0 0 0 0 0 0 0 0 0 0 0 1.5 0 0 0 0 1.4 1.57142857142857 4.07692307692308 0 2 0 2 1.72727272727273 2.86363636363636 1.92 6.17333333333333 4.12903225806452 4.26829268292683 2.41666666666667 0 0 2.5 3.77777777777778 4.52941176470588 42.8275862068966 -9999 -9999 -9999 -9999 -9999 -9999 -9999 -9999 -9999 -9999 -9999 -9999 -9999 -9999 -9999 -9999 -9999
0 0 0 0 0 0 0 0 0 0 0 0 0 0 0 0 0 0 0 0 0 0 0 0 0 0 0 0 0 0 0 0 0 0 0 0 1.33333333333333 0 0 5.2 0 0 0 3 4.42105263157895 3.22222222222222 1.81818181818182 2.13636363636364 2.97368421052632 1.84210526315789 2 5.33333333333333 2.14285714285714 4.05982905982906 4.46464646464646 1.75 0 2.65714285714286 2.68852459016393 3 10.5 0 -9999 -9999 0 -9999 -9999 -9999 -9999 -9999 -9999 -9999 -9999 -9999 -9999 -9999 -9999 -9999
0 0 0 0 0 0 0 0 0 0 0 0 0 0 0 0 0 0 0 0 0 0 0 0 0 0 0 0 0 0 0 0 0 0 0 0 1 1.66666666666667 0 0 0 0 0 2.75 6.28571428571429 1.75 0 3.25 6.41176470588235 2.07692307692308 2.25581395348837 2.80487804878049 5.15730337078652 6.19090909090909 3.16666666666667 5.2258064516129 1.64285714285714 0 0 3.41333333333333 2.86111111111111 15.15 0 0 0 -9999 -9999 -9999 -9999 -9999 -9999 -9999 -9999 -9999 -9999 -9999 -9999 -9999
0 0 0 0 0 0 0 0 0 0 0 0 0 0 0 0 0 0 0 0 0 0 0 0 0 0 0 0 0 0 0 0 0 0 0 0 0 3 0 0 0 0 1 1.66666666666667 1 2.70833333333333 0 0 2.3 3.11111111111111 2.125 1.76 2.56451612903226 4.6530612244898 2.38202247191011 2.59183673469388 0 4.42307692307692 3.11764705882353 2.02325581395349 5.29032258064516 0 0 0 0 -9999 -9999 -9999 -9999 -9999 -9999 -9999 -9999 -9999 -9999 -9999 -9999 -9999
0 0 0 0 0 0 0 0 0 0 0 0 0 0 0 0 0 0 0 0 0 0 0 0 0 0 0 0 0 0 0 0 0 0 0 0 0 2 0 0 0 1 0 0 2 0 4 0 0 0 0 2.06122448979592 2.03333333333333 3.10666666666667 2.60683760683761 2.42857142857143 4.66666666666667 2.4375 2.125 1.8 2.37254901960784 1.25 0 0 -9999 -9999 -9999 -9999 -9999 -9999 -9999 -9999 -9999 -9999 -9999 -9999 -9999 -9999
0 0 0 0 0 0 0 0 0 0 0 0 0 0 0 0 0 0 0 0 0 0 0 0 0 0 0 0 0 0 0 0 0 0 0 0 0 0 1.66666666666667 0 0 0 0 0 1.89855072463768 2.30769230769231 0 1.33333333333333 0 0 0 1.62068965517241 2.35897435897436 7.57142857142857 0 8.53191489361702 7.21875 4.03030303030303 0 1.66666666666667 2.87179487179487 2.15625 22.8333333333333 0 -9999 -9999 -9999 -9999 -9999 -9999 -9999 -9999 -9999 -9999 -9999 -9999 -9999 -9999
0 0 0 0 0 0 0 0 0 0 0 0 0 0 0 0 0 0 0 0 0 0 0 0 0 0 0 0 0 0 0 0 0 0 0 0 0 0 0 0 0 0 4 0 2.92063492063492 0 5.5 1.66666666666667 0 0 0 2.35593220338983 2.60416666666667 2.42592592592593 3.98305084745763 6.95652173913043 2 0 0 0 3.7536231884058 5.17142857142857 6.67948717948718 0 0 0 0 0 -9999 -9999 -9999 -9999 -9999 -9999 -9999 -9999 -9999 -9999
0 0 0 0 0 0 0 0 0 0 0 0 0 0 0 0 0 0 0 0 0 0 0 0 0 0 0 0 0 0 0 0 0 0 0 0 0 0 0 0 0 0 0 0 2.07407407407407 2.65671641791045 2 0 0 5.8135593220339 0 2.2 3.83870967741935 1.61111111111111 2.5625 3.72 3.30769230769231 3.57142857142857 0 0 3.05555555555556 4.73333333333333 6.11111111111111 0 0 0 0 0 -9999 -9999 -9999 -9999 -9999 -9999 -9999 -9999 -9999 -9999
0 0 0 0 0 0 0 0 0 0 0 0 0 0 0 0 0 0 0 0 0 0 0 0 0 0 0 0 0 0 0 0 0 0 0 0 0 0 0 0 1 0 0 1 2.23684210526316 3.48214285714286 0 4.8 0 0 0 2.16666666666667 2.78571428571429 0 2.1875 6.14285714285714 8.66037735849057 0 0 0 1 2 4 2.05882352941176 1.5 0 0 0 -9999 -9999 -9999 -9999 -9999 -9999 -9999 -9999 -9999 -9999
0 0 0 0 0 0 0 0 0 0 0 0 0 0 0 0 0 0 0 0 0 0 0 0 0 0 0 0 0 0 0 0 0 0 0 0 0 0 0 2 0 0 4 0 4.38356164383562 2.40625 0 1.5 0 0 0 2.61111111111111 3 0 0 3.85714285714286 6.25 1.44444444444444 2.57692307692308 0 0 0 2.16326530612245 2.36764705882353 0 37.3846153846154 0 1 -9999 -9999 -9999 -9999 -9999 -9999 -9999 -9999 -9999 -9999
0 0 0 0 0 0 0 0 0 0 0 0 0 0 0 0 0 0 0 0 0 0 0 0 0 0 0 0 0 0 0 0 0 0 0 0 0 0 0 0 0 2 0 0 1 2.72727272727273 1 2 0 0 1.93333333333333 1.6 4.68181818181818 1.71052631578947 2.875 2.2962962962963 2.26666666666667 0 2.5 0 0 0 0 3.21538461538462 0 9.75 2.16666666666667 3 -9999 -9999 -9999 -9999 -9999 -9999 -9999 -9999 -9999 -9999
0 0 0 0 0 0 0 0 0 0 0 0 0 0 0 0 0 0 0 0 0 0 0 0 0 0 0 0 0 0 0 0 0 0 0 0 0 0 0 0 2.64516129032258 0 0 0 1 2.28125 0 1.81818181818182 0 0 0 1.7037037037037 2.4047619047619 3.69230769230769 2 2.15384615384615 0 0 0 0 0 8.90909090909091 0 0 8.6 2 25.7368421052632 0 0 -9999 -9999 -9999 -9999 -9999 -9999 -9999 -9999 -9999
0 0 0 0 0 0 0 0 0 0 0 0 0 0 0 0 0 0 0 0 0 0 0 0 0 0 0 0 0 0 0 0 0 0 0 0 0 0 0 0 0 1 0 0 0 2.98958333333333 2.16666666666667 8.10344827586207 0 0 0 0 0 0 2.67857142857143 3.07142857142857 6.05263157894737 0 0 0 0 0 2.3125 0 0 2.25 0 0 0 0 -9999 -9999 -9999 -9999 -9999 -9999 -9999 -9999
0 0 0 0 0 0 0 0 0 0 0 0 0 0 0 0 0 0 0 0 0 0 0 0 0 0 0 0 0 0 0 0 0 0 0 0 0 0 0 0 1.5 0 0 0 0 1 1.91428571428571 0 0 0 0 0 0 0 0 4.5 3 0 0 2 0 0 0 0 0 0 2.94117647058824 0 1.5 0 0 0 -9999 -9999 -9999 -9999 -9999 -9999
0 0 0 0 0 0 0 0 0 0 0 0 0 0 0 0 0 0 0 0 0 0 0 0 0 0 0 0 0 0 0 0 0 0 0 0 0 0 2.45454545454545 1.66666666666667 4.66666666666667 2.4 0 0 0 1.83333333333333 2.57142857142857 1 29.0909090909091 0 0 0 0 1.33333333333333 0 0 4.375 0 5.49230769230769 0 0 0 0 0 0 0 2 0 0 0 0 0 0 0 -9999 -9999 -9999 -9999
0 0 0 0 0 0 0 0 0 0 0 0 0 0 0 0 0 0 0 0 0 0 0 0 0 0 0 0 0 0 0 0 0 0 0 0 0 0 0 2.55555555555556 0 0 0 0 0 1.81481481481481 1.5 1.5 0 0 0 0 5 0 1.2 3.375 2.5 7.11627906976744 3.5 0 0 0 0 0 0 0 0 0 0 0 0 0 0 0 0 -9999 -9999 -9999
0 0 0 0 0 0 0 0 0 0 0 0 0 0 0 0 0 0 0 0 0 0 0 0 0 0 0 0 0 0 0 0 0 0 0 0 0 0 0 0 3.11111111111111 4.2 0 1.66666666666667 0 0 3.38709677419355 0 0 0 0 0 0 0 5.27272727272727 0 4.05555555555556 5.26470588235294 5.55555555555556 0 0 3.5 0 0 0 0 0 0 0 0 0 0 0 0 0 -9999 -9999 -9999
0 0 0 0 0 0 0 0 0 0 0 0 0 0 0 0 0 0 0 0 0 0 0 0 0 0 0 0 0 0 0 0 0 0 0 0 0 0 0 0 0 1 1 0 0 6.06666666666667 2.52830188679245 1 0 0 0 0 2.11111111111111 1.33333333333333 0 2.26666666666667 2.8125 0 0 2.66666666666667 0 9.88888888888889 0 1.33333333333333 0 3.57142857142857 0 3.90909090909091 0 0 0 0 0 0 0 0 0 -9999
0 0 0 0 0 0 0 0 0 0 0 0 0 0 0 0 0 0 0 0 0 0 0 0 0 0 0 0 0 0 0 0 0 0 0 0 0 0 0 0 2.66666666666667 0 0 0 0 1 1.5 0 0 0 0 0 2.57142857142857 0 7.2 2.275 0 0 0 0 0 2 0 0 0 1 1.8 0 3.13636363636364 0 0 0 0 0 0 0 -9999 -9999
0 0 0 0 0 0 0 0 0 0 0 0 0 0 0 0 0 0 0 0 0 0 0 0 0 0 0 0 0 0 0 0 0 0 0 0 0 0 0 0 0 1.5 1 1 0 10.1509433962264 2.43661971830986 0 0 0 0 0 2 0 1.72727272727273 2.79545454545455 3.34285714285714 2 0 5 6.31578947368421 0 12.7666666666667 0 3.19047619047619 3.16 0 3.22222222222222 2.51515151515152 9 0 0 0 0 0 0 0 -9999
0 0 0 0 0 0 0 0 0 0 0 0 0 0 0 0 0 0 0 0 0 0 0 0 0 0 0 0 0 0 0 0 0 0 0 0 0 0 0 0 0 0 2.27777777777778 2 0 2.65 2.73333333333333 0 0 0 0 0 0 0 2.30769230769231 1.9 2 0 0 0 0 0 0 2.33333333333333 0 3.85714285714286 0 0 0 0 0 0 0 0 0 0 -9999 0
0 0 0 0 0 0 0 0 0 0 0 0 0 0 0 0 0 0 0 0 0 0 0 0 0 0 0 0 0 0 0 0 0 0 0 0 0 0 0 0 0 0 2.76923076923077 1.625 4.66666666666667 4.11111111111111 0 0 0 0 0 0 1.33333333333333 2 0 0 0 0 0 0 0 0 0 0 2.25 0 0 0 0 0 0 0 0 0 0 0 -9999 -9999
0 0 0 0 0 0 0 0 0 0 0 0 0 0 0 0 0 0 0 0 0 0 0 0 0 0 0 0 0 0 0 0 0 0 0 0 0 0 0 0 0 1 1.72727272727273 2 4.625 3.875 1.13333333333333 0 0 0 0 2.375 2 0 0 2.33333333333333 0 0 1.66666666666667 1.75 0 0 0 0 0 2.75977653631285 0 0 2.96875 0 0 0 0 0 0 0 0 0
0 0 0 0 0 0 0 0 0 0 0 0 0 0 0 0 0 0 0 0 0 0 0 0 0 0 0 0 0 0 0 0 0 0 0 0 0 0 0 0 0 0 16.5333333333333 2.69565217391304 0 3.18181818181818 4.47457627118644 5.94117647058824 0 0 1.6 0 1.54545454545455 0 0 0 0 0 0 0 0 0 0 0 0 0 0 0 0 0 0 0 0 0 0 0 0 0
