NCOLS 78 
NROWS 66 
XLLCORNER -87.5 
YLLCORNER 25 
CELLSIZE 0.0833333333333333 
NODATA_value -9999 
-9999.000000000000000 -9999 -9999 -9999 0 0 -9999 -9999 -9999 -9999 -9999 0 0 0 0 0 -9999 -9999 -9999 -9999 -9999 -9999 -9999 -9999 -9999 -9999 -9999 -9999 -9999 -9999 -9999 -9999 -9999 -9999 -9999 -9999 -9999 -9999 -9999 -9999 -9999 -9999 -9999 -9999 -9999 -9999 -9999 -9999 -9999 -9999 -9999 -9999 -9999 -9999 -9999 -9999 -9999 -9999 -9999 -9999 -9999 -9999 -9999 -9999 -9999 -9999 -9999 -9999 -9999 -9999 -9999 -9999 0 0 0 0 0 0
-9999 -9999 -9999 0 0 0 0 0 0 0 4.5 0 6.4 49 0 -9999 -9999 -9999 -9999 -9999 -9999 -9999 -9999 -9999 -9999 -9999 -9999 -9999 -9999 -9999 -9999 -9999 -9999 -9999 -9999 -9999 -9999 -9999 -9999 -9999 -9999 -9999 -9999 -9999 -9999 -9999 -9999 -9999 -9999 -9999 -9999 -9999 -9999 -9999 -9999 -9999 -9999 -9999 -9999 -9999 -9999 -9999 -9999 -9999 -9999 -9999 -9999 -9999 -9999 -9999 -9999 -9999 -9999 0 0 0 0 0
0 12 0 2.33333333333333 7.46666666666667 34.6666666666667 1 3.5 71.6 14.5 7.39655172413793 40.875 14.3522727272727 8.47761194029851 8.15730337078652 15.8591549295775 12.135593220339 -9999 -9999 -9999 -9999 -9999 -9999 -9999 -9999 -9999 -9999 -9999 -9999 -9999 -9999 -9999 -9999 -9999 -9999 -9999 -9999 -9999 -9999 -9999 -9999 -9999 -9999 -9999 -9999 -9999 -9999 -9999 -9999 -9999 -9999 -9999 -9999 -9999 -9999 -9999 -9999 -9999 -9999 -9999 -9999 -9999 -9999 -9999 -9999 -9999 -9999 -9999 -9999 -9999 -9999 -9999 -9999 0 0 0 0 0
1 0 1 16.7462686567164 27.9375 6.09090909090909 3.64285714285714 9.89473684210526 13.6875 0 5.25 8.66666666666667 23.5666666666667 7.28571428571429 7 12.12 9.62650602409639 5.54887218045113 6.01098901098901 6.05172413793103 0 0 -9999 -9999 -9999 -9999 -9999 -9999 -9999 -9999 -9999 -9999 -9999 -9999 -9999 -9999 -9999 -9999 -9999 -9999 -9999 -9999 -9999 -9999 -9999 -9999 -9999 -9999 -9999 -9999 -9999 -9999 -9999 -9999 -9999 -9999 -9999 -9999 -9999 -9999 -9999 -9999 -9999 -9999 -9999 -9999 -9999 -9999 -9999 -9999 -9999 -9999 -9999 0 0 0 0 0
17.4285714285714 5.53846153846154 13.96 12.1390728476821 23 12.4054054054054 21.5531914893617 13.6610169491525 20.6037735849057 26 6.44 8.47368421052632 30.6666666666667 18.9305555555556 17.0172413793103 11.433734939759 5.9016393442623 6.43283582089552 5.69182389937107 5.41463414634146 17.3636363636364 6.5 0 0 -9999 -9999 -9999 -9999 -9999 -9999 -9999 -9999 -9999 -9999 -9999 -9999 -9999 -9999 -9999 -9999 -9999 0 -9999 -9999 -9999 -9999 -9999 -9999 -9999 -9999 -9999 -9999 -9999 -9999 -9999 -9999 -9999 -9999 -9999 -9999 -9999 -9999 -9999 -9999 -9999 -9999 -9999 -9999 -9999 -9999 -9999 -9999 -9999 -9999 0 0 0 0
1.5 4.76923076923077 10.5555555555556 20.890756302521 17.5882352941176 33.9090909090909 5.74509803921569 4.25 6.35714285714286 9.08888888888889 21.3333333333333 57.8333333333333 4.16666666666667 21.7027027027027 10.95 8.15384615384615 7.59 4.54594594594595 6.44 8.26923076923077 7.12222222222222 6.28571428571429 0 0 -9999 -9999 -9999 -9999 -9999 -9999 -9999 -9999 -9999 -9999 -9999 -9999 -9999 -9999 0 0 0 0 0 0 -9999 -9999 -9999 -9999 -9999 -9999 -9999 -9999 -9999 -9999 -9999 -9999 -9999 -9999 -9999 -9999 -9999 -9999 -9999 -9999 -9999 -9999 -9999 -9999 -9999 -9999 -9999 -9999 -9999 -9999 0 0 0 0
14.609375 12 31.9 18.047619047619 6.07692307692308 3.33333333333333 0 3.5 6 9 21.8235294117647 25.75 15.9047619047619 18.12 20.3714285714286 22 10.4444444444444 9.00877192982456 17.4385964912281 16.8977272727273 24.875 16.4444444444444 9.83333333333333 4.66666666666667 -9999 -9999 -9999 -9999 -9999 -9999 -9999 -9999 -9999 -9999 -9999 -9999 -9999 -9999 0 0 0 0 0 0 0 -9999 -9999 -9999 -9999 -9999 -9999 -9999 -9999 -9999 -9999 -9999 -9999 -9999 -9999 -9999 -9999 -9999 -9999 -9999 -9999 -9999 -9999 -9999 -9999 -9999 -9999 -9999 -9999 -9999 0 0 0 0
29.5384615384615 1 12.8701298701299 21.2820512820513 7.125 0 0 0 0 4 10.3333333333333 2.44444444444444 3.16666666666667 10.4444444444444 14.5 6.5 4.72727272727273 6.54867256637168 6.22448979591837 4.76470588235294 0 1.8 0 17.0581395348837 4.8 0 -9999 -9999 -9999 -9999 -9999 -9999 -9999 -9999 -9999 -9999 0 0 0 0 0 0 0 0 0 0 -9999 -9999 -9999 -9999 -9999 -9999 -9999 -9999 -9999 -9999 -9999 -9999 -9999 -9999 -9999 -9999 -9999 -9999 -9999 -9999 -9999 -9999 -9999 -9999 -9999 -9999 -9999 -9999 0 0 0 0
1.5 0 6.58695652173913 2.66666666666667 0 0 0 0 0 0 0 0 4.15384615384615 3 7.4 32.7333333333333 16.5217391304348 31.1428571428571 15.0625 10.6551724137931 10.25 8.2 10.625 0 0 0 -9999 -9999 -9999 -9999 -9999 -9999 0 0 0 5 2.45454545454545 1.5 1 5.5 3.14285714285714 1 0 0 0 0 0 -9999 -9999 -9999 -9999 -9999 -9999 -9999 -9999 -9999 -9999 -9999 -9999 -9999 -9999 -9999 -9999 -9999 -9999 -9999 -9999 -9999 -9999 -9999 -9999 -9999 -9999 -9999 -9999 0 0 0
8.76923076923077 5.34328358208955 5.21428571428571 5.5 0 0 0 0 0 0 0 0 0 4 0 30.2666666666667 6.16 25.1176470588235 31.8 9.09090909090909 19 30.3529411764706 0 0 8.47222222222222 0 0 -9999 -9999 -9999 0 0 0 3.9 1.71428571428571 3.47058823529412 6.3 0 2.66666666666667 1 1 5.5 0 1 0 0 0 0 -9999 -9999 -9999 -9999 -9999 -9999 -9999 -9999 -9999 -9999 -9999 -9999 -9999 -9999 -9999 -9999 -9999 -9999 -9999 -9999 -9999 -9999 -9999 -9999 -9999 -9999 -9999 0 0 0
8.27659574468085 7.8 17.4 0 0 0 0 0 0 0 0 0 0 0 4 3.33333333333333 3.76923076923077 2.25 0 14.6875 10 3.5 0 0 0 0 0 0 0 0 0 0 0 1 1 2.36666666666667 4.76470588235294 4.25 1.4 3.375 2.2 1.83333333333333 1.33333333333333 3 5 0 0 0 0 -9999 -9999 -9999 -9999 -9999 -9999 -9999 -9999 -9999 -9999 -9999 -9999 -9999 -9999 -9999 -9999 -9999 -9999 -9999 -9999 -9999 -9999 -9999 -9999 -9999 -9999 -9999 0 0
8.87719298245614 1 0 0 0 0 0 0 0 0 0 0 0 0 0 0 7 5.14285714285714 7.2 0 25.25 7 0 0 0 0 7.5 0 0 0 0 0 4.25 3.39473684210526 7 3.66666666666667 2 2.1304347826087 2.7 2.91304347826087 1.66666666666667 3.15384615384615 1.5 6.66666666666667 0 0 1.66666666666667 1 0 -9999 -9999 -9999 -9999 -9999 -9999 -9999 -9999 -9999 -9999 -9999 -9999 -9999 -9999 -9999 -9999 -9999 -9999 -9999 -9999 -9999 -9999 -9999 -9999 -9999 -9999 -9999 0 0
13.4375 0 0 0 0 0 0 0 0 0 0 0 0 0 0 0 4.37037037037037 6.9 2 7.54545454545455 1 0 0 0 14.8571428571429 0 0 4.5 9 0 1.66666666666667 2.92857142857143 2.5 10.2916666666667 2.77777777777778 5.28571428571429 2.45454545454545 2.68571428571429 3.90909090909091 1.2 4.18181818181818 2.625 3.85714285714286 3 0 1.2 1.5 1 0 0 0 -9999 -9999 -9999 -9999 -9999 -9999 -9999 -9999 -9999 -9999 -9999 -9999 -9999 -9999 -9999 -9999 -9999 -9999 -9999 -9999 -9999 -9999 -9999 -9999 -9999 0 0
0 0 0 0 0 0 0 0 0 0 0 0 0 0 0 0 9 2.8 5.2 4 7.625 17 5.42857142857143 0 0 0 34.6666666666667 0 0 0 0 0 9.875 9.07142857142857 3.76 3.69444444444444 3.8141592920354 3.75 1.42857142857143 3.66666666666667 1 8.25 11.0645161290323 7.33333333333333 5.25 4.14285714285714 0 0 0 0 0 0 -9999 -9999 -9999 -9999 -9999 -9999 -9999 -9999 -9999 -9999 -9999 -9999 -9999 -9999 -9999 -9999 -9999 -9999 -9999 -9999 -9999 -9999 -9999 -9999 -9999 0
0 0 0 0 0 0 0 0 0 0 0 0 0 0 0 0 0 6.125 5.875 7.61538461538461 8.48936170212766 6.3804347826087 5.2 2 1.63636363636364 0 0 0 0 0 0 0 12.7857142857143 20.6 6.70833333333333 8.57142857142857 6.30769230769231 4.61111111111111 3.625 0 1.66666666666667 2.625 9.33333333333333 1.33333333333333 1.5 2 2 1 0 0 0 0 -9999 -9999 -9999 -9999 -9999 -9999 -9999 -9999 -9999 -9999 -9999 -9999 -9999 -9999 -9999 -9999 -9999 -9999 0 0 -9999 -9999 -9999 -9999 -9999 0
0 0 0 0 0 0 0 0 0 0 0 0 0 0 0 0 0 0 0 0 5 4.40579710144928 4.525 5.83333333333333 2.5 0 0 0 0 0 0 0 0 4.12 2.14285714285714 4.88888888888889 4.15789473684211 2.7 0 3.25 2.6 4 7.625 3 4 2.33333333333333 4.625 0 0 0 0 0 0 -9999 -9999 -9999 -9999 -9999 -9999 -9999 -9999 -9999 -9999 -9999 -9999 -9999 -9999 -9999 -9999 -9999 -9999 0 -9999 -9999 -9999 -9999 -9999 -9999
0 0 0 0 0 0 0 0 0 0 0 0 0 0 0 0 0 0 0 0 5.36363636363636 4.13333333333333 5.33333333333333 0 68 4 12.5 19.0714285714286 1 0 0 10.6666666666667 4 2 4.62068965517241 6.22222222222222 6.29411764705882 9 0 2.33333333333333 2.71428571428571 1.57142857142857 0 7.11111111111111 4.75 3 18.5 0 4.625 1.6 0 0 0 0 0 0 -9999 -9999 -9999 -9999 -9999 -9999 -9999 -9999 -9999 -9999 -9999 -9999 -9999 -9999 -9999 -9999 0 -9999 -9999 -9999 -9999 -9999
0 0 0 0 0 0 0 0 0 0 0 0 0 0 0 0 0 0 0 0 0 0 0 5.25 0 10 0 0 0 0 0 0 7 6.70833333333333 5.53947368421053 4.86206896551724 4.63636363636364 4.31578947368421 0 6.83333333333333 0 2.75 0 7.84615384615385 3 2.33333333333333 2 0 1.5 2.66666666666667 1 0 0 0 0 0 0 -9999 -9999 -9999 -9999 -9999 -9999 -9999 -9999 -9999 -9999 -9999 -9999 -9999 -9999 -9999 -9999 -9999 -9999 -9999 -9999 -9999
0 0 0 0 0 0 0 0 0 0 0 0 0 0 0 0 0 0 0 0 0 0 0 0 2.89473684210526 3.88095238095238 21.3030303030303 2.92307692307692 4.85714285714286 0 0 0 10.25 7.43478260869565 5.91666666666667 4.89583333333333 4.20833333333333 3.73333333333333 3.15789473684211 4.36363636363636 1.5 1.69230769230769 9.25 7 8.1 0 9.5 2 1 3 1.25 0 0 0 0 0 0 -9999 -9999 -9999 -9999 -9999 -9999 -9999 -9999 -9999 -9999 -9999 -9999 -9999 -9999 -9999 -9999 -9999 -9999 -9999 -9999 -9999
0 0 0 0 0 0 0 0 0 0 0 0 0 0 0 0 0 0 0 0 0 0 0 0 0 4 7.14285714285714 12.9375 10.2903225806452 0 16.2222222222222 13.4444444444444 3.88888888888889 3.29411764705882 0 5.58974358974359 7 4.56666666666667 4.14285714285714 4.6 0 0 3.76923076923077 5.35483870967742 0 1.75 7.56666666666667 2.42857142857143 0 0 0 0 0 0 0 0 0 0 -9999 -9999 -9999 -9999 -9999 -9999 -9999 -9999 -9999 -9999 -9999 -9999 -9999 -9999 -9999 -9999 -9999 -9999 -9999 -9999
0 0 0 0 0 0 0 0 0 0 0 0 0 0 0 0 0 0 0 0 0 0 0 0 0 9.77777777777778 5.66666666666667 0 8.72 4.5 0 12.375 0 2.6 3 4.25 6.09090909090909 4.27272727272727 5.88888888888889 0 6 5.04166666666667 8.5 0 2.55555555555556 3.33333333333333 2.33333333333333 0 1.33333333333333 1 0 0 0 0 0 0 0 0 -9999 -9999 -9999 -9999 -9999 -9999 -9999 -9999 -9999 -9999 -9999 -9999 -9999 -9999 -9999 -9999 -9999 -9999 -9999 0
0 0 0 0 0 0 0 0 0 0 0 0 0 0 0 0 0 0 0 0 0 0 0 0 0 0 0 0 33 7.11111111111111 28 0 3.66666666666667 3.42857142857143 0 0 5.83076923076923 6.66666666666667 0 8.83333333333333 3.41666666666667 4.8 0 0 0 1 3.57894736842105 1.83333333333333 2 0 0 0 0 0 0 0 0 0 -9999 -9999 -9999 -9999 -9999 -9999 -9999 -9999 -9999 -9999 -9999 -9999 -9999 -9999 -9999 -9999 -9999 -9999 -9999 -9999
0 0 0 0 0 0 0 0 0 0 0 0 0 0 0 0 0 0 0 0 0 0 0 0 0 0 0 0 0 4.48 7.4375 2 0 9.5 0 4.77777777777778 2.33333333333333 6.23853211009174 6.42424242424242 1.25 0 2.6 2.85714285714286 3.5 4.9375 1.66666666666667 7 12 0 0 1.5 4.25 0 0 0 0 0 0 -9999 -9999 -9999 -9999 -9999 -9999 -9999 -9999 -9999 -9999 -9999 -9999 -9999 -9999 -9999 -9999 -9999 -9999 -9999 -9999
0 0 0 0 0 0 0 0 0 0 0 0 0 0 0 0 0 0 0 0 0 0 0 0 0 0 0 0 0 21.15 6.86206896551724 13 0 10.3333333333333 0 0 0 5.36 4.35897435897436 3.53061224489796 5.6 15.5 3.71428571428571 0 7.2 0 0 7 0 0 0 0 0 0 0 0 0 0 -9999 -9999 -9999 -9999 -9999 -9999 -9999 -9999 -9999 -9999 -9999 -9999 -9999 -9999 -9999 -9999 -9999 -9999 -9999 -9999
0 0 0 0 0 0 0 0 0 0 0 0 0 0 0 0 0 0 0 0 0 0 0 0 0 0 0 0 0 1 1.5 35.2307692307692 1 0 13.2222222222222 0 1.33333333333333 5.59036144578313 6.4 4.38461538461539 8.02173913043478 6.84615384615385 0 1.2 0 4.2 0 1 0 4 0 0 0 0 0 0 0 0 -9999 -9999 -9999 -9999 -9999 -9999 -9999 -9999 -9999 -9999 -9999 -9999 -9999 -9999 -9999 -9999 -9999 -9999 -9999 -9999
0 0 0 0 0 0 0 0 0 0 0 0 0 0 0 0 0 0 0 0 0 0 0 0 0 0 0 0 0 3.2 4 3.42857142857143 0 0 0 5.42857142857143 0 9.43478260869565 2.66666666666667 5.11538461538461 3.95238095238095 8.2 7.875 0 2.5 0 2.5 2.75 1 1.75 1 0 0 0 0 0 0 -9999 -9999 -9999 -9999 -9999 -9999 -9999 -9999 -9999 -9999 -9999 -9999 -9999 -9999 -9999 -9999 -9999 -9999 -9999 -9999 -9999
0 0 0 0 0 0 0 0 0 0 0 0 0 0 0 0 0 0 0 0 0 0 0 0 0 0 0 0 0 0 0 0 3.58823529411765 2.66666666666667 0 0 3.57142857142857 0 0 8 4.41176470588235 4.57142857142857 0 0 0 0 1 2.91666666666667 1 4.14285714285714 2 0 0 4.875 0 0 0 -9999 -9999 -9999 -9999 -9999 -9999 -9999 -9999 -9999 -9999 -9999 -9999 -9999 -9999 -9999 -9999 -9999 -9999 -9999 -9999 -9999
0 0 0 0 0 0 0 0 0 0 0 0 0 0 0 0 0 0 0 0 0 0 0 0 0 0 0 0 0 0 0 0 8 10.2 3.5 0 7 4.23076923076923 10.4285714285714 3.76190476190476 2.125 4.75 2 3 2.27272727272727 4.16666666666667 28.8333333333333 4 4 0 0 0 0 0 0 0 0 -9999 -9999 -9999 -9999 -9999 -9999 -9999 -9999 -9999 -9999 -9999 -9999 -9999 -9999 -9999 -9999 -9999 -9999 -9999 -9999 -9999
0 0 0 0 0 0 0 0 0 0 0 0 0 0 0 0 0 0 0 0 0 0 0 0 0 0 0 0 0 0 0 0 5.1 5.5 4.36363636363636 0 2.5 0 0 0 0 0 3.125 2.11111111111111 3.33333333333333 3.83333333333333 4.1 0 1 2 0 0 8 0 0 0 -9999 -9999 -9999 -9999 -9999 -9999 -9999 -9999 -9999 -9999 -9999 -9999 -9999 -9999 -9999 -9999 -9999 -9999 -9999 -9999 -9999 -9999
0 0 0 0 0 0 0 0 0 0 0 0 0 0 0 0 0 0 0 0 0 0 0 0 0 0 0 0 0 0 0 0 10 6.5 2 0 7.33333333333333 0 2 0 0 6.22222222222222 0 0 5.03571428571429 2.75 6.21428571428571 4.23529411764706 0 3 0 2 0 10.8333333333333 0 0 -9999 -9999 -9999 -9999 -9999 -9999 -9999 -9999 -9999 -9999 -9999 -9999 -9999 -9999 -9999 -9999 -9999 -9999 -9999 -9999 -9999 -9999
0 0 0 0 0 0 0 0 0 0 0 0 0 0 0 0 0 0 0 0 0 0 0 0 0 0 0 0 0 0 0 0 0 0 0 4.33333333333333 0 1 1.5 2 9.85365853658537 16.6666666666667 0 0 4.70833333333333 5.84210526315789 17 0 9.7 3.6 1.16666666666667 2.2 1.75 6.23076923076923 16.5 0 -9999 -9999 0 0 -9999 -9999 -9999 -9999 -9999 -9999 -9999 -9999 -9999 -9999 -9999 -9999 -9999 -9999 -9999 -9999 -9999 -9999
0 0 0 0 0 0 0 0 0 0 0 0 0 0 0 0 0 0 0 0 0 0 0 0 0 0 0 0 0 0 0 0 0 0 0 4 6.66666666666667 7.83333333333333 0 6.36363636363636 5.45454545454545 17.3333333333333 4.66666666666667 8.06896551724138 6.4 6.35714285714286 2.46666666666667 0 0 1.5 2.5 15.4782608695652 1.5 7.21052631578947 5.5 0 -9999 -9999 0 0 0 -9999 -9999 -9999 -9999 -9999 -9999 -9999 -9999 -9999 -9999 -9999 -9999 -9999 -9999 -9999 -9999 -9999
0 0 0 0 0 0 0 0 0 0 0 0 0 0 0 0 0 0 0 0 0 0 0 0 0 0 0 0 0 0 0 0 0 0 0 3.07692307692308 0 3 299 6.53333333333333 7.49315068493151 0 8.16666666666667 0 13.3 3.67741935483871 5.125 6.27272727272727 12.25 4.46428571428571 4.82352941176471 2.66666666666667 2.09090909090909 4.71428571428571 3.72727272727273 0 0 -9999 -9999 0 0 -9999 -9999 -9999 -9999 -9999 -9999 -9999 -9999 -9999 -9999 -9999 -9999 -9999 -9999 -9999 -9999 -9999
0 0 0 0 0 0 0 0 0 0 0 0 0 0 0 0 0 0 0 0 0 0 0 0 0 0 0 0 0 0 0 0 0 0 0 6.66666666666667 1.33333333333333 0 4 5.87878787878788 7.125 6.54545454545455 0 0 3 4.07142857142857 3.41379310344828 6.16 3 2.76470588235294 11.7647058823529 0 0 7.8 3.2 1 0 0 0 0 -9999 -9999 -9999 -9999 -9999 -9999 -9999 -9999 -9999 -9999 -9999 -9999 -9999 -9999 -9999 -9999 -9999 -9999
0 0 0 0 0 0 0 0 0 0 0 0 0 0 0 0 0 0 0 0 0 0 0 0 0 0 0 0 0 0 0 0 0 0 2 5.88461538461539 3.66666666666667 3 42.6 4.28571428571429 0 0 0 56.5 2.33333333333333 0 2.2 4.85714285714286 3.11111111111111 0 15.4 5.11904761904762 3.29411764705882 5.57142857142857 9.3 2.3 0 0 0 0 -9999 -9999 -9999 -9999 -9999 -9999 -9999 -9999 -9999 -9999 -9999 -9999 -9999 -9999 -9999 -9999 -9999 -9999
0 0 0 0 0 0 0 0 0 0 0 0 0 0 0 0 0 0 0 0 0 0 0 0 0 0 0 0 0 0 0 0 0 0 2 3.25 0 1.33333333333333 4 7.15384615384615 10.5 0 5.75 10.8333333333333 2 6.55555555555556 7.71428571428571 8.93333333333333 2.94285714285714 6.26086956521739 4.21052631578947 0 27.8571428571429 3.4 2 5.33333333333333 0 0 0 -9999 -9999 -9999 -9999 -9999 -9999 -9999 -9999 -9999 -9999 -9999 -9999 -9999 -9999 -9999 -9999 -9999 -9999 -9999
0 0 0 0 0 0 0 0 0 0 0 0 0 0 0 0 0 0 0 0 0 0 0 0 0 0 0 0 0 0 0 0 0 0 4.25 2.66666666666667 2.33333333333333 4.07692307692308 0 2.23809523809524 0 6 5 14.5454545454545 34 14.5 6.5 0 5.6 6.8974358974359 5.85 0 4.58928571428571 2.71428571428571 4.5 6.5 5.66666666666667 0 -9999 -9999 -9999 -9999 -9999 -9999 -9999 -9999 -9999 -9999 -9999 -9999 -9999 -9999 -9999 -9999 -9999 -9999 -9999 -9999
0 0 0 0 0 0 0 0 0 0 0 0 0 0 0 0 0 0 0 0 0 0 0 0 0 0 0 0 0 0 0 0 0 0 2.5 3.5 1.9375 1.5 0 0 0 22.8 13.25 4.11111111111111 10 4 5.14285714285714 4.2 3.5 0 6 0 0 0 0 0 1 0 0 -9999 -9999 -9999 -9999 -9999 -9999 -9999 -9999 -9999 -9999 -9999 -9999 -9999 -9999 -9999 -9999 -9999 -9999 -9999
0 0 0 0 0 0 0 0 0 0 0 0 0 0 0 0 0 0 0 0 0 0 0 0 0 0 0 0 0 0 0 0 0 0 3 4 3 2.2 0 0 2 0 14.3636363636364 3 0 0 6.83333333333333 14.7058823529412 4.14285714285714 3.77777777777778 5.64 6.46428571428571 11.5833333333333 0 0 0 2 5.1875 0 0 -9999 -9999 -9999 -9999 -9999 -9999 -9999 -9999 -9999 -9999 -9999 -9999 -9999 -9999 -9999 -9999 -9999 -9999
0 0 0 0 0 0 0 0 0 0 0 0 0 0 0 0 0 0 0 0 0 0 0 0 0 0 0 0 0 0 0 0 0 0 0 0 10 0 0 0 8 7.44444444444444 25.6111111111111 15.6666666666667 1 63.4 9.46153846153846 9.24 4 5.60606060606061 5.58823529411765 6.28571428571429 17.8181818181818 17.3333333333333 9.33333333333333 4 7.41176470588235 6 1 0 -9999 -9999 -9999 -9999 -9999 -9999 -9999 -9999 -9999 -9999 -9999 -9999 -9999 -9999 -9999 -9999 -9999 -9999
0 0 0 0 0 0 0 0 0 0 0 0 0 0 0 0 0 0 0 0 0 0 0 0 0 0 0 0 0 0 0 0 0 0 0 5.5 0 0 0 0 1.5 6 6.71428571428571 17.3333333333333 10.2857142857143 5.94117647058824 16.4 10.1666666666667 4.91176470588235 6.8974358974359 0 7.02222222222222 7.57777777777778 5.58904109589041 0 33 0 0 0 7 -9999 -9999 -9999 -9999 -9999 -9999 -9999 -9999 -9999 -9999 -9999 -9999 -9999 -9999 -9999 -9999 -9999 -9999
0 0 0 0 0 0 0 0 0 0 0 0 0 0 0 0 0 0 0 0 0 0 0 0 0 0 0 0 0 0 0 0 0 0 0 8.5 0 1 0 0 87.5 20.5 18.85 5.36363636363636 20.5555555555556 29 2.5 8.08 8.38961038961039 5.36734693877551 5.08333333333333 0 6.21052631578947 0 7.16666666666667 0 0 12.1666666666667 39.6666666666667 0 0 -9999 -9999 -9999 -9999 -9999 -9999 -9999 -9999 -9999 -9999 -9999 -9999 -9999 -9999 -9999 -9999 -9999
0 0 0 0 0 0 0 0 0 0 0 0 0 0 0 0 0 0 0 0 0 0 0 0 0 0 0 0 0 0 0 0 0 0 0 0 0 0 0 0 0 14.5 2 23 0 10.1538461538462 0 12.7222222222222 13.75 6.30555555555556 7.95081967213115 7.04545454545455 8.07142857142857 10.5217391304348 6 0 0 9.33333333333333 8.13559322033898 7.75 12.6153846153846 -9999 -9999 -9999 -9999 -9999 -9999 -9999 -9999 -9999 -9999 -9999 -9999 -9999 -9999 -9999 -9999 -9999
0 0 0 0 0 0 0 0 0 0 0 0 0 0 0 0 0 0 0 0 0 0 0 0 0 0 0 0 0 0 0 0 0 0 0 0 3.16666666666667 0 0 2 0 0 12 15.6 12 19.875 17.3333333333333 4.63636363636364 16.0666666666667 6.71428571428571 11.0909090909091 2.4 4.77777777777778 8.53846153846154 9.70689655172414 1 0 3.2 4.47058823529412 2 16.375 0 -9999 -9999 0 -9999 -9999 -9999 -9999 -9999 -9999 -9999 -9999 -9999 -9999 -9999 -9999 -9999
0 0 0 0 0 0 0 0 0 0 0 0 0 0 0 0 0 0 0 0 0 0 0 0 0 0 0 0 0 0 0 0 0 0 0 0 2.33333333333333 1 0 0 0 0 0 7.14285714285714 33.7777777777778 8 0 100.666666666667 7.6 7.69230769230769 7.55 8.11111111111111 9.62790697674419 5.23863636363636 4.09756097560976 7.27272727272727 4.5 0 0 2.47826086956522 7.375 6.36363636363636 0 0 0 -9999 -9999 -9999 -9999 -9999 -9999 -9999 -9999 -9999 -9999 -9999 -9999 -9999
0 0 0 0 0 0 0 0 0 0 0 0 0 0 0 0 0 0 0 0 0 0 0 0 0 0 0 0 0 0 0 0 0 0 0 0 0 2 0 0 0 0 0 11.5 3 24.75 0 0 12.8571428571429 11.5833333333333 0 3.29411764705882 3.70454545454545 6.25333333333333 5.46875 11.8095238095238 0 9.75 5.57142857142857 4.33333333333333 7.4 0 0 0 0 -9999 -9999 -9999 -9999 -9999 -9999 -9999 -9999 -9999 -9999 -9999 -9999 -9999
0 0 0 0 0 0 0 0 0 0 0 0 0 0 0 0 0 0 0 0 0 0 0 0 0 0 0 0 0 0 0 0 0 0 0 0 0 0 0 0 0 6.66666666666667 0 0 5.6 0 0 0 0 0 0 8.04347826086956 4.07142857142857 7.09756097560976 10.3918918918919 17.25 11.8571428571429 9.25 4.66666666666667 27 6.13513513513514 2.75 0 0 -9999 -9999 -9999 -9999 -9999 -9999 -9999 -9999 -9999 -9999 -9999 -9999 -9999 -9999
0 0 0 0 0 0 0 0 0 0 0 0 0 0 0 0 0 0 0 0 0 0 0 0 0 0 0 0 0 0 0 0 0 0 0 0 0 0 0 0 0 0 0 0 10.1538461538462 28 0 0 0 0 0 29.5294117647059 3.90909090909091 11.75 0 8.71428571428571 11.2857142857143 8.38095238095238 0 2 5.76923076923077 3.11111111111111 7.72727272727273 0 -9999 -9999 -9999 -9999 -9999 -9999 -9999 -9999 -9999 -9999 -9999 -9999 -9999 -9999
0 0 0 0 0 0 0 0 0 0 0 0 0 0 0 0 0 0 0 0 0 0 0 0 0 0 0 0 0 0 0 0 0 0 0 0 0 0 0 0 0 0 20 3 4.81818181818182 0 134 0 0 0 0 6 3.25806451612903 12.0833333333333 4.92 12.5454545454545 3.5 0 0 0 6.70967741935484 7.22448979591837 7.43478260869565 0 0 0 0 0 -9999 -9999 -9999 -9999 -9999 -9999 -9999 -9999 -9999 -9999
0 0 0 0 0 0 0 0 0 0 0 0 0 0 0 0 0 0 0 0 0 0 0 0 0 0 0 0 0 0 0 0 0 0 0 0 0 0 0 0 0 0 0 19 23.3333333333333 23.7647058823529 0 0 0 3.33333333333333 0 7.15384615384615 4.25 4.36363636363636 5.02777777777778 6.05263157894737 6.71428571428571 5 0 0 5 4.23684210526316 4.66666666666667 0 0 0 0 0 -9999 -9999 -9999 -9999 -9999 -9999 -9999 -9999 -9999 -9999
0 0 0 0 0 0 0 0 0 0 0 0 0 0 0 0 0 0 0 0 0 0 0 0 0 0 0 0 0 0 0 0 0 0 0 0 0 0 0 0 0 0 0 0 34.8095238095238 7.625 0 8.85714285714286 0 0 0 2.66666666666667 6.38709677419355 0 5.10526315789474 8.4 2.64705882352941 0 0 0 0 1 13.5 2.4 0 0 0 0 -9999 -9999 -9999 -9999 -9999 -9999 -9999 -9999 -9999 -9999
0 0 0 0 0 0 0 0 0 0 0 0 0 0 0 0 0 0 0 0 0 0 0 0 0 0 0 0 0 0 0 0 0 0 0 0 0 0 0 1.5 0 0 1 0 10.5416666666667 82.7142857142857 0 0 0 0 0 9.5 8.375 0 0 4.4 17 11 4.625 0 0 0 3.83333333333333 3.61111111111111 0 9.2 0 0 -9999 -9999 -9999 -9999 -9999 -9999 -9999 -9999 -9999 -9999
0 0 0 0 0 0 0 0 0 0 0 0 0 0 0 0 0 0 0 0 0 0 0 0 0 0 0 0 0 0 0 0 0 0 0 0 0 0 0 0 0 0 0 0 2 36.75 0 5 0 0 7.44444444444444 0 3.11111111111111 5.57142857142857 6.66666666666667 3.125 2.81818181818182 0 3.66666666666667 0 0 0 0 6.11538461538461 0 10.6666666666667 9.5 9.42857142857143 -9999 -9999 -9999 -9999 -9999 -9999 -9999 -9999 -9999 -9999
0 0 0 0 0 0 0 0 0 0 0 0 0 0 0 0 0 0 0 0 0 0 0 0 0 0 0 0 0 0 0 0 0 0 0 0 0 0 0 0 1.5 0 0 0 5.5 6.42857142857143 0 3.5 0 0 0 11.5 7 17 1.77777777777778 7.66666666666667 0 0 0 0 0 9.66666666666667 0 0 9 2.2 6.66666666666667 0 0 -9999 -9999 -9999 -9999 -9999 -9999 -9999 -9999 -9999
0 0 0 0 0 0 0 0 0 0 0 0 0 0 0 0 0 0 0 0 0 0 0 0 0 0 0 0 0 0 0 0 0 0 0 0 0 0 0 0 0 0 0 0 0 5.2 3.5 7.33333333333333 0 0 0 0 0 0 6.64285714285714 4.58333333333333 4.3 0 0 0 0 0 3.8 0 0 2.8 0 0 0 0 -9999 -9999 -9999 -9999 -9999 -9999 -9999 -9999
0 0 0 0 0 0 0 0 0 0 0 0 0 0 0 0 0 0 0 0 0 0 0 0 0 0 0 0 0 0 0 0 0 0 0 0 0 0 0 0 0 0 0 0 0 1 27.7777777777778 6 0 0 0 0 0 0 0 3 2 0 0 6 0 0 0 1 0 0 2.5 0 0 0 0 0 -9999 -9999 -9999 -9999 -9999 -9999
0 0 0 0 0 0 0 0 0 0 0 0 0 0 0 0 0 0 0 0 0 0 0 0 0 0 0 0 0 0 0 0 0 0 0 0 0 0 1 0 15.25 3 0 0 0 21.5 21.2 11 0 0 0 0 0 4.2 0 0 4.5 0 6.31707317073171 0 0 0 0 0 0 0 0 0 0 0 0 0 0 0 -9999 -9999 -9999 -9999
0 0 0 0 0 0 0 0 0 0 0 0 0 0 0 0 0 0 0 0 0 0 0 0 0 0 0 0 0 0 0 0 0 0 0 0 0 0 0 0 0 0 0 0 0 5 8.5 6 0 0 0 0 2 0 3.2 1 4 15.9333333333333 0 0 0 0 0 0 0 0 0 0 0 0 0 0 0 0 0 -9999 -9999 -9999
0 0 0 0 0 0 0 0 0 0 0 0 0 0 0 0 0 0 0 0 0 0 0 0 0 0 0 0 0 0 0 0 0 0 0 0 0 0 0 0 37.5 19 0 0 0 0 8 0 0 0 0 0 0 0 28 0 12.1666666666667 3.7 11.1111111111111 0 0 14.5 0 0 0 0 0 0 0 0 0 0 0 0 0 -9999 -9999 -9999
0 0 0 0 0 0 0 0 0 0 0 0 0 0 0 0 0 0 0 0 0 0 0 0 0 0 0 0 0 0 0 0 0 0 0 0 0 0 0 0 0 0 0 0 0 9.11111111111111 18.2 0 0 0 0 0 1 12 0 9 4.22222222222222 0 0 14.5 0 10.8571428571429 0 17.6666666666667 0 4 0 13 0 0 0 0 0 0 0 0 0 -9999
0 0 0 0 0 0 0 0 0 0 0 0 0 0 0 0 0 0 0 0 0 0 0 0 0 0 0 0 0 0 0 0 0 0 0 0 0 0 0 0 0 0 0 0 0 0 0 0 0 0 0 0 25.2 0 15 8.6 0 0 0 0 0 7 0 0 0 1 6.33333333333333 0 7.33333333333333 0 0 0 0 0 0 0 -9999 -9999
0 0 0 0 0 0 0 0 0 0 0 0 0 0 0 0 0 0 0 0 0 0 0 0 0 0 0 0 0 0 0 0 0 0 0 0 0 0 0 0 0 0 0 1 0 15.5 8.4 0 0 0 0 0 3 0 1 1.5 4 2.5 0 2.125 1.44444444444444 0 8.625 0 8.71428571428571 4.7 0 8.2 4.75 5 0 0 0 0 0 0 0 -9999
0 0 0 0 0 0 0 0 0 0 0 0 0 0 0 0 0 0 0 0 0 0 0 0 0 0 0 0 0 0 0 0 0 0 0 0 0 0 0 0 0 0 6.5 35.7142857142857 0 25.3333333333333 24 0 0 0 0 0 0 0 1 6.11111111111111 1 0 0 0 0 0 0 4 0 5.86666666666667 0 0 0 0 0 0 0 0 0 0 -9999 0
0 0 0 0 0 0 0 0 0 0 0 0 0 0 0 0 0 0 0 0 0 0 0 0 0 0 0 0 0 0 0 0 0 0 0 0 0 0 0 0 0 0 1.66666666666667 15.75 31 0 0 0 0 0 0 0 3 1 0 0 0 0 0 0 0 0 0 0 7.85714285714286 0 0 0 0 0 0 0 0 0 0 0 -9999 -9999
0 0 0 0 0 0 0 0 0 0 0 0 0 0 0 0 0 0 0 0 0 0 0 0 0 0 0 0 0 0 0 0 0 0 0 0 0 0 0 0 0 0 1 6.66666666666667 33 0 1 0 0 0 0 2 15.3333333333333 0 0 1 0 0 4 1.33333333333333 1.5 0 0 0 0 8.35384615384615 0 0 4.2 0 0 0 0 0 0 0 0 0
0 0 0 0 0 0 0 0 0 0 0 0 0 0 0 0 0 0 0 0 0 0 0 0 0 0 0 0 0 0 0 0 0 0 0 0 0 0 0 0 0 0 1 54.5 0 0 1.88888888888889 6.28571428571429 0 0 1 0 5.3 0 0 0 0 0 0 0 0 0 0 0 0 0 0 0 0 0 0 0 0 0 0 0 0 0
