NCOLS 26 
NROWS 22 
XLLCORNER -87.5 
YLLCORNER 25 
CELLSIZE 0.25 
NODATA_value -9999 
0.000000212777662 1.22498766351344e-07 1.21888559993421e-07 9.47091414344945e-08 8.75453234511517e-08 -9999 -9999 -9999 -9999 -9999 -9999 -9999 -9999 -9999 -9999 -9999 -9999 -9999 -9999 -9999 -9999 -9999 -9999 -9999 3.17752445304626e-06 3.17752445304626e-06
1.90836573872385e-05 4.43671805207625e-05 6.54147191798729e-05 1.89573860073481e-05 1.19304252336717e-05 3.37623415600234e-05 9.16767017702424e-06 1.23436510894461e-07 -9999 -9999 -9999 -9999 -9999 2.46632841567386e-06 -9999 -9999 -9999 -9999 -9999 -9999 -9999 -9999 -9999 -9999 -9999 3.17752445304626e-06
0.000343708891960291 0.00014071957163918 6.17498395759844e-05 5.80811871470177e-05 3.77861995136077e-05 2.01989395023425e-05 1.04461964014868e-05 6.48075981998472e-07 1.8483387031957e-07 -9999 -9999 -9999 5.67618366375149e-06 1.7157826308214e-06 2.11963943985009e-06 -9999 -9999 -9999 -9999 -9999 -9999 -9999 -9999 -9999 -9999 3.17752445304626e-06
0.000186198746507562 0.000108311761402729 7.75584742094767e-05 7.47739348829219e-05 6.43802228260541e-05 2.6423272740942e-05 1.52888650487627e-05 1.59387784951192e-05 1.57633559136999e-07 2.17800231114575e-07 2.00348756097667e-06 1.19677123411059e-06 2.1773368881676e-06 1.1259217840134e-06 1.31522169988947e-06 2.2656630478813e-06 -9999 -9999 -9999 -9999 -9999 -9999 -9999 -9999 -9999 3.17752445304626e-06
0 0 0 0 7.75584742094767e-05 5.400389908853e-05 3.1271885160886e-05 5.29061563225407e-05 2.12807487778402e-05 1.713532726873e-07 2.73627063649508e-05 1.99069666957745e-05 1.60445148800083e-06 1.60207486352918e-06 2.42675464749224e-06 1.78901011604078e-06 2.66822002430436e-06 -9999 -9999 -9999 -9999 -9999 -9999 -9999 -9999 -9999
0 0 0 0 0 7.75584742094767e-05 9.44463626393906e-05 6.59807792438592e-05 2.13761781001939e-05 1.97204291156885e-05 2.7301058972824e-05 1.69069067231738e-05 2.09095330572649e-05 1.7452926254991e-05 7.35461691770749e-06 6.29132585998575e-06 1.91335584375724e-06 2.84599876382775e-06 2.19010273050086e-06 -9999 -9999 -9999 -9999 -9999 -9999 -9999
0 0 0 0 0 7.75584742094767e-05 7.75584742094767e-05 7.251703464333e-05 7.66436119813398e-05 3.75250881552431e-05 2.84730221057349e-05 2.09855813174361e-05 1.9834069613478e-05 2.43456112277122e-05 2.86242489757515e-05 1.63050900183434e-06 1.74013428211242e-06 2.82610337246507e-06 1.8297093663864e-06 -9999 -9999 -9999 -9999 -9999 -9999 -9999
0 0 0 0 0 0 7.75584742094767e-05 7.58926273227537e-05 7.30557345035758e-05 5.30209549069562e-05 3.79657515086958e-05 3.98411651441161e-05 2.43509927949591e-05 2.45306587863502e-05 2.25570233606409e-05 2.60600349026877e-05 2.21852240494046e-06 3.23630295534495e-06 1.74737526447556e-06 -9999 -9999 -9999 -9999 -9999 -9999 -9999
0 0 0 0 0 0 0 0 7.75584742094767e-05 5.70557644681629e-05 0.000834781891063107 0.00106747161636505 5.79339881632536e-05 2.32614982716652e-05 2.68862376933234e-05 2.42623223231377e-05 1.60509331072926e-06 2.11007397064277e-06 1.78275668497901e-06 -9999 -9999 -9999 -9999 -9999 -9999 -9999
0 0 0 0 0 0 0 0 0 7.75584742094767e-05 0.00101807723994172 0.000876140247712487 5.51531866311652e-05 2.71908403578295e-05 3.15188464873981e-05 7.06867314917275e-05 3.87047886615531e-05 1.94540885641017e-06 2.38755440288268e-06 -9999 -9999 -9999 -9999 -9999 -9999 -9999
0 0 0 0 0 0 0 0 0 0 0.00143393957964082 0.00175668532737328 0.00104988718319531 0.000116736743687724 4.19633122317657e-05 4.144486471735e-05 1.92342940702211e-05 2.92542805424408e-06 1.82506002762161e-06 2.74708970716236e-06 -9999 -9999 -9999 -9999 -9999 -9999
0 0 0 0 0 0 0 0 0 0 0.00149589832807735 0.00363855538702656 0.00135236930694762 0.000584625120428346 0.000105972009151282 0.000289658061637063 6.83285763368582e-05 6.92651446733193e-06 1.4112513964468e-05 2.37303437409374e-06 -9999 -9999 -9999 -9999 -9999 -9999
0 0 0 0 0 0 0 0 0 0 0.00149589832807735 0.00492502796514147 0.00131618926755044 0.000919143066043021 0.000784971406570605 2.77898134610947e-05 7.0048696509505e-05 2.74727486923691e-05 1.53412038349284e-06 -9999 -9999 -9999 -9999 -9999 -9999 -9999
0 0 0 0 0 0 0 0 0 0 0 0.00394881719767824 0.00161228423106486 0.00124870792266797 0.00150785574437573 0.000122396772287817 0.000102850202560898 7.48441575440671e-05 1.7523420498637e-06 1.47490585850802e-06 -9999 -9999 -9999 -9999 -9999 -9999
0 0 0 0 0 0 0 0 0 0 0 0.00149589832807735 0.00300502500773725 0.0013223258097842 0.00133841830517538 0.000724357437553834 8.24344637759421e-05 5.03381041844143e-05 2.40847716262361e-05 1.86977791877046e-05 1.34256360651245e-05 1.79653333726667e-05 -9999 -9999 -9999 -9999
0 0 0 0 0 0 0 0 0 0 0 0.00148983771482104 0.00166703560259269 0.00146105733509412 0.000949947317491983 0.000983676513229277 2.77266613927272e-05 5.88008472628368e-05 3.68177368847289e-05 1.32312961449679e-05 1.42984250270914e-05 -9999 -9999 -9999 -9999 -9999
0 0 0 0 0 0 0 0 0 0 0 0.00148983771482104 0.00148983771482104 0.00156119284036775 0.00178996841976869 0.000545661544142241 3.99991264232223e-05 0.000138561997591342 3.17234696472775e-05 3.7584133216793e-05 7.12022568119626e-06 1.58866878997715e-05 1.95549094866621e-05 -9999 -9999 -9999
0 0 0 0 0 0 0 0 0 0 0 0.00148983771482104 0.00148983771482104 0.00164849587931216 0.00149029031307946 0.000627394248648099 4.04922070907746e-05 4.38088683784641e-05 3.3241577355873e-05 2.37341632976618e-05 1.6408116057819e-05 8.24873674861671e-06 1.77479878895585e-05 -9999 -9999 -9999
0 0 0 0 0 0 0 0 0 0 0 0 0.00176209189642363 0.00371606740052379 0.00165623940373439 0.00180824386328315 0.00129926944393618 4.03883190791283e-05 2.86622089532906e-05 3.35070012175671e-05 1.75190058944175e-05 1.99392831682645e-05 2.07558227182997e-05 2.00406434964168e-05 -9999 -9999
0 0 0 0 0 0 0 0 0 0 0 0 0.0022319236872371 0.0029451926598158 0.00165191001422569 0.00116195849514109 0.00115366062381282 4.70509905202324e-05 4.06987361388785e-05 2.23212374197652e-05 3.77623478297532e-05 1.62771934274085e-05 1.90107623912825e-05 2.13559762972849e-05 2.04273270897144e-05 -9999
0 0 0 0 0 0 0 0 0 0 0 0 0.00148983771482104 0.00153537879823845 0.0013768217284181 0.00126125662903103 0.00113068243888977 5.11928985654256e-05 5.18628856124376e-05 2.82542918806061e-05 2.64555552753792e-05 1.27150636646153e-05 1.57113385704449e-05 1.88362755776069e-05 2.13559762972849e-05 2.10882880973229e-05
0 0 0 0 0 0 0 0 0 0 0 0 0 0.00148149502852764 0.00155969580389373 0.0018609223982978 0.00091663026772959 8.04079438492006e-05 4.23938041753992e-05 2.23765665109122e-05 2.28956893037051e-05 0.000136532344950518 1.31939106105768e-05 1.8253319453198e-05 2.13559762972849e-05 1.9514468714285e-05
