NCOLS 26 
NROWS 22 
XLLCORNER -87.5 
YLLCORNER 25 
CELLSIZE 0.25 
NODATA_value -9999 
0.000019997639850 6.98281267493338e-05 1.87313627934935e-05 1.19177429346147e-05 9.85201804731227e-06 -9999 -9999 -9999 -9999 -9999 -9999 -9999 -9999 -9999 -9999 -9999 -9999 -9999 -9999 -9999 -9999 -9999 -9999 -9999 8.31742123575943e-05 8.31742123575943e-05
1.75110513339504e-05 3.87027982053021e-05 6.39526728831137e-05 2.56247250651807e-05 4.02900094597845e-05 2.0616748543777e-05 9.02714547768594e-06 1.2481772405108e-05 -9999 -9999 -9999 -9999 -9999 6.45580943341494e-05 -9999 -9999 -9999 -9999 -9999 -9999 -9999 -9999 -9999 -9999 -9999 8.31742123575943e-05
0.000135879954211439 6.6513465204494e-05 0.000870141439952114 0.000120959822274494 9.55925550638761e-05 4.50880998950805e-05 2.10188231782421e-05 1.51552921346609e-05 1.76179366084702e-05 -9999 -9999 -9999 6.57963952322352e-05 4.49119655896267e-05 5.54832365562466e-05 -9999 -9999 -9999 -9999 -9999 -9999 -9999 -9999 -9999 -9999 8.31742123575943e-05
7.5390417758776e-05 0.000170231614681262 0.00017436239985125 0.000168102362319479 0.000146566153415668 2.3206908533504e-05 3.6967850937699e-05 1.43923563510921e-05 1.50252659182084e-05 2.0760213798761e-05 5.24428693830247e-05 3.33351003410379e-05 3.69786528630235e-05 2.2233099662692e-05 3.67631964034166e-05 5.95889600517292e-05 -9999 -9999 -9999 -9999 -9999 -9999 -9999 -9999 -9999 8.31742123575943e-05
0 0 0 0 0.00017436239985125 7.30439638491405e-05 1.73123644170154e-05 2.62019086914515e-05 1.58504840786199e-05 1.63329972512031e-05 7.28055827918479e-05 4.97677432896167e-05 2.9490767935375e-05 4.28863513801885e-05 3.55250268315844e-05 4.09334852901003e-05 6.9842766656136e-05 -9999 -9999 -9999 -9999 -9999 -9999 -9999 -9999 -9999
0 0 0 0 0 0.00017436239985125 9.76175248925204e-05 7.75317817616526e-05 1.63974629065799e-05 1.29441991991245e-05 7.26415539033482e-05 4.49852138443724e-05 5.5635240163581e-05 4.53209361277255e-05 3.63603594623969e-05 3.98617773644418e-05 5.04508186787431e-05 7.44962655834559e-05 5.73276688451574e-05 -9999 -9999 -9999 -9999 -9999 -9999 -9999
0 0 0 0 0 0.00017436239985125 0.00017436239985125 0.000163028531948122 0.000256832412441899 7.56926768658694e-05 6.19944042954671e-05 5.48446398953918e-05 5.28370611448739e-05 6.47778180351251e-05 6.99726810219754e-05 4.26798609966713e-05 3.88435553322591e-05 7.39754879999661e-05 4.78940878791992e-05 -9999 -9999 -9999 -9999 -9999 -9999 -9999
0 0 0 0 0 0 0.00017436239985125 0.000170617340862993 0.000168435229111732 0.000664283023474252 9.43573840380923e-05 8.77683879673318e-05 6.13234544020594e-05 5.99932825767717e-05 5.87754384170909e-05 6.93394872334839e-05 5.80715762711747e-05 6.03422295987152e-05 4.39304549525915e-05 -9999 -9999 -9999 -9999 -9999 -9999 -9999
0 0 0 0 0 0 0 0 0.00017436239985125 0.000287854363256801 5.19938353305692e-05 2.94422217775578e-06 7.89362356353683e-05 6.18932541135427e-05 7.15378142145289e-05 6.20974786959664e-05 4.20145852071608e-05 5.52328528443645e-05 4.59465825972717e-05 -9999 -9999 -9999 -9999 -9999 -9999 -9999
0 0 0 0 0 0 0 0 0 0.00017436239985125 2.74598627201909e-06 2.34188782418626e-06 0.000160262347185645 7.4358671347281e-05 6.38319628530843e-05 6.51391861332331e-05 0.00010298413679391 5.09226134169575e-05 6.24961223289073e-05 -9999 -9999 -9999 -9999 -9999 -9999 -9999
0 0 0 0 0 0 0 0 0 0 3.96643870962493e-06 2.11631054238903e-06 1.78932867511048e-06 0.000346354591663326 0.00133858095279797 0.000481234599353938 4.27747774058416e-05 2.59223973997882e-05 3.76899389936092e-05 7.1907242900943e-05 -9999 -9999 -9999 -9999 -9999 -9999
0 0 0 0 0 0 0 0 0 0 4.13782360037475e-06 1.73793774047643e-06 1.77427743921463e-06 8.83244169213377e-07 5.46287249851695e-05 0.000340753364657221 0.000435464154374058 0.000932732641292074 2.83385535464951e-05 6.20911944008623e-05 -9999 -9999 -9999 -9999 -9999 -9999
0 0 0 0 0 0 0 0 0 0 4.13782360037475e-06 2.59821135946824e-06 1.47690374481373e-06 1.46630013584091e-06 1.56920045461256e-06 5.23487033565101e-05 4.08913707900028e-05 6.36508345756441e-05 6.70966719726714e-05 -9999 -9999 -9999 -9999 -9999 -9999 -9999
0 0 0 0 0 0 0 0 0 0 0 3.70133062662796e-06 2.44706214847864e-06 1.88692348504653e-06 1.23618333780891e-06 4.3162870233337e-05 4.47654790361499e-05 6.48578350917144e-05 4.58689372598773e-05 6.42569496637758e-05 -9999 -9999 -9999 -9999 -9999 -9999
0 0 0 0 0 0 0 0 0 0 0 4.13782360037475e-06 0 0 0 0 3.88281384210534e-07 2.72430257269502e-06 5.19235814654994e-06 1.97644782249265e-05 2.71954140784205e-05 2.22009083496991e-05 -9999 -9999 -9999 -9999
0 0 0 0 0 0 0 0 0 0 0 0 0 0 0 0 5.7122270467519e-07 3.44241721840577e-07 3.6791218041099e-07 1.63588774080115e-05 3.99051434678331e-05 -9999 -9999 -9999 -9999 -9999
0 0 0 0 0 0 0 0 0 0 0 0 0 0 0 0 4.78027309474229e-06 4.64977427671602e-07 3.05689510191766e-07 9.46806026156209e-07 5.4128244812108e-05 1.95914924203998e-05 2.42932611545771e-05 -9999 -9999 -9999
0 0 0 0 0 0 0 0 0 0 0 0 0 0 0 0 8.51068459651898e-07 8.17668100686827e-07 6.94091700098904e-07 6.06609005453432e-07 2.02866262039166e-05 1.70667029002834e-05 2.19432136461235e-05 -9999 -9999 -9999
0 0 0 0 0 0 0 0 0 0 0 0 0 0 0 0 0 8.11008160177385e-07 8.85310071908903e-07 8.69949108608611e-07 2.166010544976e-05 8.04118748636911e-05 2.5662033079066e-05 2.47778015504725e-05 -9999 -9999
0 0 0 0 0 0 0 0 0 0 0 0 0 0 0 0 0 7.94920224751048e-07 1.69562161229038e-06 5.33068091426959e-07 9.22356058611078e-07 2.01247564039095e-05 2.35044796809346e-05 2.64040494860023e-05 2.5255888461168e-05 -9999
0 0 0 0 0 0 0 0 0 0 0 0 0 0 0 0 0 5.5037565817836e-07 3.04307604869222e-06 7.40201735549841e-07 6.93078701548062e-07 1.57206191627425e-05 1.41299691868001e-05 2.32887481030938e-05 2.64040494860023e-05 2.60730858072538e-05
0 0 0 0 0 0 0 0 0 0 0 0 0 0 0 0 0 7.20155497271912e-07 8.78708404310981e-07 5.86217960691229e-07 5.99817862391562e-07 1.95931126520854e-05 1.63126547728868e-05 2.25679942427789e-05 2.64040494860023e-05 2.41272508665657e-05
