NCOLS 26 
NROWS 22 
XLLCORNER -87.5 
YLLCORNER 25 
CELLSIZE 0.25 
NODATA_value -9999 
0.001057796491723 0.000186774396507566 0.000278354792973415 0.00114700469753 0.0187750088540096 -9999 -9999 -9999 -9999 -9999 -9999 -9999 -9999 -9999 -9999 -9999 -9999 -9999 -9999 -9999 -9999 -9999 -9999 -9999 0.0952939742929433 0.0952939742929433
0.000100584959602721 0.000171287868607725 0.00591449360140857 0.0036718948974555 0.00778770583782807 0.0298197593210329 0.0281838867372974 2.97029447199496e-05 -9999 -9999 -9999 -9999 -9999 0.0739652015630795 -9999 -9999 -9999 -9999 -9999 -9999 -9999 -9999 -9999 -9999 -9999 0.0952939742929433
0.00469779744871042 0.00155876874145319 8.24610624166379e-05 0.00111577008395634 0.00692651803941251 0.00828939848070616 0.00312783519908957 7.09979720066909e-05 9.34624699342716e-05 -9999 -9999 -9999 0.0374905884226932 0.137704728392952 0.0183890627776939 -9999 -9999 -9999 -9999 -9999 -9999 -9999 -9999 -9999 -9999 0.0952939742929433
0.0643432394030468 0.00129767202235938 0.0117593739669285 0.00096709454622741 0.000229789330347458 0.0110621804168449 0.000903127385796982 4.72105734400034e-05 0.00292750756502785 0.00332826964496021 0.034695859198495 0.0737189767240449 0.0593641600092656 0.185459311813846 0.185551115481994 0.0636824689213429 -9999 -9999 -9999 -9999 -9999 -9999 -9999 -9999 -9999 0.0952939742929433
0 0 0 0 0.0117593739669285 0.00112666720671614 0.0100788011455999 0.0366057129078929 0.00186373826058904 0.00129048634972264 0.00311020471256647 0.00896634316516125 0.0504784386164796 0.0206634144324848 0.140601162950875 0.208285641549179 0.0661808535845283 -9999 -9999 -9999 -9999 -9999 -9999 -9999 -9999 -9999
0 0 0 0 0 0.0117593739669285 0.0125709636013201 0.00515166373635734 3.6223967910261e-05 0.00054655230678877 0.00215845891797168 0.0196482229575637 0.0119289448406543 0.0236653687253469 0.0156287632149466 0.0542386673645606 0.0411572223793367 0.0853515172095517 0.0656811918785305 -9999 -9999 -9999 -9999 -9999 -9999 -9999
0 0 0 0 0 0.0117593739669285 0.0117593739669285 0.000595668752782314 0.00845246480607849 0.0212642511826616 0.0182359030995803 0.0123034333976422 0.0135027290314052 0.0723548087934752 0.00694090613667412 0.0767141970584018 0.082915591864398 0.057320293981901 0.0548729930801401 -9999 -9999 -9999 -9999 -9999 -9999 -9999
0 0 0 0 0 0 0.0117593739669285 0.00138149891508769 0.000657119727447803 0.00025568744887675 0.000656372325530182 0.0593461897812028 0.030214398795022 0.0239730693582243 0.0324600161008811 0.0359323393353917 0.0716957191137086 0.111685589963862 0.0503317978766206 -9999 -9999 -9999 -9999 -9999 -9999 -9999
0 0 0 0 0 0 0 0 0.0117593739669285 0.00064496739904295 0.00483092111169757 0.0155337832752887 0.009240541251538 0.0585471437735561 0.00113576992934286 0.0352966715984616 0.0449983355664513 0.159125213916257 0.0526417063265791 -9999 -9999 -9999 -9999 -9999 -9999 -9999
0 0 0 0 0 0 0 0 0 0.0117593739669285 0.000248610277610078 0.00141717064137531 0.00641119895302093 0.0933120173641445 0.0746556051502681 0.0105985657661067 0.023194958017752 0.0527297313468668 0.0361300954440199 -9999 -9999 -9999 -9999 -9999 -9999 -9999
0 0 0 0 0 0 0 0 0 0 0.00105532853908626 0.000930492886090883 0.000432677010484048 0.056597467422584 0.0201357368611294 0.015449846350681 0.0104913141632565 0.159510813345734 0.124211427893853 0.0823852341037917 -9999 -9999 -9999 -9999 -9999 -9999
0 0 0 0 0 0 0 0 0 0 0.014981386711355 0.000669217591634714 0.000808217545309233 0.0663793020463489 0.00758279173174652 0.0320204172124391 0.00367734782157258 0.0940077432099021 0.0657043279916892 0.0711388363693193 -9999 -9999 -9999 -9999 -9999 -9999
0 0 0 0 0 0 0 0 0 0 0.014981386711355 0.000483807489188417 0.00110253198591056 0.0190206961381312 0.00637208174591462 0.00757502571593611 0.0105884202076694 0.0345447909172734 0.100463086384466 -9999 -9999 -9999 -9999 -9999 -9999 -9999
0 0 0 0 0 0 0 0 0 0 0 0.00107170724017841 0.000252286539630777 0.0034169301332555 0.0065265647879167 0.0155146383676979 0.0198517205643572 0.00679338275826393 0.0115306287538694 0.0383545493579688 -9999 -9999 -9999 -9999 -9999 -9999
0 0 0 0 0 0 0 0 0 0 0 0.014981386711355 4.12958120838728e-05 3.98666504043305e-05 0.00321595911013216 0.00504610216537523 0.00630031884030985 0.00489652096350684 0.00542576632693659 0.0126374657979965 0.025164630610683 0.0126394238786263 -9999 -9999 -9999 -9999
0 0 0 0 0 0 0 0 0 0 0 0.00362098366608275 0.000308062766494824 6.98897956974001e-05 0.000942768616965482 0.000773003425570536 0.00434993490733043 0.0207102060652599 0.00660549676920898 0.0225581557371827 0.0283764753571985 -9999 -9999 -9999 -9999 -9999
0 0 0 0 0 0 0 0 0 0 0 0.00362098366608275 0.00362098366608275 8.69814530815686e-05 0.00645550700709074 0.00176910615516545 2.97339964538967e-05 0.0235521037755049 0.0132336031602786 0.000317316846028043 0.0427908398176315 0.00265018128226205 0.0138306424354491 -9999 -9999 -9999
0 0 0 0 0 0 0 0 0 0 0 0.00362098366608275 0.00362098366608275 0.00195159740046423 0.00303314696063978 0.00250436216735855 0.000628937201295316 0.00837864893577078 0.00151528774702697 0.00592076802529907 0.00241912819045547 0.00614941755787626 0.00225011854219299 -9999 -9999 -9999
0 0 0 0 0 0 0 0 0 0 0 0 0.00475777874092351 0.001025973436452 0.0045143378738113 0.0177043334441798 9.89129712687226e-05 0.000164912747929753 0.000361896954769977 0.00512900916711253 0.000464667338050478 0.00165471408778386 0.00141708051209138 0.0141065010333755 -9999 -9999
0 0 0 0 0 0 0 0 0 0 0 0 0.000756534626122913 0.00347198485294607 3.80919578207734e-05 0.000490053759770663 4.15359668410651e-05 0.000181974188793102 0.00134126919395147 0.000984604998033453 0.000417828840786367 0.000810543158196713 0.00166008112463824 0.0150323567085186 0.0143786855323122 -9999
0 0 0 0 0 0 0 0 0 0 0 0 0.00362098366608275 0.104734940375772 0.000330438595920371 0.0036738415709711 4.82393388041397e-05 0.000545747034964114 0.00117273770368087 0.000117500556609195 5.71461314538964e-05 0.00298191862381799 0.0034461377743554 0.000756909937140373 0.0150323567085186 0.0148439324261316
0 0 0 0 0 0 0 0 0 0 0 0 0 5.97510368535282e-05 0.000182616111979145 0.00427562396206299 2.39297702168771e-05 0.000491722376606984 9.42268984527399e-05 4.04026624535829e-05 3.15696249863387e-05 0.00271988081271576 0.00773345966435458 0.000345529127986553 0.0150323567085186 0.0137361294378124
