NCOLS 26 
NROWS 22 
XLLCORNER -87.5 
YLLCORNER 25 
CELLSIZE 0.25 
NODATA_value -9999 
0.076971185901946 0.102648501724368 0.0735459825736507 0.0916250543923491 0.105320482936087 -9999 -9999 -9999 -9999 -9999 -9999 -9999 -9999 -9999 -9999 -9999 -9999 -9999 -9999 -9999 -9999 -9999 -9999 -9999 0 0
0 0 0 0 0 0 0.0280640553874833 0.198801279197106 -9999 -9999 -9999 -9999 -9999 0.223820791273717 -9999 -9999 -9999 -9999 -9999 -9999 -9999 -9999 -9999 -9999 -9999 0
0 0 0 0 0 0 0 0.00753478931107926 0.0499119339691594 -9999 -9999 -9999 0.0875776523417927 0.16825856811261 0.360774441164934 -9999 -9999 -9999 -9999 -9999 -9999 -9999 -9999 -9999 -9999 0
0 0 0 0 0 0 0 0 0.0596464798453928 0.0497367085230229 0.0758524351587498 0.00855107505336876 0 0 0 0.132212736810757 -9999 -9999 -9999 -9999 -9999 -9999 -9999 -9999 -9999 0
0 0 0 0 0 0 0 0 0 0 0 0 0 0 0 0 0.173438825222961 -9999 -9999 -9999 -9999 -9999 -9999 -9999 -9999 -9999
0 0 0 0 0 0 0 0 0 0 0 0 0 0 0 0 0.00269541117253649 0.104334583137728 0.310751887872576 -9999 -9999 -9999 -9999 -9999 -9999 -9999
0 0 0 0 0 0 0 0 0 0 0 0 0 0 0 0 0 0.011876475943075 0.424171428599935 -9999 -9999 -9999 -9999 -9999 -9999 -9999
0 0 0 0 0 0 0 0 0 0 0 0 0 0 0 0 0 0.0185941665539887 0.471826017856117 -9999 -9999 -9999 -9999 -9999 -9999 -9999
0 0 0 0 0 0 0 0 0 0 0 0 0 0 0 0 0 0 0.447586201360925 -9999 -9999 -9999 -9999 -9999 -9999 -9999
0 0 0 0 0 0 0 0 0 0 0 0 0 0 0 0 0 0 0.248364527203171 -9999 -9999 -9999 -9999 -9999 -9999 -9999
0 0 0 0 0 0 0 0 0 0 0 0 0 0 0 0 0 0 0.0773091782880794 0.135462292185116 -9999 -9999 -9999 -9999 -9999 -9999
0 0 0 0 0 0 0 0 0 0 0 0 0 0 0 0 0 0 0.005305842697398 0.253480223727144 -9999 -9999 -9999 -9999 -9999 -9999
0 0 0 0 0 0 0 0 0 0 0 0 0 0 0 0 0 0 0 -9999 -9999 -9999 -9999 -9999 -9999 -9999
0 0 0 0 0 0 0 0 0 0 0 0 0 0 0 0 0 0 0 0.0159732518494845 -9999 -9999 -9999 -9999 -9999 -9999
0 0 0 0 0 0 0 0 0 0 0 0 0 0 0 0 0 0 0 0 0.0875520935758797 0.159185474127042 -9999 -9999 -9999 -9999
0 0 0 0 0 0 0 0 0 0 0 0 0 0 0 0 0 0 0 0 0.00396299756160544 -9999 -9999 -9999 -9999 -9999
0 0 0 0 0 0 0 0 0 0 0 0 0 0 0 0 0 0 0 0 0 0.110802652618977 0.0799418412143268 -9999 -9999 -9999
0 0 0 0 0 0 0 0 0 0 0 0 0 0 0 0 0 0 0 0 0 0 0.0216511796190371 -9999 -9999 -9999
0 0 0 0 0 0 0 0 0 0 0 0 0 0 0 0 0 0 0 0 0 0 0.000598126368658887 0.0615908531906037 -9999 -9999
0 0 0 0 0 0 0 0 0 0 0 0 0 0 0 0 0 0 0 0 0 0 0 0 0.0434842778734733 -9999
0 0 0 0 0 0 0 0 0 0 0 0 0 0 0 0 0 0 0 0 0 0 0 0 0 0.0125345803083722
0 0 0 0 0 0 0 0 0 0 0 0 0 0 0 0 0 0 0 0 0 0 0 0 0 0.0862291452924129
