NCOLS 26 
NROWS 22 
XLLCORNER -87.5 
YLLCORNER 25 
CELLSIZE 0.25 
NODATA_value -9999 
0.000022353035728 0.000155773765965446 1.63679239557046e-05 0.000126373180274334 7.19664872712259e-05 -9999 -9999 -9999 -9999 -9999 -9999 -9999 -9999 -9999 -9999 -9999 -9999 -9999 -9999 -9999 -9999 -9999 -9999 -9999 1.83437199290316e-05 1.83437199290316e-05
3.71078727525021e-05 9.23570064504467e-05 3.2697716142514e-05 9.26574016160165e-05 6.86817984783736e-05 3.19161428729932e-05 4.52419352213229e-05 0.000158605057182347 -9999 -9999 -9999 -9999 -9999 1.42380140196123e-05 -9999 -9999 -9999 -9999 -9999 -9999 -9999 -9999 -9999 -9999 -9999 1.83437199290316e-05
2.12108216759855e-05 6.96034612938927e-05 1.1513825946264e-07 3.878564360956e-05 2.35406812511826e-05 1.6474870635428e-05 5.06571467533285e-05 0.000134191535003701 1.84892598863954e-06 -9999 -9999 -9999 2.69648182881024e-07 1.1423741302125e-07 1.33825000235844e-06 -9999 -9999 -9999 -9999 -9999 -9999 -9999 -9999 -9999 -9999 1.83437199290316e-05
1.30123596639438e-05 1.85055636431661e-06 2.05975309452404e-05 1.37116754056518e-06 3.21661709850857e-07 1.47974215755169e-05 2.78939127495324e-05 1.04486042944353e-07 2.81976515127062e-06 7.88217907357042e-05 1.10079857385007e-07 2.64502978943607e-05 3.98590978882108e-05 1.59702869164019e-07 1.07791115590639e-06 1.04713204962572e-06 -9999 -9999 -9999 -9999 -9999 -9999 -9999 -9999 -9999 1.83437199290316e-05
0 0 0 0 2.05975309452404e-05 1.79315903238434e-06 2.95621439360425e-06 1.71246228072529e-05 6.918377318359e-07 8.67129683403913e-06 3.17562551838045e-06 2.94218886823246e-05 4.94313060044819e-06 3.68474580556432e-07 8.0093421755221e-07 2.04919011806071e-06 1.21966950387727e-05 -9999 -9999 -9999 -9999 -9999 -9999 -9999 -9999 -9999
0 0 0 0 0 2.05975309452404e-05 2.13433655209515e-06 2.12588259510398e-05 1.34224579271135e-06 1.0541107383853e-06 2.13835390272839e-08 9.58963759380666e-09 1.32819624887486e-08 9.71435667063082e-09 4.60502631280946e-08 5.61892377543866e-08 9.03107813215293e-08 1.64298355570409e-05 1.26433743304792e-05 -9999 -9999 -9999 -9999 -9999 -9999 -9999
0 0 0 0 0 2.05975309452404e-05 2.05975309452404e-05 8.3911102010366e-07 1.79200693614885e-06 2.79128122423421e-07 1.60713690074288e-07 1.29729853016729e-08 1.22007523619774e-08 1.83050052984539e-08 1.99674299621627e-08 6.49239876041967e-08 5.47492909891668e-08 4.03297618069927e-07 1.05628380408972e-05 -9999 -9999 -9999 -9999 -9999 -9999 -9999
0 0 0 0 0 0 2.05975309452404e-05 1.97300441931686e-06 9.26663662482689e-07 9.18181055064413e-06 3.57615745574978e-08 3.35028791011897e-08 1.66928192984901e-08 1.52204418084392e-08 1.47797736084457e-08 2.01742016805775e-08 1.37811730488946e-07 1.84407054080905e-07 1.0087526606358e-05 -9999 -9999 -9999 -9999 -9999 -9999 -9999
0 0 0 0 0 0 0 0 2.05975309452404e-05 1.54634594791016e-06 1.12969469070804e-05 1.36182319288054e-08 8.42229938930112e-05 3.50829508725318e-05 2.07123465337601e-08 1.60517089186047e-08 6.09399435884856e-08 9.44989902629227e-05 1.0291782113435e-05 -9999 -9999 -9999 -9999 -9999 -9999 -9999
0 0 0 0 0 0 0 0 0 2.05975309452404e-05 1.05900223848693e-08 7.09614658646064e-09 4.24506917849545e-08 1.60658800335052e-08 1.78290873346513e-08 1.74585890635899e-08 5.64447525285968e-08 0.00011046988992432 8.94436559768774e-07 -9999 -9999 -9999 -9999 -9999 -9999 -9999
0 0 0 0 0 0 0 0 0 0 9.16838832619245e-08 5.72720883027823e-09 4.18483019775734e-09 2.94172412658246e-06 1.31282532909691e-08 1.33371387374631e-08 8.05866463094992e-09 8.98102141301725e-05 4.34428687238524e-08 1.58588375802432e-05 -9999 -9999 -9999 -9999 -9999 -9999
0 0 0 0 0 0 0 0 0 0 1.61188647436078e-06 3.99967856540787e-09 1.01762545334025e-05 1.53673037227268e-09 7.37576523814743e-06 1.22239549741753e-08 1.40216933948364e-05 1.34630006955926e-05 3.10851124920795e-05 1.36994312974078e-05 -9999 -9999 -9999 -9999 -9999 -9999
0 0 0 0 0 0 0 0 0 0 1.61188647436078e-06 9.16790008478749e-09 3.0800180155403e-09 6.48778864664393e-06 3.37672676351567e-09 5.07981153536364e-06 5.88889827524844e-07 2.49374113793732e-05 1.27432081178623e-05 -9999 -9999 -9999 -9999 -9999 -9999 -9999
0 0 0 0 0 0 0 0 0 0 0 4.18529115597475e-08 7.85130320093187e-09 4.61257453380924e-09 2.36200387978335e-09 9.01327822396304e-09 9.52581217143584e-09 6.11877537656692e-05 2.04066787333031e-05 1.45403449944976e-05 -9999 -9999 -9999 -9999 -9999 -9999
0 0 0 0 0 0 0 0 0 0 0 1.61188647436078e-06 1.97822093131893e-09 4.4695420415974e-09 1.12353907239609e-09 8.34792492201119e-10 1.01271221158326e-08 6.77574922849323e-09 8.19469220570251e-05 9.50287483686957e-05 1.90788273849014e-05 3.00988962756775e-05 -9999 -9999 -9999 -9999
0 0 0 0 0 0 0 0 0 0 0 5.08838627907151e-07 8.04451002407813e-09 2.87003284796731e-05 1.38509091376355e-09 1.37491561658709e-09 1.94247237268592e-08 6.5875565167319e-07 9.34986310364968e-09 0.000331497612212187 0.00012049015169467 -9999 -9999 -9999 -9999 -9999
0 0 0 0 0 0 0 0 0 0 0 5.08838627907151e-07 5.08838627907151e-07 9.77761360771791e-09 1.296152808112e-09 1.36629085022923e-06 4.78245456314704e-05 1.92952455848822e-06 7.22454192819226e-09 8.49376581692211e-08 1.58724022463296e-05 5.1595831149831e-07 3.27620523432536e-05 -9999 -9999 -9999
0 0 0 0 0 0 0 0 0 0 0 5.08838627907151e-07 5.08838627907151e-07 2.93422706073355e-09 4.08525725868396e-06 9.26281015602995e-10 5.38054994502189e-08 7.76779769811023e-07 9.28760284864828e-09 2.1961293832877e-08 3.89597977573966e-07 7.73037463523924e-08 6.25882140561456e-07 -9999 -9999 -9999
0 0 0 0 0 0 0 0 0 0 0 0 6.81895464238541e-09 1.77748777194919e-09 1.24022909341627e-08 2.47919232077145e-09 1.11263124793655e-08 4.55718011685543e-08 2.18356359854924e-08 5.91749864839748e-08 5.2198598668346e-07 1.40837167616475e-06 2.73685537304424e-06 3.35758450669343e-05 -9999 -9999
0 0 0 0 0 0 0 0 0 0 0 0 7.97594138742511e-09 2.37813545020832e-09 3.46418730156556e-09 1.89710214682904e-09 4.65712834245413e-09 4.27784942241229e-08 2.30978250359575e-08 1.69933430914546e-08 7.47534449175009e-08 3.752941599695e-07 8.82416015865381e-07 3.57795372957443e-05 3.42236899537918e-05 -9999
0 0 0 0 0 0 0 0 0 0 0 0 5.08838627907151e-07 5.85726634154782e-09 1.59690060071784e-09 1.90764277984957e-09 5.41076851027649e-09 1.80254376576053e-08 1.60412756414563e-08 5.93924091565357e-05 2.94070470767805e-08 1.78028991752822e-07 1.40350016552593e-07 8.16634975423945e-07 3.57795372957443e-05 3.53310558121143e-05
0 0 0 0 0 0 0 0 0 0 0 0 0 6.14265643455743e-09 7.72843618516145e-10 2.21674492985563e-09 2.6804179509562e-09 3.23999377914237e-08 6.06514411765129e-08 2.03583817350849e-08 2.13229883358113e-08 1.76134795749874e-07 1.96598000988768e-07 6.57703810114108e-07 3.57795372957443e-05 3.26942983757742e-05
