NCOLS 26 
NROWS 22 
XLLCORNER -87.5 
YLLCORNER 25 
CELLSIZE 0.25 
NODATA_value -9999 
0.000591408820044 0.000343412796032126 0.000338343505986158 0.00109091934848666 0.00124147352969428 -9999 -9999 -9999 -9999 -9999 -9999 -9999 -9999 -9999 -9999 -9999 -9999 -9999 -9999 -9999 -9999 -9999 -9999 -9999 0.0110133013144214 0.0110133013144214
0.000630365283972708 0.000967307512249343 0.00559272456793709 0.00352976340757154 0.000896566108301418 0.00183279838321054 0.00152766265667175 0.000342640374658498 -9999 -9999 -9999 -9999 -9999 0.00854829549969171 -9999 -9999 -9999 -9999 -9999 -9999 -9999 -9999 -9999 -9999 -9999 0.0110133013144214
0.0082562283502741 0.00751544427092692 0.00652046151328214 0.00592827114759587 0.00300232565506966 0.000504373473994625 0.000630056284684231 0.000213405109428022 0.000513069805011146 -9999 -9999 -9999 0.00916141072544919 0.00707316359342623 0.0073466713392624 -9999 -9999 -9999 -9999 -9999 -9999 -9999 -9999 -9999 -9999 0.0110133013144214
0.0460539279509112 0.0101895098627249 0.0104367652054485 0.0100620597531713 0.00866341526646331 0.00170881935947287 0.0033253494908765 0.000917848702266067 0.000507688468863709 0.000604579246845463 0.0070657863330768 0.00781020794286078 0.00592670077465906 0.00744215800714788 0.00466511604268692 0.00785278923639607 -9999 -9999 -9999 -9999 -9999 -9999 -9999 -9999 -9999 0.0110133013144214
0 0 0 0 0.0104367652054485 0.00846578798106318 0.0097144032149597 0.00206346955126585 0.00449886592721984 0.000475649782443509 0.00270383523954924 0.00203571062975443 0.0039984522927341 0.00582357870167322 0.0059771829855095 0.0084051645257724 0.0092480519143337 -9999 -9999 -9999 -9999 -9999 -9999 -9999 -9999 -9999
0 0 0 0 0 0.0104367652054485 0.00725904710586308 0.00679596867475175 0.000825813853088703 0.000838826689726221 0.00255292564047726 0.0015823188667733 0.00251701323214993 0.00162845583430497 0.00485265220830512 0.015117716093463 0.0264039361340861 0.00986423311281103 0.00759089713925541 -9999 -9999 -9999 -9999 -9999 -9999 -9999
0 0 0 0 0 0.0104367652054485 0.0104367652054485 0.00975835679701048 0.0100692161677456 0.0116282433076113 0.00217574108280786 0.00198929538727797 0.00184763018948302 0.00258543595092481 0.00397774960236597 0.00631305392536251 0.0101692378043784 0.00982663998018262 0.00634177356228172 -9999 -9999 -9999 -9999 -9999 -9999 -9999
0 0 0 0 0 0 0.0104367652054485 0.0102125981753184 0.00983084770164597 0.00489912185638938 0.00317354158747517 0.00298198088861412 0.0573615225317794 0.00230811884674082 0.00209450705087643 0.00303324005693269 0.0118436033667561 0.0086177588635242 0.00605640352463274 -9999 -9999 -9999 -9999 -9999 -9999 -9999
0 0 0 0 0 0 0 0 0.0104367652054485 0.00739811260949953 0.00292100308025931 0.00270024529345212 0.0214917933978285 0.0321173075287436 0.00250595346418644 0.00219745745467948 0.00571293254748959 0.00857035325300848 0.00617903554546996 -9999 -9999 -9999 -9999 -9999 -9999 -9999
0 0 0 0 0 0 0 0 0 0.0104367652054485 0.00235685272614308 0.00201001904452212 0.00335631082971073 0.0095204513625877 0.00238536894670515 0.00254966320806651 0.00365808351008596 0.0275804593933027 0.00865013702282222 -9999 -9999 -9999 -9999 -9999 -9999 -9999
0 0 0 0 0 0 0 0 0 0 0.00340435492380857 0.00206271351230745 0.00156495458643462 0.00332982164084622 0.00192719495765865 0.00195007018568523 0.00168158281881917 0.0365387340947302 0.015848388722573 0.00952141427384451 -9999 -9999 -9999 -9999 -9999 -9999
0 0 0 0 0 0 0 0 0 0 0.00355145287222127 0.00548918273040834 0.00226630432152404 0.00731556222107877 0.00191257576477073 0.0018476582808359 0.00225759130595442 0.0080067688872312 0.0128274626687642 0.00822493830576769 -9999 -9999 -9999 -9999 -9999 -9999
0 0 0 0 0 0 0 0 0 0 0.00355145287222127 0.00226150939308567 0.0117576983481361 0.00137134425456445 0.00136197247543763 0.0017931090292091 0.0015538000558723 0.00351420270613217 0.0113715261685178 -9999 -9999 -9999 -9999 -9999 -9999 -9999
0 0 0 0 0 0 0 0 0 0 0 0.00317681529096308 0.00210028912178164 0.00243923971876593 0.0011724118848896 0.00158695088319098 0.00235766185854631 0.00211828419134828 0.00718163724255144 0.00560227263938641 -9999 -9999 -9999 -9999 -9999 -9999
0 0 0 0 0 0 0 0 0 0 0 0.00355145287222127 0.000911067941811261 0.00122538958648558 0.000666914050664568 0.000578884200176876 0.000709733836280803 9.12093961648588e-05 0.000432457546977297 0.000986107324181711 0.000725260927510358 0.000582944260543646 -9999 -9999 -9999 -9999
0 0 0 0 0 0 0 0 0 0 0 0.00169875448710888 0.00140161208139192 0.00139580826805715 0.00181112116807082 0.000748456317867015 8.87144354678562e-05 0.000458151981564847 0.000134381324192663 0.00048347929285189 0.000618310761183055 -9999 -9999 -9999 -9999 -9999
0 0 0 0 0 0 0 0 0 0 0 0.00169875448710888 0.00169875448710888 0.00144831006193375 0.00197553959991781 0.000544654776364405 8.98811134785354e-05 0.000428557136242772 4.65352077169665e-05 0.000137704139003129 0.000297975152081561 0.000545079924970478 0.000634523279598241 -9999 -9999 -9999
0 0 0 0 0 0 0 0 0 0 0 0.00169875448710888 0.00169875448710888 0.00111297404749108 0.00457288344006456 0.0008998100920426 0.000123779999526269 6.73958901931541e-05 6.98992916191913e-05 0.000105021973945848 0.000588845925751595 0.000365645082512718 0.000575891772326213 -9999 -9999 -9999
0 0 0 0 0 0 0 0 0 0 0 0 0.00135268159685818 0.0139300245795286 0.00149095165554429 0.00130162698655957 0.00147606114329497 0.000117953601198682 8.82369065333385e-05 0.000126526014482426 0.000574622302556887 0.000646995546432714 0.000673490854609075 0.000650284515266049 -9999 -9999
0 0 0 0 0 0 0 0 0 0 0 0 0.00151770773631888 0.00192165737129311 0.00113184794236409 0.000923444595408404 0.00123971661326918 0.000115613760476274 9.07616314562983e-05 8.33879301305745e-05 0.000134148118407099 0.000528167014184279 0.00061686663947011 0.000692964809088898 0.000662831734773938 -9999
0 0 0 0 0 0 0 0 0 0 0 0 0.00169875448710888 0.00168317022533819 0.000810881523532978 0.00204508043568702 0.00128923563113713 8.00470255194886e-05 7.66577184997138e-05 0.000107655464653429 0.000100801857214137 0.000414077063289301 0.00234139929832465 0.000611204841580657 0.000692964809088898 0.000684278786038498
0 0 0 0 0 0 0 0 0 0 0 0 0 0.00132791165966733 0.000528443236749114 0.000992344950549815 0.0010303875352479 0.000104739925560885 0.000127799972652998 8.52599553816502e-05 8.72379347168415e-05 0.0011633935072958 0.000428119774067962 0.000592288915011213 0.000692964809088898 0.000633211045883443
