NCOLS 26 
NROWS 22 
XLLCORNER -87.5 
YLLCORNER 25 
CELLSIZE 0.25 
NODATA_value -9999 
0.000646718099466 0.000918587675337136 0.000726888620134475 0.000628427098408721 0.00055221249031653 -9999 -9999 -9999 -9999 -9999 -9999 -9999 -9999 -9999 -9999 -9999 -9999 -9999 -9999 -9999 -9999 -9999 -9999 -9999 0.000272504492692625 0.000272504492692625
0.00158189533777938 0.000548096239203102 4.57878890296959e-05 0.000162275406084524 0.000172177009960687 7.79938453816582e-05 0.000414122930133752 0.000650033742612374 -9999 -9999 -9999 -9999 -9999 0.000211512321512519 -9999 -9999 -9999 -9999 -9999 -9999 -9999 -9999 -9999 -9999 -9999 0.000272504492692625
0.000129588369009279 3.06095738851112e-05 1.68393098371834e-05 2.82072472738231e-05 6.33060955962417e-05 0.000103444929476722 0.00125861134735417 0.000611183226885114 0.000565799963293951 -9999 -9999 -9999 0.000306780034554089 0.000147145516043019 0.000181780275426009 -9999 -9999 -9999 -9999 -9999 -9999 -9999 -9999 -9999 -9999 0.000272504492692625
1.8598843736911e-05 2.63147498559643e-05 2.69532950442978e-05 2.59856056873828e-05 2.23735595437519e-05 0.000123793301741436 0.000138801712988107 0.000261594765522336 0.000534830810026222 0.000665842926815172 0.000326332840998134 0.00016990952269398 0.000263649478332165 7.05200309474828e-05 0.00016564449367833 0.000206318854728409 -9999 -9999 -9999 -9999 -9999 -9999 -9999 -9999 -9999 0.000272504492692625
0 0 0 0 2.69532950442978e-05 1.0673773123306e-05 0.00010518153108874 0.000215187396247549 0.000178443268150004 0.000512905805510841 0.000676236128921035 8.29791677091908e-06 9.19395552660067e-05 0.000137393938077514 0.000108679079014909 0.000136540284777295 0.000230156537011099 -9999 -9999 -9999 -9999 -9999 -9999 -9999 -9999 -9999
0 0 0 0 0 2.69532950442978e-05 1.82798210670811e-05 1.16043321717907e-05 0.00013156461120529 0.000135082197885164 1.21413312571678e-05 7.51884222749096e-06 9.29889084279333e-06 8.2121778618273e-06 0.000119127804502945 0.000179883114193775 0.000238835547690459 0.000244072850044382 0.000187823207134633 -9999 -9999 -9999 -9999 -9999 -9999 -9999
0 0 0 0 0 2.69532950442978e-05 2.69532950442978e-05 2.52012826503028e-05 1.64928096587854e-05 1.07815628211071e-05 1.03617634562655e-05 9.16674967520677e-06 8.82061057025925e-06 1.08269840693034e-05 1.16952550377751e-05 0.000139832449739186 0.000132314286585745 0.000242366621308672 0.000156915872727294 -9999 -9999 -9999 -9999 -9999 -9999 -9999
0 0 0 0 0 0 2.69532950442978e-05 2.63743761950796e-05 2.5388492834896e-05 1.49324943198872e-05 1.5150528840121e-05 1.42360155707244e-05 1.02496206884543e-05 1.00272953678636e-05 9.8237445272254e-06 1.15894228367419e-05 0.000190260478375214 0.000197699842278559 0.000149854900261446 -9999 -9999 -9999 -9999 -9999 -9999 -9999
0 0 0 0 0 0 0 0 2.69532950442978e-05 1.9105873133055e-05 9.1538086179691e-07 1.08904627120368e-07 1.31934262628526e-05 1.03448571843112e-05 1.19568518722489e-05 1.02805265679778e-05 0.000137652800105212 0.000538411729569973 0.000152889210834821 -9999 -9999 -9999 -9999 -9999 -9999 -9999
0 0 0 0 0 0 0 0 0 2.69532950442978e-05 1.0157202581085e-07 8.66247194853817e-08 1.60172500800837e-05 9.96316496909811e-06 1.06688935485286e-05 1.08873832423543e-05 1.72127997249617e-05 0.00023915867740002 0.000204756662284643 -9999 -9999 -9999 -9999 -9999 -9999 -9999
0 0 0 0 0 0 0 0 0 0 1.46715669738198e-07 7.82807806527224e-08 6.61859602957085e-08 4.40233055689419e-06 9.20045380901179e-06 9.30966044531644e-06 7.45061813593787e-06 0.000500116778895935 0.000109912979323473 0.00023559040948174 -9999 -9999 -9999 -9999 -9999 -9999
0 0 0 0 0 0 0 0 0 0 1.530550716224e-07 6.428504717306e-08 6.56292260773054e-08 4.18172426638587e-07 1.66366977075293e-05 8.76656411181294e-06 1.30303834204189e-05 0.000408558496093856 0.00128835375966847 0.000203511424635812 -9999 -9999 -9999 -9999 -9999 -9999
0 0 0 0 0 0 0 0 0 0 1.530550716224e-07 9.6105939769286e-08 5.46295904014332e-08 5.42373706531956e-08 5.80435782590821e-08 8.56032584155526e-06 7.18147851794137e-06 1.06386197135365e-05 0.000180604669812507 -9999 -9999 -9999 -9999 -9999 -9999 -9999
0 0 0 0 0 0 0 0 0 0 0 1.36909515452862e-07 9.05150408939479e-08 6.97959210063063e-08 4.57255184318696e-08 7.21425516599442e-06 7.48211568528471e-06 1.00855967230704e-05 0.00018693984614787 0.000386655046079429 -9999 -9999 -9999 -9999 -9999 -9999
0 0 0 0 0 0 0 0 0 0 0 1.530550716224e-07 1.83173312487697e-07 2.48912504098084e-07 1.34674691040567e-07 1.11116168472419e-07 2.31499201799596e-07 5.26830281129848e-07 4.86057809747612e-06 0.000236144087717145 0.000343553378859458 0.000154925819402198 -9999 -9999 -9999 -9999
0 0 0 0 0 0 0 0 0 0 0 3.45066775413716e-07 2.84708452561583e-07 2.83529528139174e-07 4.24506617188705e-06 1.51813225854849e-07 3.40571568866178e-07 2.05242092649494e-07 2.19354776100498e-07 0.000114101383731129 0.000282756219074511 -9999 -9999 -9999 -9999 -9999
0 0 0 0 0 0 0 0 0 0 0 3.45066775413716e-07 3.45066775413716e-07 2.94194179714144e-07 1.46305876682431e-07 1.06370253007861e-07 5.38458237516792e-06 2.77226536573898e-07 1.82256684161639e-07 5.64499994662024e-07 0.000161866608428053 0.000255551799305133 0.000168633685371308 -9999 -9999 -9999
0 0 0 0 0 0 0 0 0 0 0 3.45066775413716e-07 3.45066775413716e-07 2.16402169929397e-07 1.71102890623996e-07 1.19202348405211e-07 5.07419817426521e-07 8.16885572446382e-07 2.18706869516225e-07 3.6166941367133e-07 0.000141497002720336 0.000218333725570525 0.000204111602282617 -9999 -9999 -9999
0 0 0 0 0 0 0 0 0 0 0 0 2.74769238481141e-07 1.72598019105019e-07 3.02855935911024e-07 2.00496438775718e-07 2.99831236882928e-07 4.83535264292308e-07 3.61715585512874e-07 5.18676744337464e-07 0.000151076870492924 0.000171948369621448 0.000384913804453396 0.000172822460381031 -9999 -9999
0 0 0 0 0 0 0 0 0 0 0 0 2.84003466881466e-07 1.98482130715685e-07 2.2991145730242e-07 1.79674386218907e-07 2.51822742729385e-07 4.73943395196207e-07 3.71336528884034e-07 3.17823214525429e-07 5.4992255623491e-07 0.000142189778313211 0.000163941179372211 0.000184165362164925 0.000176157064381877 -9999
0 0 0 0 0 0 0 0 0 0 0 0 3.45066775413717e-07 2.44699565577503e-07 1.64713779826003e-07 1.79742445372791e-07 2.61881505162107e-07 3.28142246163243e-07 3.078194043249e-07 4.41319408858271e-07 4.13223947161163e-07 0.000109649602160388 9.85549922577523e-05 0.000162436475172027 0.000184165362164925 0.000181856926642848
0 0 0 0 0 0 0 0 0 0 0 0 0 2.69737738980472e-07 1.05509852509011e-07 1.92643364020413e-07 2.09301877883247e-07 4.29367540061211e-07 5.23899168192648e-07 3.49511966061763e-07 3.57620432025387e-07 0.00010912419627437 0.000113778985898081 0.000157409295693855 0.000184165362164925 0.000168284940392976
