NCOLS 26 
NROWS 22 
XLLCORNER -87.5 
YLLCORNER 25 
CELLSIZE 0.25 
NODATA_value -9999 
0.000000000000000 0.00208304921561629 0.0110012692411066 0.0130584507385645 0.00838833120858476 -9999 -9999 -9999 -9999 -9999 -9999 -9999 -9999 -9999 -9999 -9999 -9999 -9999 -9999 -9999 -9999 -9999 -9999 -9999 0.0199570489503269 0.201550666037774
0 0.0204746232080977 0.11999767301575 0.0917425197571333 0.00903062058679607 0.0328313389776925 0.0311265674862732 0 -9999 -9999 -9999 -9999 -9999 0.00904399482919865 -9999 -9999 -9999 -9999 -9999 -9999 -9999 -9999 -9999 -9999 -9999 0.138352241848141
0.0643699401740457 0.249413627142675 0.0256246879495453 0.105525065013484 0.114264671203452 0 0 0 0 -9999 -9999 -9999 0.00176283520161718 0.00681967067417522 0 -9999 -9999 -9999 -9999 -9999 -9999 -9999 -9999 -9999 -9999 0.0912372922297991
0.427786620533391 0 0 0 0 0.0908583691732189 0.127152559959386 0 0 0 0 0.00270269875305 0.0265293338338154 0.020751544065182 0 0 -9999 -9999 -9999 -9999 -9999 -9999 -9999 -9999 -9999 0.0298891284494154
0.255070422535211 0.249259259259259 0.0720833333333333 0 0 0.27379278720034 0 0.000606048268666433 0 0 0 0 0 0.0496516983438662 0 0 0 -9999 -9999 -9999 -9999 -9999 -9999 -9999 -9999 -9999
0 0 0 0 0 0 0 0.0010855780130437 0.0170994399567017 0 0 0 0 0.0774765192781478 0 0 0 0 0 -9999 -9999 -9999 -9999 -9999 -9999 -9999
0.111470588235294 0 0 0 0 0 0 0 0.130925888486708 0 0 0 0 0 0 0 0.00499633466843975 0 0 -9999 -9999 -9999 -9999 -9999 -9999 -9999
0.481481481481481 0 0 0 0 0 0 0 0 0 0 0.00161137960200701 0.191132744892667 0.0809645425070433 0 0 0.109440201063886 0 0 -9999 -9999 -9999 -9999 -9999 -9999 -9999
0.829397590361446 0.3 0.0625 0 0.168473470485017 0 0 0 0 0 0.0119575096151757 0.0304015584251656 0.177068826472766 0.53360621556308 0.00284642249997241 0 0 0.00058979729020148 0.00475535101432166 -9999 -9999 -9999 -9999 -9999 -9999 -9999
0.105263157894737 0.482758620689655 1 0.384615384615385 0.615384615384615 0 0.168473470485017 0 0 0 0 0 0 0.665376338943781 0.284238720418284 0 0 0.00548036667168793 0.0171535658077989 -9999 -9999 -9999 -9999 -9999 -9999 -9999
0.168473470485017 0 0.168473470485017 1 0.296296296296296 0.73375 0.868775510204082 0.98 0.177056209115444 0 0 0 0 0 0 0 0 0 0.00556143899966845 0.0260867451756337 -9999 -9999 -9999 -9999 -9999 -9999
0.168473470485017 0 0.168473470485017 0 0.116721399975269 0.116721399975269 0.406666666666667 0.757469879518072 0.2 0 0.0957287847416373 0 0 0 0 0 0 0 0 0.00465133189514437 -9999 -9999 -9999 -9999 -9999 -9999
0.168473470485017 0.168473470485017 0.168473470485017 0 0 0.116721399975269 0.119175750955721 0.882903225806452 0.7478125 0.177056209115444 0.979435648318161 0 0 0.1240568543006 0.10710586068682 0 0 0 0.00303605681710753 -9999 -9999 -9999 -9999 -9999 -9999 -9999
0 0.168473470485017 0.168473470485017 0.116721399975269 0.116721399975269 0 0 0.258823529411765 0.876923076923077 0.177056209115444 0.221481481481482 0 0 0.0578752197731244 0.190562305557 0.102582762905912 0 0 0 0.00319224095782358 -9999 -9999 -9999 -9999 -9999 -9999
0 0.168473470485017 0.168473470485017 0 0.119175750955721 0 0 0.119175750955721 0 0.711666666666667 0.222222222222222 0.0435826699277949 0 0 0.0825491692814092 0.141218819773134 0.229030521000911 0.0258689255143161 0.0225726667443919 0.0147216291828909 0.00339692658624657 0 -9999 -9999 -9999 -9999
0.168473470485017 0.168473470485017 0.177056209115444 0 0.119175750955721 0.119175750955721 0.119175750955721 0.119175750955721 0 0.358641975308642 0.545698924731183 0.178237263413636 0 0 0.268412763371979 0.164103968510693 0.103140115009009 0.0269903692699535 0.073144307920562 0.0251865315689224 0.00178997178959398 -9999 -9999 -9999 -9999 -9999
0.177056209115444 0.177056209115444 0.177056209115444 0 0 0 0.119175750955721 0.119175750955721 0 0.421645569620253 0.357177419354839 0.0847314852099554 0.105093314989092 0.0461642871866954 0.0927589193607163 0.117246026615786 0.137576893858435 0.12489163412241 0.0414717149944916 0.0291855693202317 0.0124234514542837 0.0043038149352389 0 -9999 -9999 -9999
0 0 0 0.119175750955721 0 0 0.126760820886573 0.126760820886573 0 0.86 0.694096385542169 0.188292189355457 0.20987663812946 0.209534044912913 0.121586037299577 0.142413201096384 0 0.312910472580208 0.0812967100142515 0.150730801112625 0.31489081119854 0.114920470681562 0.00682694866966339 -9999 -9999 -9999
0.126760820886573 0.126760820886573 0.126760820886573 0.126760820886573 0.126760820886573 0.126760820886573 0 0.126760820886573 0.126760820886573 0.126760820886573 0.928970588235294 0.264390579564504 0.193606529856943 0.0486397237668307 0.0943232762531553 0.135087645037901 0.0804011276928198 0.40339360818698 0.0776203769395499 0.0592133680019166 0.116356697123618 0.227270315576285 0.0819083665255635 0 -9999 -9999
0.126760820886573 0 0.126760820886573 0.126760820886573 0.126760820886573 0.126760820886573 0 0 0.126760820886573 0 0.998765432098765 0.166666666666667 0.353107415181447 0.120578952644894 0.175967516853901 0.325336357938298 0.0558479208153404 0.0994982768813339 0.176308935134689 0.0752449072212628 0.0889473755158216 0.097388203369272 0.314664098547401 0.0155729799293392 0 -9999
0.126760820886573 0 0 0 0.126760820886573 0.126760820886573 0.126760820886573 0.126760820886573 0.126760820886573 0.126760820886573 0.946976744186046 0.595542168674699 0.434445195340023 0.272535512551319 0.205016382682364 0.261521652315138 0.0300158149684532 0.0813733723433767 0.221095791426636 0.0739767651659851 0.0232769304142512 0.164544599282897 0.363071815399647 0.270562611700841 0.00292542613760233 0.0426041176692435
0.126760820886573 0 0 0 0 0 0 0 0 0.126760820886573 0.974285714285714 0.968157894736842 0.577333333333333 0.464952333459139 0.239752822849125 0.157006975104747 0 0 0.217709089547124 0 0 0 0 0 0 0.0227314944926682
