NCOLS 26 
NROWS 22 
XLLCORNER -87.5 
YLLCORNER 25 
CELLSIZE 0.25 
NODATA_value -9999 
0.920707970323234 0.89362811349939 0.914105462397405 0.89232746713524 0.865640584930666 -9999 -9999 -9999 -9999 -9999 -9999 -9999 -9999 -9999 -9999 -9999 -9999 -9999 -9999 -9999 -9999 -9999 -9999 -9999 0.873358475492876 0.691764858405429
0.997613451837171 0.977663258186666 0.868287255817669 0.900756307019067 0.981992028223942 0.935351814239706 0.910620268051265 0.800005133474804 -9999 -9999 -9999 -9999 -9999 0.684328942076031 -9999 -9999 -9999 -9999 -9999 -9999 -9999 -9999 -9999 -9999 -9999 0.754963282595062
0.922045645990113 0.741204713772923 0.966823543747131 0.887184859854659 0.875586259570641 0.99102102120579 0.994901375002539 0.99141962947748 0.948896082096134 -9999 -9999 -9999 0.863628991046815 0.67994998172516 0.613249103316685 -9999 -9999 -9999 -9999 -9999 -9999 -9999 -9999 -9999 -9999 0.802078232213404
0.461523011744984 0.988206109432611 0.977504389127573 0.988700612630171 0.990873153805694 0.896182410145872 0.868400010822217 0.998742910337883 0.936365490646061 0.945564799853591 0.882005030031879 0.906986149834512 0.907837140816288 0.786252947358561 0.809578967652382 0.795982784421627 -9999 -9999 -9999 -9999 -9999 -9999 -9999 -9999 -9999 0.863426395993788
0.744929577464789 0.750740740740741 0.927916666666667 1 0.977504389127573 0.716475242816788 0.98005007364438 0.960413349188106 0.993421129473453 0.997695782414965 0.993406380004288 0.988890551689646 0.945395131185496 0.923679057683074 0.853274222268904 0.783127881954747 0.750817405059446 -9999 -9999 -9999 -9999 -9999 -9999 -9999 -9999 -9999
1 1 1 1 1 0.977504389127573 0.979957511247666 0.986790413856719 0.981867841724294 0.998445820066547 0.995176510113879 0.978700037623231 0.98546818498117 0.897158660407599 0.979355695745602 0.930417524135321 0.929452140281047 0.800111821589961 0.615716038756598 -9999 -9999 -9999 -9999 -9999 -9999 -9999
0.888529411764706 1 1 1 1 0.977504389127573 0.977504389127573 0.989384388489945 0.850200669698449 0.966983227053762 0.979487365914064 0.985622261271206 0.984568136837031 0.924959786537263 0.988971032108495 0.91678854127251 0.901745882937293 0.920657018584542 0.51439660224963 -9999 -9999 -9999 -9999 -9999 -9999 -9999
0.518518518518519 1 1 1 1 1 0.977504389127573 0.988131045560794 0.989244226450793 0.994103772411482 0.996022576661033 0.935918570656615 0.721195393019826 0.892659702830819 0.965354305862164 0.960927411488501 0.806769788066867 0.860841021836738 0.471826017856117 -9999 -9999 -9999 -9999 -9999 -9999 -9999
0.170602409638554 0.7 0.9375 1 0.831526529514983 1 1 1 0.977504389127573 0.991591357644652 0.979391578138705 0.950293874644692 0.791964552233913 0.375598750574178 0.993401452490372 0.962409214567563 0.949107398467492 0.831024381893886 0.488724471226605 -9999 -9999 -9999 -9999 -9999 -9999 -9999
0.894736842105263 0.517241379310345 0 0.615384615384615 0.384615384615385 1 0.831526529514983 1 1 0.977504389127573 0.996373601607985 0.9956942344577 0.99000101498268 0.231679663586932 0.638614267952767 0.98670504026637 0.972988000302229 0.913806945998545 0.689431139746612 -9999 -9999 -9999 -9999 -9999 -9999 -9999
0.831526529514983 1 0.831526529514983 0 0.703703703703704 0.26625 0.131224489795918 0.02 0.822943790884555 1 0.994102172119202 0.995247907955697 0.99695062152042 0.939602275546535 0.97654731033412 0.982068081001978 0.987757635269648 0.803331677741056 0.776920094674613 0.746218210681944 -9999 -9999 -9999 -9999 -9999 -9999
0.831526529514983 1 0.831526529514983 1 0.883278600024731 0.883278600024731 0.593333333333333 0.242530120481928 0.8 1 0.884236574581563 0.990201238068464 0.99556109266502 0.925719207658818 0.990320019306401 0.965492734292364 0.993534216064947 0.896623807250318 0.914800476702477 0.662226373553265 -9999 -9999 -9999 -9999 -9999 -9999
0.831526529514983 0.831526529514983 0.831526529514983 1 1 0.883278600024731 0.880824249044279 0.117096774193548 0.2521875 0.822943790884555 0.000529711005039562 0.992326951667385 0.98582204578505 0.854623953914508 0.884373483064498 0.99053808660066 0.987739069300813 0.961814306762233 0.884867351959622 -9999 -9999 -9999 -9999 -9999 -9999 -9999
1 0.831526529514983 0.831526529514983 0.883278600024731 0.883278600024731 1 1 0.741176470588235 0.123076923076923 0.822943790884555 0.778518518518518 0.991798780178127 0.99603259467903 0.935017941120206 0.800229577754958 0.880142864932234 0.977635510254002 0.990877357707263 0.981032766199388 0.936410757948741 -9999 -9999 -9999 -9999 -9999 -9999
1 0.831526529514983 0.831526529514983 1 0.880824249044279 1 1 0.880824249044279 1 0.288333333333333 0.777777777777778 0.936382689395405 0.996042426086834 0.99741216457128 0.912229403454389 0.852431724472799 0.763876361951014 0.969089748113225 0.971453024751767 0.971285162601432 0.882757835043293 0.827367356927138 -9999 -9999 -9999 -9999
0.831526529514983 0.831526529514983 0.822943790884555 1 0.880824249044279 0.880824249044279 0.880824249044279 0.880824249044279 1 0.641358024691358 0.454301075268817 0.814952306812948 0.996622996796558 0.997044260743143 0.72787915307423 0.833390742044499 0.892392577767802 0.951781263596493 0.920078399632332 0.951296644231547 0.964794794591155 -9999 -9999 -9999 -9999 -9999
0.822943790884555 0.822943790884555 0.822943790884555 1 1 1 0.880824249044279 0.880824249044279 1 0.578354430379747 0.642822580645161 0.908458085016629 0.888096255237492 0.950738924486128 0.897019918010477 0.879893078247439 0.862205502504108 0.850986471239728 0.945215927997129 0.970320229317841 0.944248746094835 0.881408823911027 0.905343644323253 -9999 -9999 -9999
1 1 1 0.880824249044279 1 1 0.873239179113427 0.873239179113427 1 0.14 0.305903614457831 0.804897380871127 0.783312932097124 0.785752668423423 0.86931338562649 0.853555112266937 0.999205378298311 0.678597262392007 0.917083939283574 0.843218684485119 0.681922633342293 0.878320740209083 0.968451432710821 -9999 -9999 -9999
0.873239179113427 0.873239179113427 0.873239179113427 0.873239179113427 0.873239179113427 0.873239179113427 1 0.873239179113427 0.873239179113427 0.873239179113427 0.0710294117647059 0.735609420435496 0.798520636320658 0.932688036441158 0.898014879555528 0.844097947692446 0.916724317791131 0.596281797029587 0.9218995581289 0.935496142014432 0.882413235267951 0.770154266890169 0.914968867223453 0.92340114451026 -9999 -9999
0.873239179113427 1 0.873239179113427 0.873239179113427 0.873239179113427 0.873239179113427 1 1 0.873239179113427 1 0.00123456790123455 0.833333333333333 0.642386126789466 0.871082011610785 0.821210399856043 0.672088003639893 0.941716909500866 0.900155772536762 0.822216245247798 0.923663910728504 0.910461338145095 0.901094119436042 0.682851614851031 0.968433993627809 0.941218140889554 -9999
0.873239179113427 1 1 1 0.873239179113427 0.873239179113427 0.873239179113427 0.873239179113427 0.873239179113427 0.873239179113427 0.0530232558139535 0.404457831325301 0.558744374886562 0.619510747492501 0.792465309159085 0.731497987399085 0.967515760330442 0.917948744154232 0.777599583328842 0.925709250590571 0.97653753033211 0.831921141716016 0.631012110877642 0.72786389538661 0.981081547419546 0.929068741453855
0.873239179113427 1 1 1 1 1 1 1 1 0.873239179113427 0.0257142857142857 0.0318421052631579 0.422666666666667 0.532178232935417 0.757976315715557 0.835863938724233 0.99802884044451 0.999321947831008 0.782025026518581 0.999851004727345 0.99985731798971 0.995851299891316 0.991694938412295 0.998863293643802 0.984006973557149 0.876425398772873
