NCOLS 78 
NROWS 66 
XLLCORNER -87.5 
YLLCORNER 25 
CELLSIZE 0.0833333333333333 
NODATA_value -9999 
-9999.000000000000000 -9999 -9999 -9999 0 0 -9999 -9999 -9999 -9999 -9999 0.1644246110204 0.0166712980332426 0 0 0 -9999 -9999 -9999 -9999 -9999 -9999 -9999 -9999 -9999 -9999 -9999 -9999 -9999 -9999 -9999 -9999 -9999 -9999 -9999 -9999 -9999 -9999 -9999 -9999 -9999 -9999 -9999 -9999 -9999 -9999 -9999 -9999 -9999 -9999 -9999 -9999 -9999 -9999 -9999 -9999 -9999 -9999 -9999 -9999 -9999 -9999 -9999 -9999 -9999 -9999 -9999 -9999 -9999 -9999 -9999 -9999 0 0 0 0.0599116555410421 0.239086700149766 0.384699360483437
-9999 -9999 -9999 0 0.0145510938605338 0 0 0 0 0 0 0 0.00125287453981084 0 0 -9999 -9999 -9999 -9999 -9999 -9999 -9999 -9999 -9999 -9999 -9999 -9999 -9999 -9999 -9999 -9999 -9999 -9999 -9999 -9999 -9999 -9999 -9999 -9999 -9999 -9999 -9999 -9999 -9999 -9999 -9999 -9999 -9999 -9999 -9999 -9999 -9999 -9999 -9999 -9999 -9999 -9999 -9999 -9999 -9999 -9999 -9999 -9999 -9999 -9999 -9999 -9999 -9999 -9999 -9999 -9999 -9999 -9999 0 0 0.0627112656130534 0.12878206331252 0.210530677415251
0 0 0 0 0 0 0 0.0824195155152906 0 0 0 0 0.0495315538558509 0 0 0.06103505350062 0.0896306062956621 -9999 -9999 -9999 -9999 -9999 -9999 -9999 -9999 -9999 -9999 -9999 -9999 -9999 -9999 -9999 -9999 -9999 -9999 -9999 -9999 -9999 -9999 -9999 -9999 -9999 -9999 -9999 -9999 -9999 -9999 -9999 -9999 -9999 -9999 -9999 -9999 -9999 -9999 -9999 -9999 -9999 -9999 -9999 -9999 -9999 -9999 -9999 -9999 -9999 -9999 -9999 -9999 -9999 -9999 -9999 -9999 0.0798822073880561 0.0576719674834331 0.0576719674834331 0.241886310221777 0.376715531289842
0 0 0 0 0 0 0 0 0 0 0 0 0 0 0.054936765655985 0.0559332087175808 0.0489053538819645 0.0973153474616132 0.161247460716084 0 0 0 -9999 -9999 -9999 -9999 -9999 -9999 -9999 -9999 -9999 -9999 -9999 -9999 -9999 -9999 -9999 -9999 -9999 -9999 -9999 -9999 -9999 -9999 -9999 -9999 -9999 -9999 -9999 -9999 -9999 -9999 -9999 -9999 -9999 -9999 -9999 -9999 -9999 -9999 -9999 -9999 -9999 -9999 -9999 -9999 -9999 -9999 -9999 -9999 -9999 -9999 -9999 0.496803532778735 0.0855560838006657 0.0362829465332666 0.000995416914492911 0.324306830741791
0 0 0 0 0 0.00998683772417101 0.135343509956649 0.159426786717949 0.30346710162435 0.372440872534914 0.00124888005791683 0 0 0 0 0.00713269936004119 0.0622892916123111 0 0.0511611880025207 0 0 0 0 0 -9999 -9999 -9999 -9999 -9999 -9999 -9999 -9999 -9999 -9999 -9999 -9999 -9999 -9999 -9999 -9999 -9999 0.0311351201383956 -9999 -9999 -9999 -9999 -9999 -9999 -9999 -9999 -9999 -9999 -9999 -9999 -9999 -9999 -9999 -9999 -9999 -9999 -9999 -9999 -9999 -9999 -9999 -9999 -9999 -9999 -9999 -9999 -9999 -9999 -9999 -9999 0 0.127662219283716 0.0729498395906948 0
0 0 0 0 0 0.188896333390943 0.396000929113265 0.00248364655998198 0.140781948552482 0.28525073017614 0.0168315910464171 0.205395709069709 0.0209896167025966 0 0 0 0 0 0 0 0 0 0 0 -9999 -9999 -9999 -9999 -9999 -9999 -9999 -9999 -9999 -9999 -9999 -9999 -9999 -9999 0 0 0 0 0 0 -9999 -9999 -9999 -9999 -9999 -9999 -9999 -9999 -9999 -9999 -9999 -9999 -9999 -9999 -9999 -9999 -9999 -9999 -9999 -9999 -9999 -9999 -9999 -9999 -9999 -9999 -9999 -9999 -9999 -9999 0 0.164617072234265 0.213330287487262 0.249264106176254
0.0300542887989632 0 0.00312261544159898 0.107439663045647 0.144864928537405 0.330277911618168 0.183677210914246 0 0 0 0 0.701686569667664 0.686350181187417 0 0 0 0 0 0 0 0 0 0 0 -9999 -9999 -9999 -9999 -9999 -9999 -9999 -9999 -9999 -9999 -9999 -9999 -9999 -9999 0 0 0 0 0 0 0.0240393097880743 -9999 -9999 -9999 -9999 -9999 -9999 -9999 -9999 -9999 -9999 -9999 -9999 -9999 -9999 -9999 -9999 -9999 -9999 -9999 -9999 -9999 -9999 -9999 -9999 -9999 -9999 -9999 -9999 -9999 0 0.0811886920883281 0.187013952810356 0.0927230855850147
0.0314326580355562 0.00374580301601863 0.139840022630243 0.630465372089033 0.184415633025596 0 0 0 0 0 0 0 0.147617173755433 0 0 0 0 0 0 0 0 0 0 0 0 0 -9999 -9999 -9999 -9999 -9999 -9999 -9999 -9999 -9999 -9999 0 0 0.0102776876984067 0.0323828560505067 0 0 0 0 0 0 -9999 -9999 -9999 -9999 -9999 -9999 -9999 -9999 -9999 -9999 -9999 -9999 -9999 -9999 -9999 -9999 -9999 -9999 -9999 -9999 -9999 -9999 -9999 -9999 -9999 -9999 -9999 -9999 0 0.0089587522304362 0.290599525474774 0.0324754768353312
0 0.11399739016441 0.282505685929139 0.283130890536504 0 0 0 0 0 0 0 0 0 0 0 0 0 0 0 0 0 0 0 0 0 0 -9999 -9999 -9999 -9999 -9999 -9999 0 0 0.0156697909423353 0 0 0 0.00421277538785654 0.018808059303464 0.0120556009015771 0 0 0 0 0 0 -9999 -9999 -9999 -9999 -9999 -9999 -9999 -9999 -9999 -9999 -9999 -9999 -9999 -9999 -9999 -9999 -9999 -9999 -9999 -9999 -9999 -9999 -9999 -9999 -9999 -9999 -9999 -9999 0.0218369585616882 0.119823311082084 0
0.522841461680702 0.528979249361699 0.128214408782106 0 0.0775765702640501 0 0 0 0 0 0 0 0 0 0 0 0 0 0 0 0 0 0 0 0 0 0 -9999 -9999 -9999 0 0 0 0.00589743426385886 0.0133929239087578 0 0 0 0.124606250942537 0.0553959379884257 0 0 0 0 0 0 0 0 -9999 -9999 -9999 -9999 -9999 -9999 -9999 -9999 -9999 -9999 -9999 -9999 -9999 -9999 -9999 -9999 -9999 -9999 -9999 -9999 -9999 -9999 -9999 -9999 -9999 -9999 -9999 0.0153578609664621 0.0107505026765234 0.0111088527657409
0.835410909871839 0.636287000807739 0.183348993320969 0 0.0775765702640501 0 0 0.0775765702640501 0 0 0 0 0 0 0 0 0 0.0828217206439192 0.486824278449727 0 0 0 0 0 0 0 0 0 0 0 0 0 0 0.000569561118938121 0 0 0 0 0.031532644436507 0.0762187422829646 0 0 0 0 0 0 0 0 0 -9999 -9999 -9999 -9999 -9999 -9999 -9999 -9999 -9999 -9999 -9999 -9999 -9999 -9999 -9999 -9999 -9999 -9999 -9999 -9999 -9999 -9999 -9999 -9999 -9999 -9999 -9999 0.173575824464701 0.0250845062452214
0.427108233111708 0.205907528407373 0.0877986959592866 0.0795215834071397 0.165862709775796 0 0 0.0775765702640501 0.0775765702640501 0 0 0 0 0 0 0.0433702709781932 0.475310421626318 0.287862743920545 0.444259688532129 0 0 0 0 0 0 0 0 0 0 0 0 0 0 0 0 0 0 0.0400272112738863 0 0.0360886087344604 0.0384907901914788 0.0328703735753421 0 0 0 0 0 0 0 -9999 -9999 -9999 -9999 -9999 -9999 -9999 -9999 -9999 -9999 -9999 -9999 -9999 -9999 -9999 -9999 -9999 -9999 -9999 -9999 -9999 -9999 -9999 -9999 -9999 -9999 -9999 0 0
0.237 0.232 0.3 0.165862709775796 0.165862709775796 0.0484615384615385 0.0278571428571429 0 0.165862709775796 0 0 0.0775765702640501 0 0 0 0.276590540757202 0.339984516427425 0.377954044593944 0 0 0 0 0 0 0 0 0 0 0 0 0 0 0 0 0 0 0 0.0394378986650591 0.041395166046021 0.0417458747666161 0.0409180815168114 0.0414712022428958 0.0390179373748161 0 0 0 0 0 0 0.0230189422203655 0 -9999 -9999 -9999 -9999 -9999 -9999 -9999 -9999 -9999 -9999 -9999 -9999 -9999 -9999 -9999 -9999 -9999 -9999 -9999 -9999 -9999 -9999 -9999 -9999 -9999 0 0
0.247058823529412 0.3 0.2975 0.165862709775796 0.165862709775796 0.61 0.236153846153846 0 0.165862709775796 0 0 0.165862709775796 0 0 0 0 0.284176034582887 0.639930605579096 0 0 0 0 0 0 0 0 0 0 0 0 0 0 0 0 0.0687073092713216 0 0.0674768740456036 0 0.0415244549709213 0.0417404365927981 0.041444758946397 0.0414340287279477 0.0305041297299679 0 0 0 0 0 0 0 0 0 -9999 -9999 -9999 -9999 -9999 -9999 -9999 -9999 -9999 -9999 -9999 -9999 -9999 -9999 -9999 -9999 -9999 -9999 -9999 -9999 -9999 -9999 -9999 -9999 -9999 0
0.165862709775796 0.165862709775796 0.165862709775796 0 0.165862709775796 0 0 0 0.165862709775796 0 0 0.165862709775796 0 0 0.0775765702640501 0 0 0 0 0 0 0 0 0.00464166804873848 0 0.0643076017267799 0.0643242111404505 0.0636899101628455 0.0643094020618765 0 0 0.0682494659988989 0 0 0.0672238103894307 0 0.06784163093572 0 0 0.0415729460616855 0.0416192167619562 0.0402566276309175 0.0404419564693585 0.039190635903108 0 0 0 0 0 0 0 0 -9999 -9999 -9999 -9999 -9999 -9999 -9999 -9999 -9999 -9999 -9999 -9999 -9999 -9999 -9999 -9999 -9999 -9999 0.0377988016473275 0.0377988016473275 -9999 -9999 -9999 -9999 -9999 0
0.165862709775796 0.165862709775796 0.165862709775796 0 0 0 0 0 0.165862709775796 0.165862709775796 0 0 0 0 0 0 0 0 0 0 0 0.0768564418164422 0 0.00518473689138651 0.000554941864617888 0 0.0643422008635525 0.0643473615549927 0.0642836262665872 0 0 0.0692586192048607 0 0 0.0679723067676821 0 0 0 0.0691402594692669 0.0397634754800335 0.0392026038666225 0.0419538075983216 0.0407203449408016 0.0415159990269606 0 0 0 0 0 0 0 0 0 -9999 -9999 -9999 -9999 -9999 -9999 -9999 -9999 -9999 -9999 -9999 -9999 -9999 -9999 -9999 -9999 -9999 -9999 0.0377988016473275 -9999 -9999 -9999 -9999 -9999 -9999
0 0 0 0 0 0.165862709775796 0.165862709775796 0.165862709775796 0.165862709775796 0.165862709775796 0.165862709775796 0.165862709775796 0 0.165862709775796 0.0795215834071397 0 0.0775765702640501 0.0775765702640501 0 0 0 0 0.0791989777212835 0 0 0 0 0 0.064344123457182 0.0642750043179288 0.0690802983452699 0.0692217927726709 0 0 0.0687948505590259 0 0 0.0691709668195762 0.069197006967318 0.0685304855112634 0.0687800747089847 0.0413140670005937 0.0419684109415157 0.0411310794944385 0 0 0 0 0 0 0 0 0 0 0 0 -9999 -9999 -9999 -9999 -9999 -9999 -9999 -9999 -9999 -9999 -9999 -9999 -9999 -9999 -9999 -9999 0.0377988016473275 -9999 -9999 -9999 -9999 -9999
0 0 0 0 0 0.165862709775796 0 0 0 0.165862709775796 0.165862709775796 0 0 0.165862709775796 0.165862709775796 0 0.0775765702640501 0.0775765702640501 0 0 0 0 0 0 0 0.0892924021684752 0.0306293225846668 0 0 0 0.069002397549544 0 0 0 0 0 0 0.0688776685230625 0 0.0679801170730396 0.0685207647094309 0.0691985583650286 0.0417656844446473 0.041833376140104 0 0 0.0392079661372409 0 0 0 0 0 0 0.0319194890375271 0 0.0202561301515314 0 -9999 -9999 -9999 -9999 -9999 -9999 -9999 -9999 -9999 -9999 -9999 -9999 -9999 -9999 -9999 -9999 -9999 -9999 -9999 -9999 -9999
0 0.165862709775796 0.165862709775796 0 0 0 0 0.165862709775796 0 0.165862709775796 0.165862709775796 0 0 0 0 0.165862709775796 0.0775765702640501 0.0775765702640501 0.0775765702640501 0 0 0 0 0 0.0497923039686064 0.484311372155495 0.333109477159252 0 0 0 0.0691352417825007 0 0 0 0 0 0 0 0 0.0690683824145936 0 0 0 0.0417529038962964 0 0 0.0417545790128958 0 0 0 0 0 0 0 0 0 0 -9999 -9999 -9999 -9999 -9999 -9999 -9999 -9999 -9999 -9999 -9999 -9999 -9999 -9999 -9999 -9999 -9999 -9999 -9999 -9999 -9999
0 0.165862709775796 0 0 0 0 0 0.165862709775796 0.165862709775796 0.165862709775796 0.165862709775796 0 0 0 0 0.165862709775796 0.0775765702640501 0 0 0.0775765702640501 0 0 0 0 0 0 0 0.0758866154984131 0 0 0 0 0 0.0676905248297356 0 0 0 0 0 0.067650250416704 0 0 0 0.0681472374786567 0.041681816007877 0.038429279846995 0.034089267408108 0 0 0 0 0 0 0 0 0 0.0199392730787935 0 -9999 -9999 -9999 -9999 -9999 -9999 -9999 -9999 -9999 -9999 -9999 -9999 -9999 -9999 -9999 -9999 -9999 -9999 -9999 -9999
0.222941176470588 0.165862709775796 0.165862709775796 0 0.165862709775796 0.165862709775796 0 0 0.165862709775796 0.165862709775796 0 0 0 0.165862709775796 0 0.165862709775796 0.0795215834071397 0 0 0.0775765702640501 0 0 0 0 0 0.0790033486910375 0 0 0 0 0 0 0 0 0 0 0 0 0 0 0 0.0537326068486258 0.0691112325694169 0 0 0.0397935958364498 0.0370239670890019 0 0.0309663073171951 0.00910679562718465 0 0 0 0 0 0 0.0199439859011772 0 -9999 -9999 -9999 -9999 -9999 -9999 -9999 -9999 -9999 -9999 -9999 -9999 -9999 -9999 -9999 -9999 -9999 -9999 -9999 0.0377988016473275
0.5 0.165862709775796 0 0 0.165862709775796 0 0 0.165862709775796 0.165862709775796 0.165862709775796 0 0 0 0.165862709775796 0 0.165862709775796 0 0 0.0775765702640501 0 0.0775765702640501 0 0 0.0787254379712048 0 0.0787172175622306 0 0 0 0 0 0 0 0 0 0 0.0646260926307384 0.017876474144274 0.0881529937988675 0.051574113550854 0.0664393555254317 0.0673914986161766 0.0687185894397094 0 0.0673992489008354 0.0377580216210106 0.0402833180941414 0 0.128535776167735 0.0794897124176361 0.225218144996382 0 0 0 0 0 0.0199458713167681 0 -9999 -9999 -9999 -9999 -9999 -9999 -9999 -9999 -9999 -9999 -9999 -9999 -9999 -9999 -9999 -9999 -9999 -9999 -9999 -9999
1 0.165862709775796 0.165862709775796 0.165862709775796 0.165862709775796 0 0 0 0 0 0.165862709775796 0 0 0.165862709775796 0.165862709775796 0.165862709775796 0 0 0.0775765702640501 0 0.0775765702640501 0.0775765702640501 0.0775765702640501 0 0.0775765702640501 0.0775765702640501 0 0.0775765702640501 0 0 0 0.0692666600558183 0.0673992489008354 0.0689582962027569 0 0 0.209411106666814 0.315563887674082 0.543592518518093 0.296809166631869 0 0.0689576046379849 0.0691264581924303 0 0 0.0685212445883445 0 0 0.0304852062764613 0.0223968805760905 0.325146427445182 0 0 0 0 0 0.0199439859011772 0 -9999 -9999 -9999 -9999 -9999 -9999 -9999 -9999 -9999 -9999 -9999 -9999 -9999 -9999 -9999 -9999 -9999 -9999 -9999 -9999
0.833333333333333 0 0 0.165862709775796 0.165862709775796 0.165862709775796 0.165862709775796 0 0 0 0.165862709775796 0.165862709775796 0.165862709775796 0.165862709775796 0.165862709775796 0.165862709775796 0.165862709775796 0 0 0.0775765702640501 0 0.0775765702640501 0.0775765702640501 0 0 0.0775765702640501 0.0775765702640501 0.0775765702640501 0 0 0 0.0673992489008354 0 0.0267148462653329 0 0 0.00886950836089778 0.201624307065035 0.420851526039829 0 0 0.0691318399669281 0.0692613628647816 0 0 0.0690869320153924 0 0 0 0 0 0 0 0 0 0 0.019944928845401 0.0199373889103554 -9999 -9999 -9999 -9999 -9999 -9999 -9999 -9999 -9999 -9999 -9999 -9999 -9999 -9999 -9999 -9999 -9999 -9999 -9999 -9999
0.953 0.320666666666667 0 0 0 0 0 0.165862709775796 0.165862709775796 0.165862709775796 0.165862709775796 0.165862709775796 0.165862709775796 0.165862709775796 0.165862709775796 0.165862709775796 0 0 0 0 0 0.0775765702640501 0.0775765702640501 0 0 0.0775765702640501 0 0 0 0 0 0.0132305731812661 0.0354687737507021 0.0853292940678284 0.0536238351789336 0 0.0359687611054619 0.328281074171431 0.314153147611989 0.264995510878856 0 0 0 0 0 0.0669451030804314 0 0 0 0 0 0 0 0 0 0 0.0199505872591398 0 -9999 -9999 -9999 -9999 -9999 -9999 -9999 -9999 -9999 -9999 -9999 -9999 -9999 -9999 -9999 -9999 -9999 -9999 -9999 -9999
0.998571428571429 0.99875 1 0 0 0 0 0.165862709775796 0.165862709775796 0.165862709775796 0.165862709775796 0 0.165862709775796 0.165862709775796 0.165862709775796 0.165862709775796 0 0 0 0.165862709775796 0.165862709775796 0.165862709775796 0.0775765702640501 0.0775765702640501 0.0775765702640501 0.0775765702640501 0 0 0.0785879595780283 0 0 0.0379447512847031 0.0199396949441524 0.0759971694694188 0.0748090278861628 0 0 0.0587207807819433 0.559103763930552 0.538498706726011 0.872730979981216 0.497089934090505 0 0 0 0.068440232995338 0 0 0 0.0376526616548947 0 0 0 0 0 0 0.0199487009519215 -9999 -9999 -9999 -9999 -9999 -9999 -9999 -9999 -9999 -9999 -9999 -9999 -9999 -9999 -9999 -9999 -9999 -9999 -9999 -9999 -9999
0.165862709775796 1 1 1 1 1 1 0.165862709775796 0.165862709775796 0.165862709775796 0 0 0.165862709775796 0.165862709775796 0.165862709775796 0.165862709775796 0 0 0.165862709775796 0.165862709775796 0.165862709775796 0.165862709775796 0.165862709775796 0.0795215834071397 0.0775765702640501 0.0775765702640501 0.0775765702640501 0.0775765702640501 0.0775765702640501 0.0788440218260297 0 0 0 0 0.0748090278861628 0 0 0 0.494759199998259 0.853588058757928 0.653273797396343 0.299291200441336 0.0256221166898349 0 0 0.0691219010202116 0.0667244441227151 0 0 0 0 0 0.00279961007201131 0.00247084494089363 0 0 0.0417508211390342 -9999 -9999 -9999 -9999 -9999 -9999 -9999 -9999 -9999 -9999 -9999 -9999 -9999 -9999 -9999 -9999 -9999 -9999 -9999 -9999 -9999
0.165862709775796 0.165862709775796 1 1 1 1 1 1 1 0.165862709775796 0.165862709775796 0 0 0.165862709775796 0.165862709775796 0.165862709775796 0.165862709775796 0.165862709775796 0.165862709775796 0.165862709775796 0.165862709775796 0 0 0.165862709775796 0.0795215834071397 0.0775765702640501 0 0 0.0775765702640501 0.0775765702640501 0 0 0 0 0 0 0 0 0 0.712543890197836 0.930181947987625 0.880438920728843 0.858586403869686 0 0 0 0.0690542094773869 0 0 0 0 0 0.00974743182410275 0 0 0 0.0756960215704437 -9999 -9999 -9999 -9999 -9999 -9999 -9999 -9999 -9999 -9999 -9999 -9999 -9999 -9999 -9999 -9999 -9999 -9999 -9999 -9999 -9999
0 0.165862709775796 0.165862709775796 0.165862709775796 0.165862709775796 0.165862709775796 0.165862709775796 0.165862709775796 0.165862709775796 0.165862709775796 0.165862709775796 0.165862709775796 0.165862709775796 0.165862709775796 0.165862709775796 0.165862709775796 0 0 0.165862709775796 0.165862709775796 0.165862709775796 0 0 0.165862709775796 0.165862709775796 0.165862709775796 0.165862709775796 0.0795215834071397 0.0775765702640501 0.0775765702640501 0 0 0 0 0 0.0760499366117385 0.0761758121175396 0.0748090278861628 0.0673992489008354 0.0691933640341592 0 0.294437803029632 0.058687165810165 0.0679161915641882 0.0692198923492535 0.0685819891223031 0.0688501025583139 0.0691564210949163 0.0690521109824527 0 0 0 0 0 0 0 -9999 -9999 -9999 -9999 -9999 -9999 -9999 -9999 -9999 -9999 -9999 -9999 -9999 -9999 -9999 -9999 -9999 -9999 -9999 -9999 -9999 -9999
0 0.165862709775796 0.165862709775796 0.165862709775796 0 0.165862709775796 0.165862709775796 0.165862709775796 0.165862709775796 0.165862709775796 0.165862709775796 1 1 1 0.165862709775796 0.165862709775796 0 0 0.165862709775796 0.165862709775796 0.165862709775796 0.165862709775796 0.165862709775796 0.165862709775796 0.165862709775796 0.165862709775796 0.165862709775796 0.165862709775796 0.0775765702640501 0.0748090278861628 0.0748090278861628 0.0748090278861628 0.0761736351827929 0 0.0755451910621525 0.0748090278861628 0 0 0.068967761599965 0.0691476916543573 0.0691519460738878 0.0692419757673738 0 0 0 0 0 0 0 0 0 0 0 0.0419231068375194 0.0311747312028557 0 -9999 -9999 -9999 -9999 -9999 -9999 -9999 -9999 -9999 -9999 -9999 -9999 -9999 -9999 -9999 -9999 -9999 -9999 -9999 -9999 -9999 -9999
0.165862709775796 0.165862709775796 0.165862709775796 0.165862709775796 0 0.165862709775796 0.165862709775796 0.165862709775796 0.165862709775796 0.165862709775796 0.165862709775796 1 1 0.165862709775796 0.165862709775796 0.998181818181818 0.999230769230769 0.5 0.233333333333333 0.165862709775796 0.165862709775796 0.165862709775796 0.165862709775796 0.165862709775796 0.165862709775796 0.165862709775796 0.165862709775796 0.169844333120236 0.169844333120236 0.0748090278861628 0 0 0 0 0.0761512380749873 0.0760752856947896 0 0 0 0 0.0688027317881841 0.0684870441771322 0 0 0 0 0 0 0 0 0 0 0 0 0 0 -9999 -9999 0 0 -9999 -9999 -9999 -9999 -9999 -9999 -9999 -9999 -9999 -9999 -9999 -9999 -9999 -9999 -9999 -9999 -9999 -9999
0.165862709775796 0.165862709775796 0.165862709775796 0.165862709775796 0.165862709775796 0.165862709775796 0.165862709775796 0.165862709775796 0.165862709775796 0.165862709775796 0.165862709775796 0.165862709775796 0.165862709775796 0 0 0.996666666666667 0.452307692307692 0.6325 0.693846153846154 1 1 0.165862709775796 0.165862709775796 0.165862709775796 0.165862709775796 0.165862709775796 0.165862709775796 0.169844333120236 0.169844333120236 0 0 0 0 0.0748090278861628 0 0 0 0 0 0 0 0.0692559665714168 0 0 0 0 0 0 0 0 0 0 0 0 0.00213943859495776 0.0181401993158947 -9999 -9999 0 0.0463940566229552 0.0332296035444051 -9999 -9999 -9999 -9999 -9999 -9999 -9999 -9999 -9999 -9999 -9999 -9999 -9999 -9999 -9999 -9999 -9999
0.165862709775796 0.165862709775796 0.165862709775796 0.165862709775796 0 0 0.165862709775796 0.165862709775796 0.165862709775796 0.165862709775796 0.165862709775796 0.165862709775796 0.165862709775796 0 0.121748645516987 0.121748645516987 0 0.75 0.121748645516987 1 0.989285714285714 0.98 0.165862709775796 0.165862709775796 0.165862709775796 0.165862709775796 0.169844333120236 0.169844333120236 0.169844333120236 0.169844333120236 0.0763989963973906 0.0748090278861628 0.0748090278861628 0.0748090278861628 0 0 0 0 0 0 0 0 0 0 0.0670471032838102 0.0681689965569488 0 0 0 0 0.0667056341898127 0.0640073812238774 0 0 0.02204243658179 0 0 -9999 -9999 0.0889019985912179 0 -9999 -9999 -9999 -9999 -9999 -9999 -9999 -9999 -9999 -9999 -9999 -9999 -9999 -9999 -9999 -9999 -9999
0.165862709775796 0.165862709775796 0.165862709775796 0.165862709775796 0 0 0.165862709775796 0.165862709775796 0.165862709775796 0 0 0.165862709775796 0.165862709775796 0.121748645516987 0.121748645516987 0.121748645516987 0.121748645516987 0.121748645516987 0.121748645516987 0.407 0.406470588235294 0.936470588235294 0.452 1 0.169844333120236 0.169844333120236 0.169844333120236 0 0.169844333120236 0.169844333120236 0.169844333120236 0.0748090278861628 0.0748090278861628 0.0748090278861628 0 0 0 0 0 0 0 0.0686390691967253 0 0 0 0.0692531304129198 0 0 0 0.0689166350691952 0.0691844110393041 0 0 0 0 0 0 0.0206472004000845 0.0234753186988129 0 -9999 -9999 -9999 -9999 -9999 -9999 -9999 -9999 -9999 -9999 -9999 -9999 -9999 -9999 -9999 -9999 -9999 -9999
0.165862709775796 0.165862709775796 0.165862709775796 0.165862709775796 0.165862709775796 0.165862709775796 0.165862709775796 0.165862709775796 0.165862709775796 0 0 0.121748645516987 0.165862709775796 0.165862709775796 0.121748645516987 0.121748645516987 0.121748645516987 0.121748645516987 0.121748645516987 0.121748645516987 0.121748645516987 0.852 0.950625 0.33625 0 0.169844333120236 0.169844333120236 0 0 0.169844333120236 0.169844333120236 0.0748090278861628 0.0748090278861628 0.0748090278861628 0 0 0 0 0 0 0 0.0692281127686461 0 0 0 0.0691901035413251 0.0685647558217897 0 0 0 0 0 0 0 0 0 0 0 0 0 -9999 -9999 -9999 -9999 -9999 -9999 -9999 -9999 -9999 -9999 -9999 -9999 -9999 -9999 -9999 -9999 -9999 -9999
0.165862709775796 0.165862709775796 0.165862709775796 0.165862709775796 0.165862709775796 0.165862709775796 0.165862709775796 0.165862709775796 0.165862709775796 0.165862709775796 0.165862709775796 0.121748645516987 0.121748645516987 0.165862709775796 0.121748645516987 0.121748645516987 0.121748645516987 0.121748645516987 0.121748645516987 0.121748645516987 0.121748645516987 0.121748645516987 1 0.890769230769231 1 0.169844333120236 0.169844333120236 0.169844333120236 0.169844333120236 0.169844333120236 0.169844333120236 0.0748090278861628 0.0748090278861628 0.0748090278861628 0 0 0 0.0760737850619917 0.0761768738799267 0.075112915546173 0 0 0 0 0 0.0688175381038264 0.0678882251287401 0 0 0 0 0 0 0 0 0 0 0 0 -9999 -9999 -9999 -9999 -9999 -9999 -9999 -9999 -9999 -9999 -9999 -9999 -9999 -9999 -9999 -9999 -9999 -9999 -9999
0.165862709775796 0.165862709775796 0.165862709775796 0.165862709775796 0.165862709775796 0.165862709775796 0.165862709775796 0.165862709775796 0.165862709775796 0.165862709775796 0.165862709775796 0.165862709775796 0.121748645516987 0.121748645516987 0.121748645516987 0.121748645516987 0.121748645516987 0.121748645516987 0.121748645516987 0.121748645516987 0.137012516478914 0.137012516478914 1 0.998125 0.923076923076923 0 0.169844333120236 0.169844333120236 0.169844333120236 0.169844333120236 0.169844333120236 0.169844333120236 0.0748090278861628 0.0748090278861628 0.0759534123738174 0 0 0 0 0 0 0.233083037481694 0.111623785204993 0 0.0690843626287157 0.0691404813693825 0.0692282798570285 0 0 0.0685592147542236 0 0 0 0 0.022806060505133 0 0 0 -9999 -9999 -9999 -9999 -9999 -9999 -9999 -9999 -9999 -9999 -9999 -9999 -9999 -9999 -9999 -9999 -9999 -9999 -9999 -9999
0.165862709775796 0.165862709775796 0.165862709775796 0.165862709775796 0.165862709775796 0.165862709775796 0.165862709775796 0.165862709775796 0.165862709775796 0.165862709775796 0.165862709775796 0 0 0.121748645516987 0.121748645516987 0.121748645516987 0.121748645516987 0.121748645516987 0.121748645516987 0.137012516478914 0.137012516478914 0.137012516478914 0.137012516478914 1 0.943 0 0.169844333120236 0.169844333120236 0.169844333120236 0.169844333120236 0.169844333120236 1 0.97918862045049 0.0748090278861628 0.0758236153837891 0 0 0.0756560767519377 0 0.0485209548962348 0.143880819621362 0.169042203908812 0.0547714237308401 0 0 0 0.0688840977152321 0 0 0 0 0 0 0 0 0 0 0 0.0830494765288194 -9999 -9999 -9999 -9999 -9999 -9999 -9999 -9999 -9999 -9999 -9999 -9999 -9999 -9999 -9999 -9999 -9999 -9999 -9999
0.165862709775796 0.165862709775796 0.165862709775796 0.165862709775796 0.165862709775796 0.165862709775796 0.165862709775796 0.165862709775796 0.165862709775796 0.165862709775796 0.165862709775796 0 0.121748645516987 0.121748645516987 0.121748645516987 0.121748645516987 0.121748645516987 0.121748645516987 0.137012516478914 0.137012516478914 0.137012516478914 0.137012516478914 0.1 0.775 1 1 0.169844333120236 0.169844333120236 0.169844333120236 0.169844333120236 0.169844333120236 1 0.977556639416405 0.0748090278861628 0.0752669611124205 0.075679112858968 0 0.0758451521467885 0 0.0760696166983673 0.186543577571924 0.176146248672664 0.203699920092936 0.220299623045078 0 0 0.0689266282594316 0 0 0 0 0 0 0 0 0 0 0.369600832914671 0.166322656107199 0.014839454670424 -9999 -9999 -9999 -9999 -9999 -9999 -9999 -9999 -9999 -9999 -9999 -9999 -9999 -9999 -9999 -9999 -9999 -9999
0.165862709775796 0.165862709775796 0.165862709775796 0.165862709775796 0.165862709775796 0.165862709775796 0.165862709775796 0.165862709775796 0.165862709775796 0.165862709775796 0.165862709775796 0.165862709775796 0.121748645516987 0.121748645516987 0.121748645516987 0.137012516478914 0.137012516478914 0.137012516478914 0.137012516478914 0.137012516478914 0.137012516478914 0.137012516478914 0.1 0.55 1 1 0.169844333120236 0.169844333120236 0.169844333120236 0.169844333120236 0.169844333120236 0.998 0.969396734245985 0.0748090278861628 0.0748090278861628 0.0748090278861628 0 0.0759593770101795 0 0.076009165047745 0.0915311927480859 0.20766553371274 0.356135147942789 0.199216614048881 0.0691676578389675 0.0753116120878846 0 0 0 0 0 0 0 0 0 0 0 0 0 0.0207464514602889 -9999 -9999 -9999 -9999 -9999 -9999 -9999 -9999 -9999 -9999 -9999 -9999 -9999 -9999 -9999 -9999 -9999 -9999
0.165862709775796 0.165862709775796 0.165862709775796 0.165862709775796 0.165862709775796 0.165862709775796 0.165862709775796 0.165862709775796 0.165862709775796 0.165862709775796 0.165862709775796 0.165862709775796 0.121748645516987 0.137012516478914 0.137012516478914 0.137012516478914 0.137012516478914 0.137012516478914 0.137012516478914 0.137012516478914 0.137012516478914 0.137012516478914 0.137012516478914 0.137012516478914 0.137012516478914 1 1 0.169844333120236 0.169844333120236 0.169844333120236 0.169844333120236 0.169844333120236 0.0748090278861628 0.0748090278861628 0.0748090278861628 0 0 0 0 0 0 0 0.0760630861462707 0.072298103440067 0 0.291164531583748 0.198770218015917 0 0 0 0 0 0 0 0 0 0 0 0 0 -9999 -9999 -9999 -9999 -9999 -9999 -9999 -9999 -9999 -9999 -9999 -9999 -9999 -9999 -9999 -9999 -9999 -9999
0 0.165862709775796 0.165862709775796 0.165862709775796 0.165862709775796 0.165862709775796 0.165862709775796 0.165862709775796 0.165862709775796 0.165862709775796 0.165862709775796 0.169844333120236 0.137012516478914 0.137012516478914 0.137012516478914 0.137012516478914 0.137012516478914 0 0 0.137012516478914 0.137012516478914 0.137012516478914 0.137012516478914 0.137012516478914 0 0.333333333333333 1 0.169844333120236 0.169844333120236 0.169844333120236 0 0 0 0 0.0748090278861628 0.0748090278861628 0 0 0 0 0 0 0.0757093337811675 0 0 0 0.0682636431397452 0 0 0 0 0 0 0 0 0 0 0 0 0 0 -9999 -9999 -9999 -9999 -9999 -9999 -9999 -9999 -9999 -9999 -9999 -9999 -9999 -9999 -9999 -9999 -9999
0 0.165862709775796 0.165862709775796 0.165862709775796 0.165862709775796 0.165862709775796 0.165862709775796 0.165862709775796 0.165862709775796 0.165862709775796 0.169844333120236 0.137012516478914 0.137012516478914 0.137012516478914 0.137012516478914 0.137012516478914 0.137012516478914 0 0 0.137012516478914 0.137012516478914 0.137012516478914 0.137012516478914 0.137012516478914 0 0 0.137012516478914 0.169844333120236 0.169844333120236 0.169844333120236 0 0.169844333120236 0 0 0.12671789505312 0.12671789505312 0.127268375461764 0.127151800934965 0.127326973419341 0 0 0.127139897831698 0.127276382291061 0 0 0 0.0921225605002329 0 0 0 0 0 0 0 0 0 0 0 0 0 0 -9999 -9999 -9999 -9999 -9999 -9999 -9999 -9999 -9999 -9999 -9999 -9999 -9999 -9999 -9999 -9999 -9999
0.165862709775796 0.165862709775796 0.165862709775796 0.165862709775796 0.165862709775796 0.165862709775796 0.165862709775796 0.165862709775796 0.169844333120236 0 0 0.137012516478914 0.137012516478914 0.137012516478914 0.137012516478914 0.137012516478914 0.137012516478914 0.137012516478914 0.137012516478914 0.137012516478914 0.137012516478914 0.137012516478914 0.137012516478914 0.137012516478914 0.137012516478914 0.137012516478914 0.137012516478914 0.944545454545455 0.647857142857143 0.884444444444444 0.169844333120236 0 0.12671789505312 0.12671789505312 0 0.12671789505312 0.126893494832462 0.127166327550535 0.12671789505312 0 0 0.127302867039117 0.12723908706994 0 0 0 0 0.00593836231375674 0.130497552872581 0.234131317128102 0.0821173052400486 0 0 0 0 0 0 0 0 0 0.0105531284661884 0 -9999 -9999 0 -9999 -9999 -9999 -9999 -9999 -9999 -9999 -9999 -9999 -9999 -9999 -9999 -9999
0.165862709775796 0.165862709775796 0.165862709775796 0.165862709775796 0.165862709775796 0.165862709775796 0.165862709775796 0.169844333120236 0.169844333120236 0 0 0.137012516478914 0.137012516478914 0.137012516478914 0.137012516478914 0.137012516478914 0.137012516478914 0.137012516478914 0.137012516478914 0.137012516478914 0.137012516478914 0.137012516478914 0.137012516478914 0.137012516478914 0.137012516478914 0.137012516478914 0 0.462727272727273 0.250909090909091 0.998125 1 0 0 0 0 0.152581778516374 0.127135827967714 0.126874793948411 0 0 0 0 0.132174434446923 0.142932637250836 0.111191050189717 0.621766459537818 0.065923079150412 0.256726994538603 0.268368427147375 0.49105667648447 0.365015917744331 0 0.0917346782650061 0.599945662158057 0.180422120461855 0 0 0.0319725889369614 0.101799179046663 0 0.000466058952834287 0 0 0 0 -9999 -9999 -9999 -9999 -9999 -9999 -9999 -9999 -9999 -9999 -9999 -9999 -9999
0.165862709775796 0.165862709775796 0.165862709775796 0.165862709775796 0.165862709775796 0.169844333120236 0.169844333120236 0.169844333120236 0.169844333120236 0.137012516478914 0 0 0.137012516478914 0.137012516478914 0.137012516478914 0.137012516478914 0.137012516478914 0.137012516478914 0.137012516478914 0.137012516478914 0.137012516478914 0.137012516478914 0.137012516478914 0.137012516478914 0.144672940434562 0.144672940434562 0 0.00222222222222222 0 0.998 0.899047619047619 0 0 0 0 0.347074839702148 0 0 0 0 0 0 0.460166215258295 0.204913462695585 0.464803222404662 0.74518649594475 0.175224407377824 0.302908327023123 0.174157534698264 0.290620262486178 0.305788923857212 0 0 0.452744995850387 0.351022182960003 0.0147669067249071 0.0149029903306068 0.0691690749879262 0.117403832509744 0 0 0 0.0142884940501467 0 0.0112348950982536 -9999 -9999 -9999 -9999 -9999 -9999 -9999 -9999 -9999 -9999 -9999 -9999 -9999
0.165862709775796 0.165862709775796 0.165862709775796 0.165862709775796 0.169844333120236 0.169844333120236 0.169844333120236 0.169844333120236 0.169844333120236 0.137012516478914 0.137012516478914 0 0.137012516478914 0.137012516478914 0.137012516478914 0.137012516478914 0.137012516478914 0.137012516478914 0.137012516478914 0.137012516478914 0.137012516478914 0.144672940434562 0.144672940434562 0.144672940434562 0.144672940434562 0.144672940434562 0.144672940434562 0 0 0.998333333333333 0.993684210526316 0 0 0.12671789505312 0.12671789505312 0 0 0 0 0 0 0 0 0.0905698223617761 0.408145849299009 0 0 0 0 0 0 0 0 0 0 0.0568485610792098 0.101264750798144 0 0 0 0 0 0 0 -9999 -9999 -9999 -9999 -9999 -9999 -9999 -9999 -9999 -9999 -9999 -9999 -9999 -9999
0.165862709775796 0.165862709775796 0.169844333120236 0.169844333120236 0.169844333120236 0.169844333120236 0.169844333120236 0.169844333120236 0.137012516478914 0.137012516478914 0.137012516478914 0.137012516478914 0.137012516478914 0.137012516478914 0.137012516478914 0.137012516478914 0.137012516478914 0.137012516478914 0.144672940434562 0.144672940434562 0.144672940434562 0.144672940434562 0.144672940434562 0.144672940434562 0.144672940434562 0 0 0 0 0.869333333333333 0.999230769230769 0 0 0.12671789505312 0.12671789505312 0 0 0 0 0 0 0 0 0.119059650993271 0.296410451393137 0 0 0 0 0 0 0 0 0 0 0 0 0 0 0 0 0 0 0 -9999 -9999 -9999 -9999 -9999 -9999 -9999 -9999 -9999 -9999 -9999 -9999 -9999 -9999
0.169844333120236 0.169844333120236 0.169844333120236 0.169844333120236 0.169844333120236 0.169844333120236 0.169844333120236 0.169844333120236 0.137012516478914 0.137012516478914 0.137012516478914 0 0 0.137012516478914 0.137012516478914 0.144672940434562 0.144672940434562 0.144672940434562 0.144672940434562 0.144672940434562 0.144672940434562 0.144672940434562 0.144672940434562 0.144672940434562 0.144672940434562 0 0 0 0 0.241875 0.999444444444444 0 0 0 0.12671789505312 0 0 0.12671789505312 0 0 0 0 0 0.0149533219256008 0.323599770450241 0.130425466808351 0 0 0 0 0 0 0 0 0 0 0 0 0 0 0 0 0 0 0 0 0 0 -9999 -9999 -9999 -9999 -9999 -9999 -9999 -9999 -9999 -9999
0.169844333120236 0.169844333120236 0.169844333120236 0.169844333120236 0.169844333120236 0.169844333120236 0.169844333120236 0.169844333120236 0.169844333120236 0.137012516478914 0.137012516478914 0 0 0.144672940434562 0.144672940434562 0.144672940434562 0.144672940434562 0.144672940434562 0.144672940434562 0.144672940434562 0.144672940434562 0.144672940434562 0.144672940434562 0.144672940434562 0.144672940434562 0.144672940434562 0.144672940434562 0.144672940434562 0.75 0.474375 0.998421052631579 0.3 0 0 0.12671789505312 0 0 0.12671789505312 0 0 0.127146323353278 0 0 0 0.177443850272129 0.506528381191461 0 0 0 0 0.806793837542506 0.360688855855621 0 0 0 0 0 0 0 0 0 0 0 0 0 0 0 0 -9999 -9999 -9999 -9999 -9999 -9999 -9999 -9999 -9999 -9999
0.169844333120236 0.169844333120236 0.169844333120236 0.169844333120236 0.169844333120236 0.169844333120236 0.169844333120236 0.169844333120236 0.169844333120236 0.239759515604503 0.239759515604503 0.144672940434562 0 0 0 0 0.144672940434562 0.144672940434562 0.144672940434562 0.144672940434562 0.144672940434562 0.144672940434562 0.144672940434562 0.144672940434562 0.144672940434562 0 0 0 0.214 0.9775 0.172105263157895 0.0971428571428571 0 0 0.12671789505312 0.903753611212371 0.903753611212371 0.12671789505312 0 0 0.249940318981358 0 0 0 0.136531695587995 0.13495807929052 0 0 0 0 0.467449410063132 0.226212181985473 0 0.310376041027745 0.164873259637386 0 0.210221615867397 0.0933203555540495 0 0.138342932900314 0 0.0866949046175299 0.0286131000791619 0.014924514071686 0.0280908132408181 0 0 0 -9999 -9999 -9999 -9999 -9999 -9999 -9999 -9999 -9999 -9999
0.169844333120236 0.169844333120236 0.137012516478914 0.137012516478914 0.137012516478914 0 0 0.144672940434562 0.239759515604503 0.239759515604503 0.239759515604503 0.144672940434562 0 0 0 0 0.144672940434562 0.144672940434562 0.144672940434562 0.144672940434562 0.144672940434562 0.144672940434562 0.144672940434562 0.144672940434562 0.144672940434562 0 0 0.144672940434562 0 0.992307692307692 0.955652173913043 0.5 0 0 0.12671789505312 0.903753611212371 0.903753611212371 0 0 0.0129458557397049 0.713419451019208 0 0 0 0.376816146935937 0.10500709390607 0 0 0 0 0 0.0339899955174185 0.504199363570961 0.197310471043835 0.0629098127113309 0 0.659115154307534 0.339873784297009 0 0.759867908585386 0 0.728885593947511 0.345951316343748 0.370372998932072 0.0797519917228441 0 0 0 -9999 -9999 -9999 -9999 -9999 -9999 -9999 -9999 -9999 -9999
0 0.137012516478914 0.137012516478914 0.144672940434562 0.144672940434562 0 0 0.144672940434562 0.144672940434562 0.144672940434562 0.144672940434562 0.144672940434562 0.144672940434562 0.144672940434562 0.144672940434562 0.144672940434562 0.144672940434562 0.144672940434562 0.144672940434562 0.144672940434562 0.144672940434562 0.144672940434562 0.144672940434562 0.144672940434562 0.144672940434562 0.144672940434562 0.144672940434562 0.144672940434562 0.144672940434562 0.144672940434562 1 0.737777777777778 0.239759515604503 0 0.127593719203676 0.12671789505312 0.12671789505312 0 0.0709382740355079 0.275871065693642 0.12671789505312 0.127193735029224 0 0 0.338501900844197 0.696972055281361 0 0 0 0 0 0.207741631790489 0.453628989542366 0.00305056101157157 0 0 0 0 0 0.0917123271441967 0.0791802929197833 0.0779532620095231 0.0790813598754274 0.0358469830191334 0.107791376904644 0 0 0 -9999 -9999 -9999 -9999 -9999 -9999 -9999 -9999 -9999 -9999
0 0.144672940434562 0.144672940434562 0.144672940434562 0.144672940434562 0.144672940434562 0.144672940434562 0.144672940434562 0.144672940434562 0.144672940434562 0.144672940434562 0.144672940434562 0.144672940434562 0.144672940434562 0.144672940434562 0.144672940434562 0.144672940434562 0.144672940434562 0.144672940434562 0.144672940434562 0.144672940434562 0.144672940434562 0.144672940434562 0.144672940434562 0.144672940434562 0.144672940434562 0.144672940434562 0.144672940434562 0.144672940434562 0.144672940434562 0.580833333333333 0.183636363636364 0 0 0.239759515604503 0.12671789505312 0 0 0.248283959124278 0.165452365580491 0 0 0 0 0.307984110463973 0.187879681634335 0.127263229481928 0 0 0 0 0.388818081712842 0.731739257908655 0.2745851018212 0 0 0 0 0 0 0 0.0791176373663186 0.0791574876071855 0.0799512328264241 0.133338201142541 0.113553038444459 0 0 0.039710703923278 -9999 -9999 -9999 -9999 -9999 -9999 -9999 -9999 -9999
0.144672940434562 0.144672940434562 0.144672940434562 0.144672940434562 0.144672940434562 0.144672940434562 0.144672940434562 0.144672940434562 0.144672940434562 0.144672940434562 0.144672940434562 0.144672940434562 0.144672940434562 0.144672940434562 0.144672940434562 0.144672940434562 0.144672940434562 0.144672940434562 0.144672940434562 0.144672940434562 0.144672940434562 0.144672940434562 0.144672940434562 0.144672940434562 0.144672940434562 0.144672940434562 0.144672940434562 0.144672940434562 0.144672940434562 0.144672940434562 0.573636363636364 0.991666666666667 0.239759515604503 0.239759515604503 0.239759515604503 0.12671789505312 0 0 0.12671789505312 0 0 0 0 0 0.026814667585422 0.200217243590701 0 0 0 0 0 0 0.668474965704256 0.661237521594921 0.0459904942942211 0 0 0 0 0 0 0 0 0 0.240409274506767 0.386673812038928 0 0 0 0 -9999 -9999 -9999 -9999 -9999 -9999 -9999 -9999
0.144672940434562 0.144672940434562 0.144672940434562 0.144672940434562 0.144672940434562 0.144672940434562 0.144672940434562 0.144672940434562 0.144672940434562 0.144672940434562 0.144672940434562 0.144672940434562 0.144672940434562 0.144672940434562 0.144672940434562 0.144672940434562 0.144672940434562 0.144672940434562 0.144672940434562 0.144672940434562 0.144672940434562 0.144672940434562 0.144672940434562 0.144672940434562 0.144672940434562 0.144672940434562 0.144672940434562 0.144672940434562 0.144672940434562 0.144672940434562 0.999090909090909 0.999090909090909 0.239759515604503 0.239759515604503 0.239759515604503 0.12671789505312 0.12671789505312 0.12671789505312 0 0 0.127081006520981 0 0 0 0.322911693496581 0.215635659493406 0.00374147539620562 0 0 0 0 0 0.665269085069564 0.474411858857651 0.100843567903773 0 0 0 0 0 0 0 0 0 0.405805936507587 0.20854234826781 0 0 0 0 0 0 -9999 -9999 -9999 -9999 -9999 -9999
0.144672940434562 0.144672940434562 0.144672940434562 0.144672940434562 0.144672940434562 0.144672940434562 0.144672940434562 0.144672940434562 0.144672940434562 0.144672940434562 0.144672940434562 0.144672940434562 0.144672940434562 0.144672940434562 0.144672940434562 0.144672940434562 0.144672940434562 0.144672940434562 0.144672940434562 0 0.144672940434562 0.144672940434562 0.144672940434562 0.144672940434562 0.144672940434562 0.144672940434562 0.144672940434562 0.144672940434562 0.144672940434562 0.144672940434562 0.999090909090909 0.999166666666667 0.239759515604503 0.239759515604503 0.239759515604503 0.239759515604503 0.12671789505312 0.396012914803223 0.30103651350261 0.0343705769564581 0.358441992290386 0.125385635032209 0.314824060169584 0 0.0425629644213048 0.216007044438122 0.236509644128288 0 0.907905519556882 0.150625601868729 0 0 0.300779036432777 0.585911267039311 0.194681236170304 0.0321389809824574 0.199790506892872 0 0.217377242401255 0.299053339300844 0 0.0178835883967282 0.680913795138749 0.021080827870524 0.517615404328558 0.183227528907971 0.122615795848089 0.626662743164443 0 0 0 0 0 0 -9999 -9999 -9999 -9999
0.144672940434562 0.144672940434562 0.144672940434562 0.144672940434562 0.144672940434562 0.144672940434562 0.144672940434562 0.144672940434562 0.144672940434562 0.144672940434562 0.144672940434562 0.144672940434562 0.144672940434562 0.144672940434562 0.144672940434562 0.144672940434562 0.144672940434562 0.144672940434562 0.144672940434562 0 0 0.144672940434562 0.144672940434562 0.144672940434562 0.144672940434562 0.144672940434562 0.144672940434562 0.144672940434562 0.144672940434562 0.144672940434562 0.999230769230769 0.998125 0.239759515604503 0.239759515604503 0.239759515604503 0.239759515604503 0.12671789505312 0.395599108204683 0.361861024054124 0.0504077139588926 0.189203589516515 0.297389008817746 0.223067671728793 0.287582883120126 0 0.325872101178598 0.26779784625177 0 0.276461140524887 0.143057758761855 0 0 0.167187742409074 0.449347956392405 0.552375876003888 0.0314108284895318 0.31147593969507 0 0.259816758916178 0.189433565980158 0 0.0350658596014278 0.36448751388136 0.0243569160194497 0.68741066214467 0.0567560750360261 0.173143866243237 0.470657220140857 0 0 0 0 0 0 0 -9999 -9999 -9999
0.144672940434562 0.144672940434562 0.144672940434562 0 0.144672940434562 0.144672940434562 0.144672940434562 0.144672940434562 0.144672940434562 0.144672940434562 0.144672940434562 0.144672940434562 0.144672940434562 0.144672940434562 0.144672940434562 0.144672940434562 0.144672940434562 0.144672940434562 0.144672940434562 0.144672940434562 0.144672940434562 0.144672940434562 0 0.144672940434562 0.144672940434562 0.144672940434562 0.144672940434562 0.144672940434562 0.144672940434562 0 1 0.998 0.99875 0.239759515604503 0.239759515604503 0.239759515604503 0.0198627167299422 0.53629335170844 0 0 0.193245663310142 0.0917680323864109 0 0.212351241142578 0.318025884874291 0.651497108742105 0.563407598577005 0 0 0 0 0 0 0 0.0189279322466771 0 0 0 0 0 0 0 0 0 0.0791820410291859 0 0.912981978345458 0.224300008542375 0.0169924248895739 0 0 0 0 0 0 -9999 -9999 -9999
0.144672940434562 0.144672940434562 0.144672940434562 0 0 0.144672940434562 0.144672940434562 0.144672940434562 0.144672940434562 0.144672940434562 0.144672940434562 0.144672940434562 0.144672940434562 0.144672940434562 0.144672940434562 0.144672940434562 0.144672940434562 0.144672940434562 0.144672940434562 0.144672940434562 0.144672940434562 0.144672940434562 0.144672940434562 0.144672940434562 0.144672940434562 0.144672940434562 0.144672940434562 0.144672940434562 0 0 0.144672940434562 0.99875 0.999375 0.2 0 0.239759515604503 0.211868978452717 0.875945807790452 0 0 0.0836591814001077 0.126983967913947 0.126857955040344 0.0780321014390587 0.173416796065265 0.309187885534153 0.613939118497604 0 0 0 0 0 0 0 0.478204904589439 0.0121360522201338 0 0 0 0 0.0917123271441967 0.092220367278838 0 0.0922965830690754 0.0791675440794241 0 0.108895006554702 0.132188041887892 0.344935046031449 0.179046498046984 0 0.0779532620095231 0 0 0 0 0.0779532620095231 -9999
0.144672940434562 0.144672940434562 0.144672940434562 0.144672940434562 0.144672940434562 0.144672940434562 0.144672940434562 0.144672940434562 0.144672940434562 0.144672940434562 0.144672940434562 0.144672940434562 0.144672940434562 0.144672940434562 0.144672940434562 0.144672940434562 0.144672940434562 0.144672940434562 0.144672940434562 0.144672940434562 0.144672940434562 0.144672940434562 0.144672940434562 0.144672940434562 0.144672940434562 0.144672940434562 0.144672940434562 0.144672940434562 0.144672940434562 0.144672940434562 0.144672940434562 0.144672940434562 0.999375 0.613846153846154 0 0 0 0.12671789505312 0.198627167299422 0.194902907912558 0.107897638090712 0 0 0 0 0.28919254751842 0.150989718993741 0 0 0 0 0 0 0 0.299796669917465 0.0678881306840082 0 0 0 0 0 0.0922926770152646 0 0 0 0 0 0.0779532620095231 0.650866836522172 0.544025897911989 0 0.0779532620095231 0 0 0 0.013531054670154 -9999 -9999
0.144672940434562 0.144672940434562 0.144672940434562 0.144672940434562 0.144672940434562 0.144672940434562 0.144672940434562 0.144672940434562 0.144672940434562 0.144672940434562 0 0.144672940434562 0.144672940434562 0.144672940434562 0.144672940434562 0.144672940434562 0.144672940434562 0.144672940434562 0.144672940434562 0.144672940434562 0.144672940434562 0.144672940434562 0.144672940434562 0.144672940434562 0.144672940434562 0.144672940434562 0.144672940434562 0.144672940434562 0.144672940434562 0.144672940434562 0.144672940434562 1 1 0.982 0.996666666666667 0 0 0.106953090084304 0.87486238687791 0.865683404146649 0.127103305903958 0 0 0 0.176636302348415 0.515404341979432 0.572312170968433 0 0 0 0 0 0 0 0.423661077217796 0 0 0 0 0.0922842532926033 0 0 0 0 0 0.0790004014396877 0.079187203308219 0 0.806909445705102 0.147649224495405 0 0 0 0 0 0 0.0730802032844831 -9999
0.144672940434562 0.144672940434562 0.144672940434562 0.144672940434562 0.144672940434562 0 0 0.144672940434562 0.144672940434562 0.144672940434562 0 0 0.144672940434562 0.144672940434562 0.144672940434562 0.144672940434562 0.144672940434562 0.144672940434562 0.144672940434562 0.144672940434562 0.144672940434562 0.144672940434562 0.144672940434562 0.144672940434562 0.144672940434562 0.144672940434562 0.144672940434562 0.144672940434562 0.144672940434562 0.144672940434562 0.144672940434562 0.144672940434562 0.773 0.768125 0.953333333333333 0 0 0.372 0.948113678575909 0.58793641520629 0.144714079032436 0 0.243758709767711 0.417430209670419 0.583316951528831 0.318053141814957 0.346811234875847 0 0 0 0.416666532328914 0.613189328833549 0 0 0.440812720788355 0.332295452130509 0.035620450334138 0.39304579069328 0 0.0922927964830457 0 0 0.148986714207335 0.241746128126164 0.45501036843222 0.104907441967592 0.370704141520391 0.392893929436891 0.257010426454805 0.278530438239298 0.335712183838095 0.425481375853409 0.0166484486772343 0 0 0 -9999 0.0629614059066316
0.144672940434562 0.144672940434562 0.144672940434562 0 0.144672940434562 0 0 0.144672940434562 0 0 0.144672940434562 0.144672940434562 0.144672940434562 0.144672940434562 0.144672940434562 0.144672940434562 0.144672940434562 0.144672940434562 0.144672940434562 0.144672940434562 0.144672940434562 0.144672940434562 0.144672940434562 0.144672940434562 0.144672940434562 0.144672940434562 0.144672940434562 0.144672940434562 0.144672940434562 0.144672940434562 0.144672940434562 0.144672940434562 0.964 0.999 0.999333333333333 0.239759515604503 0.239759515604503 1 0.993135836497111 0.110348426277457 0 0 0 0 0.273448810734949 0.235668606835175 0.237184205657545 0 0 0 0 0 0 0 0.410529769969792 0.24838317217678 0 0 0 0 0 0 0 0 0 0 0 0 0 0 0 0.0779532620095231 0 0 0 0 -9999 -9999
0.144672940434562 0.144672940434562 0.144672940434562 0 0 0 0.144672940434562 0.144672940434562 0 0 0.144672940434562 0 0 0.144672940434562 0.144672940434562 0.144672940434562 0.144672940434562 0.144672940434562 0.144672940434562 0.144672940434562 0 0 0.144672940434562 0.144672940434562 0.144672940434562 0.144672940434562 0.144672940434562 0.144672940434562 0.144672940434562 0.144672940434562 0.144672940434562 0.144672940434562 1 0.97625 0.91125 1 0.239759515604503 1 1 0.127243367574048 0.992083534639767 0.997279838577384 0 0 0.509956230074226 0.212213458694323 0.180395539310519 0 0 0 0 0 0 0 0.298680764542578 0.118435980974797 0 0 0 0.0923045237467627 0 0 0 0 0 0 0 0.0791856677169411 0.0775510066514127 0 0 0 0 0 0 0 0 0.0150015481142365
0.144672940434562 0.144672940434562 0.144672940434562 0.144672940434562 0 0 0.144672940434562 0.144672940434562 0.144672940434562 0.144672940434562 0.144672940434562 0 0 0.144672940434562 0 0 0.144672940434562 0 0 0.144672940434562 0 0 0.144672940434562 0.144672940434562 0 0.144672940434562 0.144672940434562 0.144672940434562 0.144672940434562 0.144672940434562 0.144672940434562 0.144672940434562 0.144672940434562 1 0.99375 0.89375 0.1025 0 1 0.976666666666667 0.626572229178401 0 0.127076616186407 0.127178194816174 0.585634151413951 0.287255537011522 0.0790157254366546 0 0 0 0 0 0 0 0.23416078713599 0.211061735537253 0 0 0 0 0 0 0 0 0 0 0 0 0 0.0791804844287765 0 0 0 0 0 0 0 0.0529669376765303
