NCOLS 78 
NROWS 66 
XLLCORNER -87.5 
YLLCORNER 25 
CELLSIZE 0.0833333333333333 
NODATA_value -9999 
-9999.000000000000000 -9999 -9999 -9999 0.00832982418988687 0.00819738476384962 -9999 -9999 -9999 -9999 -9999 0.00703621048907125 0.00642072286040213 0.00770514150249621 0.00755416206133507 0.00832982418988687 -9999 -9999 -9999 -9999 -9999 -9999 -9999 -9999 -9999 -9999 -9999 -9999 -9999 -9999 -9999 -9999 -9999 -9999 -9999 -9999 -9999 -9999 -9999 -9999 -9999 -9999 -9999 -9999 -9999 -9999 -9999 -9999 -9999 -9999 -9999 -9999 -9999 -9999 -9999 -9999 -9999 -9999 -9999 -9999 -9999 -9999 -9999 -9999 -9999 -9999 -9999 -9999 -9999 -9999 -9999 -9999 0.093110542685569 0.093110542685569 0.093110542685569 0.093110542685569 0.093110542685569 0.093110542685569
-9999 -9999 -9999 0.00710160042670586 0.00642072286040213 0.00647463918155199 0.0065016914750511 5.07614617452705e-05 2.36492652939874e-05 8.43504690287328e-05 5.80706189799892e-06 4.57544258910203e-05 0.000163548212744134 0.000361096356371057 0.000297369136502019 -9999 -9999 -9999 -9999 -9999 -9999 -9999 -9999 -9999 -9999 -9999 -9999 -9999 -9999 -9999 -9999 -9999 -9999 -9999 -9999 -9999 -9999 -9999 -9999 -9999 -9999 -9999 -9999 -9999 -9999 -9999 -9999 -9999 -9999 -9999 -9999 -9999 -9999 -9999 -9999 -9999 -9999 -9999 -9999 -9999 -9999 -9999 -9999 -9999 -9999 -9999 -9999 -9999 -9999 -9999 -9999 -9999 -9999 0.093110542685569 0.093110542685569 0.093110542685569 0.093110542685569 0.093110542685569
0.00664196167802771 0.000120569163031034 0.00135949132754153 1.3995658393373e-05 0.000573369609584556 0.000104019691883087 0.00335141678052358 0.000134190080794631 3.92641990934918e-06 0.000233026899751611 0.00281691869681382 0.00053461837639105 0.00710363911082974 0.0112050314351657 0.0844870479685251 0.0221792579494181 0.0112815400270581 -9999 -9999 -9999 -9999 -9999 -9999 -9999 -9999 -9999 -9999 -9999 -9999 -9999 -9999 -9999 -9999 -9999 -9999 -9999 -9999 -9999 -9999 -9999 -9999 -9999 -9999 -9999 -9999 -9999 -9999 -9999 -9999 -9999 -9999 -9999 -9999 -9999 -9999 -9999 -9999 -9999 -9999 -9999 -9999 -9999 -9999 -9999 -9999 -9999 -9999 -9999 -9999 -9999 -9999 -9999 -9999 0.093110542685569 0.093110542685569 0.093110542685569 0.093110542685569 0.093110542685569
6.22066872909279e-05 0.000136900395139981 9.28879001365512e-05 2.61021457213474e-06 0.000783793185885998 0.000284276034732502 0.00124577679340019 0.0331815796701386 0.00216638334282872 4.6564885674735e-05 9.12920764629109e-05 0.000940204160054602 0.00122188182200765 0.00202431666015858 0.0180408566408613 0.017981596515137 0.0195821282820954 0.0240333415949321 0.0712776399812841 0.0636973810685556 0.00687954391273523 0.00583660799085304 -9999 -9999 -9999 -9999 -9999 -9999 -9999 -9999 -9999 -9999 -9999 -9999 -9999 -9999 -9999 -9999 -9999 -9999 -9999 -9999 -9999 -9999 -9999 -9999 -9999 -9999 -9999 -9999 -9999 -9999 -9999 -9999 -9999 -9999 -9999 -9999 -9999 -9999 -9999 -9999 -9999 -9999 -9999 -9999 -9999 -9999 -9999 -9999 -9999 -9999 -9999 0.093110542685569 0.093110542685569 0.093110542685569 0.093110542685569 0.093110542685569
4.17663570077961e-06 7.34312673671899e-06 0.000292539197492674 1.34105089297214e-06 0.000175551392761249 0.000548595989657398 0.00609512242139014 0.00130139166938337 1.78418611054608e-05 0.00374107871952701 4.71001820550251e-05 0.000275318690336313 0.000392007377832803 0.00861205105356236 0.0233167632616994 0.0481660636364124 0.0314144639979834 0.0542440915807544 0.0598660131225151 0.0345349189831148 0.000434664941593868 1.22203187500288e-05 0.00564415386608807 0.00631553995494666 -9999 -9999 -9999 -9999 -9999 -9999 -9999 -9999 -9999 -9999 -9999 -9999 -9999 -9999 -9999 -9999 -9999 0.0766957629957397 -9999 -9999 -9999 -9999 -9999 -9999 -9999 -9999 -9999 -9999 -9999 -9999 -9999 -9999 -9999 -9999 -9999 -9999 -9999 -9999 -9999 -9999 -9999 -9999 -9999 -9999 -9999 -9999 -9999 -9999 -9999 -9999 0.093110542685569 0.093110542685569 0.093110542685569 0.093110542685569
1.8611143264977e-05 0.000106214327706763 2.13771289196372e-05 9.56275672521281e-05 2.43693881536602e-05 4.0638885815231e-06 0.00448403219050705 1.72542124884076e-05 6.07317999238951e-06 0.0336011024063367 4.51602828616869e-06 0.000537181118936415 3.29447300633168e-06 0.00598320186089283 0.00144986397705304 0.00482449890074782 0.0413927083479341 0.0267364955388815 0.0187993575922057 0.0141137030344429 0.000808610449873625 4.08995486840367e-06 0.00132980332614191 0.00623865944932627 -9999 -9999 -9999 -9999 -9999 -9999 -9999 -9999 -9999 -9999 -9999 -9999 -9999 -9999 0.0632182418441484 0.0607569612508437 0.0528588486534141 0.051265779024203 0.0545541036985289 0.0789624431931919 -9999 -9999 -9999 -9999 -9999 -9999 -9999 -9999 -9999 -9999 -9999 -9999 -9999 -9999 -9999 -9999 -9999 -9999 -9999 -9999 -9999 -9999 -9999 -9999 -9999 -9999 -9999 -9999 -9999 -9999 0.093110542685569 0.093110542685569 0.093110542685569 0.093110542685569
0.0109543295610821 0.00125928163423415 0.000155786352653419 2.92928270459137e-06 5.41478401958074e-06 0.00033738822535329 4.08739127554221e-05 3.90462369836976e-05 4.51699881761257e-05 2.60712025487379e-05 1.25169367029936e-05 0.00299960868761926 0.0317934425511957 0.0111672825756528 0.00960191853716684 0.0141687871389689 0.00704644942417958 0.0164899432414222 0.00750272492521913 0.00147194210747638 8.76696290913435e-05 5.94636763014358e-05 1.70401690318942e-05 3.24713636254979e-05 -9999 -9999 -9999 -9999 -9999 -9999 -9999 -9999 -9999 -9999 -9999 -9999 -9999 -9999 0.0835452126867391 0.0810120137479812 0.0810120137479812 0.0522687008169246 0.0491121681183692 0.0491121681183692 0.0592165117042107 -9999 -9999 -9999 -9999 -9999 -9999 -9999 -9999 -9999 -9999 -9999 -9999 -9999 -9999 -9999 -9999 -9999 -9999 -9999 -9999 -9999 -9999 -9999 -9999 -9999 -9999 -9999 -9999 -9999 0.093110542685569 0.093110542685569 0.093110542685569 0.093110542685569
0.00123806422883975 0.000150578930534326 0.00662296668414141 0.00520193912359656 1.6255905678973e-05 0.0119991436716543 0.0119991436716543 4.08356588225137e-05 0.0119991436716543 2.86593611166803e-05 4.94158792413916e-05 0.000100002028342593 4.35760771162392e-06 5.43062237712253e-06 6.95016133631404e-05 8.28614605036196e-05 5.0935684998888e-05 0.0176439611462283 0.00908744803681721 0.00204998641245741 0.000178637461942019 4.99833148248049e-06 2.28404891033944e-05 0.000239131645756306 1.62723450804855e-05 0.00798477616401149 -9999 -9999 -9999 -9999 -9999 -9999 -9999 -9999 -9999 -9999 0.0711560855568265 0.0926457481326167 0.0854548539382788 0.0673126172711337 0.0776527216669306 0.069565342273161 0.0643056316409296 0.0581139157090497 0.0491121681183692 0.0491121681183692 -9999 -9999 -9999 -9999 -9999 -9999 -9999 -9999 -9999 -9999 -9999 -9999 -9999 -9999 -9999 -9999 -9999 -9999 -9999 -9999 -9999 -9999 -9999 -9999 -9999 -9999 -9999 -9999 0.093110542685569 0.093110542685569 0.093110542685569 0.093110542685569
0.00449079432592002 4.01801856672259e-05 0.0119945283235809 0.000521277301389966 0.0119991436716543 0.0119991436716543 0.0119991436716543 5.89037091796919e-06 0.0119991436716543 0.000279023013665131 6.25565484899124e-05 3.30056551208616e-05 1.2931738303635e-05 0.000245426928280649 1.75689732847327e-05 0.000554319668375152 0.00200038689945602 0.000726117652631729 0.00627038485278865 0.00160777790539291 0.000155728414067623 6.59066422884696e-06 5.40599812252878e-06 3.75124019189739e-05 1.9826687151074e-05 0.00737324159533521 -9999 -9999 -9999 -9999 -9999 -9999 0.0820804641306831 0.0789624431931919 0.0789624431931919 0.0285493397797037 0.0504473382057482 0.093110542685569 0.0312495018706216 0.130680405020421 0.280125408463994 0.120974012079183 0.0155595591123669 0.0419223835600736 0.0645292165634407 0.0668321615119322 0.0500318424608631 -9999 -9999 -9999 -9999 -9999 -9999 -9999 -9999 -9999 -9999 -9999 -9999 -9999 -9999 -9999 -9999 -9999 -9999 -9999 -9999 -9999 -9999 -9999 -9999 -9999 -9999 -9999 -9999 0.093110542685569 0.093110542685569 0.093110542685569
0.0159047674595916 0.159823057263811 0.0320890420383001 6.56619898167691e-05 0.0119991436716543 0.0119991436716543 0.0119991436716543 0.0119991436716543 0.0119991436716543 4.75456725003259e-05 0.0119991436716543 0.0119991436716543 7.11153810463098e-05 9.45833415217077e-05 2.68270079090388e-05 0.00541289965304294 0.00901478553456919 0.00303609593044068 1.48650713234185e-05 0.000883554553809081 1.32528821630314e-05 3.37375123438275e-06 1.29726701015811e-05 7.08253504237729e-06 0.00367136897374807 0.00642072286040213 0.00661373205205944 -9999 -9999 -9999 0.0803171032330874 0.0846819962459158 0.0770140202265282 0.00620571730804454 0.00103019528818922 0.196795021310581 0.0145510858957723 0.153941356168512 0.0474684118775118 0.251681434141804 0.228653340472028 0.229700509151602 0.17659160037701 0.061622291702348 0.0958569534237014 0.0828063619808176 0.0597853673534883 0.0581139157090497 -9999 -9999 -9999 -9999 -9999 -9999 -9999 -9999 -9999 -9999 -9999 -9999 -9999 -9999 -9999 -9999 -9999 -9999 -9999 -9999 -9999 -9999 -9999 -9999 -9999 -9999 -9999 0.093110542685569 0.093110542685569 0.093110542685569
0.0118865919022306 0.041558928777098 0.153244467125017 0.0119991436716543 0.0119991436716543 0.0119991436716543 0.0119991436716543 0.0119991436716543 0.0119991436716543 0.0119991436716543 0.0119991436716543 0.0119991436716543 0.0119991436716543 0.0119991436716543 0.000121192991432327 0.0401990800128224 0.0205756082523096 0.0134875753049552 2.53321863697362e-05 1.08765648103185e-05 1.27400060109946e-05 0.000214098541303873 2.17286931009343e-05 1.69131124960646e-05 2.85593577537084e-05 0.00846745098320163 0.00846745098320163 0.00846745098320163 0.00828547213074275 0.00723487218854519 0.0792998314436758 0.000944950665208291 0.0379555583559446 0.0827193971575633 0.0435034460151896 0.0733604482521953 0.0675821337905411 0.0613744707373696 0.0746240602211046 0.0608688601583826 0.224222893533064 0.167838550806999 0.164513430335267 0.315523403707177 0.221562821182929 0.0938340504600663 0.0899749563607432 0.0904132754473202 0.0611537786997588 -9999 -9999 -9999 -9999 -9999 -9999 -9999 -9999 -9999 -9999 -9999 -9999 -9999 -9999 -9999 -9999 -9999 -9999 -9999 -9999 -9999 -9999 -9999 -9999 -9999 -9999 -9999 0.093110542685569 0.093110542685569
0.00256538702677046 9.79652914039909e-05 0.0119991436716543 0 0 0 0 0.0119991436716543 0.0119991436716543 0.0119991436716543 0.0119991436716543 0.0119991436716543 0.0119991436716543 4.07228323212495e-05 0.0119991436716543 4.0724795018268e-05 3.7199152398055e-05 0.000625076394757149 0.00446265212968072 7.54987960210921e-05 3.4385877425454e-06 1.0150276890023e-05 3.37093699911002e-05 2.30644219679021e-05 0.00846745098320163 0.00846745098320163 0.00368500129239572 0.00846745098320163 0.00148577579367573 0.00846745098320163 0.00102214909614602 9.69434647897632e-05 0.0642486136872163 0.00346161011498636 0.00245449265822621 0.0069397846144446 0.0821919897874587 0.0466231886949164 0.0838144890922139 0.130547682580949 0.0767406824843463 0.217923678405744 0.0395458677327985 0.158608499392674 0.0441573303810162 0.109242685507798 0.0212480304183052 0.093110542685569 0.0556912406837327 -9999 -9999 -9999 -9999 -9999 -9999 -9999 -9999 -9999 -9999 -9999 -9999 -9999 -9999 -9999 -9999 -9999 -9999 -9999 -9999 -9999 -9999 -9999 -9999 -9999 -9999 -9999 0.093110542685569 0.093110542685569
0 0 0 0 0 0 0 0 0 0 0 0.0119991436716543 0.0119991436716543 0.0119991436716543 0.0119991436716543 0.000311993497529835 0.00345553813187432 2.66753516038389e-05 2.03273565582413e-05 0.019458840073901 2.62268351060282e-05 0.000198233707461471 0.000198233701366733 0.00846745098320163 0.000881267822324233 0.00651018696621138 1.38210668626781e-05 0.00741962521157739 0.000118377641236347 0.00846745098320163 0.000201051757616309 0.0105543422831301 0.00367630459462456 0.00620655286966155 0.0100939205693229 0.00323867882135189 0.119920702124426 0.0605108016198269 0.0124111252118734 0.00478770134701884 0.0240163383977432 0.0109531781609745 0.0698903876314946 0.0545615343995038 0.2067666029534 0.106332871507779 0.135121843592062 0.093110542685569 0.0751540027100382 0.0567030199047997 0.0766957629957397 -9999 -9999 -9999 -9999 -9999 -9999 -9999 -9999 -9999 -9999 -9999 -9999 -9999 -9999 -9999 -9999 -9999 -9999 -9999 -9999 -9999 -9999 -9999 -9999 -9999 0.093110542685569 0.093110542685569
0 0 0 0 0 0 0 0 0 0 0 0 0.0119991436716543 0.0119991436716543 0.0119991436716543 3.37414096630798e-05 2.23465448098482e-05 0.00145687654216811 0.014710939833396 0.00577677531817536 0.0511031113836664 6.03544187580329e-05 0.000958911039473991 8.00258509618367e-06 1.44649404051629e-05 1.16890054848007e-05 2.42713937025468e-05 0.00858033324234249 3.73594497446858e-05 1.81538111273984e-05 0.000246385050039256 2.07753270539715e-05 1.98273081172499e-05 0.00133194138234023 0.00816309935540495 0.0111102554578025 0.0269786992182044 0.0702076458209979 0.00848787143718345 0.000694480585574306 0.0116480743324019 0.0112974476018454 0.271427816661914 0.0980522227081928 0.0790159057360648 0.307744472625466 0.12446810288464 0.405353792907907 0.0813671833780672 0.0820804641306831 0.0917380392533323 0.0862419486737801 -9999 -9999 -9999 -9999 -9999 -9999 -9999 -9999 -9999 -9999 -9999 -9999 -9999 -9999 -9999 -9999 -9999 -9999 -9999 -9999 -9999 -9999 -9999 -9999 -9999 0.093110542685569
0 0 0 0 0 0 0 0 0 0 0 0 0 0.0119991436716543 0.0119991436716543 0.0119991436716543 0.0119991436716543 5.31253665233296e-06 0.000443021707418007 0.00400481739141346 0.00838495919753263 0.0949956225668531 0.0610093317942647 0.00345314142498185 0.00986624290895874 1.51778792508081e-05 9.64180348634918e-06 0.00858033324234249 1.44538551110453e-05 7.53184349206375e-05 0.00231368612530097 0.0133468501590511 0.00609471237984106 0.000939772074813681 0.0298724414698028 0.00416946863401112 0.0214720674535117 0.0381047216647427 0.000990520989580641 0.00380792784471847 0.00661854499354659 0.042475393806406 0.0372827642033685 0.0675817074720483 0.397543062584401 0.109298844041978 0.0471667890207157 0.261564015518212 0.0171714303520741 0.0663585158212593 0.0882783638206717 0.0828063619808176 -9999 -9999 -9999 -9999 -9999 -9999 -9999 -9999 -9999 -9999 -9999 -9999 -9999 -9999 -9999 -9999 -9999 -9999 0.093110542685569 0.093110542685569 -9999 -9999 -9999 -9999 -9999 0.093110542685569
0 0 0 0 0 0 0 0 0 0 0 0 0 0 0.0119991436716543 0.0119991436716543 0.0119991436716543 0.0119991436716543 4.26184788692663e-05 0.000311262603492921 0.00014114358300932 0.0192240257978902 2.66908362370986e-05 0.00694438728534391 0.00013439880259538 7.31796019595902e-06 5.64294976560662e-06 4.73471790460482e-06 2.88321668494428e-05 3.62765286780263e-05 0.00306062275657683 3.50263345643857e-05 0.00252775453163393 0.0299490155168265 0.0196476131899315 0.0207566434205009 0.00944937907485536 0.000991691628796252 0.000144158703644911 0.0537240249378096 0.0667285878125565 0.00102175254979068 0.0316702782729248 0.0107373202892452 0.0442531779440804 0.038424961819132 0.0538440003552204 0.093110542685569 0.093110542685569 0.093110542685569 0.0908479445902586 0.093110542685569 0.0779731370352027 -9999 -9999 -9999 -9999 -9999 -9999 -9999 -9999 -9999 -9999 -9999 -9999 -9999 -9999 -9999 -9999 -9999 -9999 0.093110542685569 -9999 -9999 -9999 -9999 -9999 -9999
0 0 0 0 0 0 0 0 0 0 0 0 0 0 0 0.0119991436716543 0.0119991436716543 0.0119991436716543 0.0119991436716543 0.000193521104955625 0.0269307202633907 1.32973082164422e-05 0.000217314984442938 1.66684926975518e-05 3.35828313279692e-05 9.78303494973581e-06 5.26433260321539e-06 0.00181834678034892 5.01737659135357e-06 0.000214494327617311 0.00140371191631892 0.000806292434506901 0.0108104048873388 0.00343836070875827 0.00748806346229019 0.00677605079244662 0.0156189838998758 0.00116601317599387 0.000636031263606687 0.0110028774867878 0.00778942488065172 0.0179810320976447 0.000114288046369292 0.0188425878290987 0.00633454393023497 0.00669051581207641 0.00162800418886054 0.118220777814619 0.0510564949224174 0.107681796794013 0.093110542685569 0.093110542685569 0.078302106482682 0.0632182418441484 0.0645292165634407 0.0514052368998128 -9999 -9999 -9999 -9999 -9999 -9999 -9999 -9999 -9999 -9999 -9999 -9999 -9999 -9999 -9999 -9999 0.093110542685569 -9999 -9999 -9999 -9999 -9999
0 0 0 0 0 0 0 0 0 0 0 0 0 0 0 0 0.0119991436716543 0.0119991436716543 0.0119991436716543 0.0119991436716543 0.0119991436716543 0.0119991436716543 0.0119991436716543 0.0009582563237283 8.91503116283626e-06 8.65962323371659e-06 1.51382558254871e-05 6.73811913220508e-06 2.87849119146039e-05 2.62936107825339e-05 0.00259830648330299 4.13497658757454e-05 0.00293290685424219 0.0259777256650964 0.029790560343515 0.0337309435362556 0.0324219867050333 0.00343885502324328 0.000322655058418675 0.0193269701304246 0.00936691224463321 0.000720347555931696 0.00387032525230424 0.00416845542384517 0.0204916764698891 0.0377992322884603 0.0659055346333421 0.0295590048048301 0.00544783711476827 0.0327604829112233 0.0116658864018481 0.093110542685569 0.0926457481326167 0.0786279145635388 0.0690523111294867 0.0498973297808756 0.0493711286520792 -9999 -9999 -9999 -9999 -9999 -9999 -9999 -9999 -9999 -9999 -9999 -9999 -9999 -9999 -9999 -9999 -9999 -9999 -9999 -9999 -9999
0 0 0 0 0 0 0 0 0 0 0 0 0 0 0 0 0.0119991436716543 0.0119991436716543 0.0119991436716543 0.0119991436716543 0.0119991436716543 0.0119991436716543 0.0119991436716543 4.04966050020689e-05 0.00109309440505324 4.7207440164248e-05 0.0257570023332488 0.0476700648670049 0.00617102833027117 3.54856172160466e-05 0.00223670621252855 8.23902202684444e-05 0.00155482246752263 0.0190709610144114 0.00872782477881546 0.0348491988279766 0.0341170992408846 0.0210656939132365 0.0106554708714023 0.00257135491905344 0.000695309923073745 0.000968192209487573 0.00149341686240922 0.00185930159553376 0.0125490779062563 0.00159441842555927 0.00241551470934681 0.0252263366953368 0.118917963229594 0.110447195340731 0.0396966361291447 0.093110542685569 0.093110542685569 0.093110542685569 0.0878604523947893 0.0584768582888539 0.0534624766205989 -9999 -9999 -9999 -9999 -9999 -9999 -9999 -9999 -9999 -9999 -9999 -9999 -9999 -9999 -9999 -9999 -9999 -9999 -9999 -9999 -9999
0 0 0 0 0 0 0 0 0 0 0 0 0 0 0 0 0.0119991436716543 0.0119991436716543 0.0119991436716543 0.0119991436716543 0.0119991436716543 0.0119991436716543 0.0119991436716543 0.0119991436716543 1.23879089429203e-05 1.74103169241727e-05 0.0293412456433499 0.0333462687848389 0.0313817452491913 2.01427524565061e-05 0.0607544230004246 0.00367635011725534 0.00310074882186137 0.0227964757622847 0.0017489294261963 0.00183845023659294 0.020061541816887 0.00160461084793599 0.00224030673283908 0.0229428912994645 0.000103660931992017 0.013756327119174 0.0243657300008201 0.014404107590913 0.00125173939012621 0.082653793607282 0.186463706739501 0.0255661806763639 0.093110542685569 0.000511314336304448 0.00436760933606912 0.0157235249162795 0.093110542685569 0.0895485813830112 0.0514052368998128 0.0491121681183692 0.0491121681183692 0.0495028154931004 -9999 -9999 -9999 -9999 -9999 -9999 -9999 -9999 -9999 -9999 -9999 -9999 -9999 -9999 -9999 -9999 -9999 -9999 -9999 -9999
0 0 0 0 0 0 0 0 0 0 0 0 0 0 0 0 0 0.0119991436716543 0.0119991436716543 0.0119991436716543 0.0119991436716543 0.0119991436716543 0.0119991436716543 9.37056214739188e-05 0.000139923923891724 2.39312999738145e-05 0.00071427951718647 1.49711528155089e-05 0.00636397739275704 0.00923179766822078 7.30563900902959e-05 0.0208942126351055 0.0140878873665832 0.011350472249191 0.00290132572863955 0.00190390752056012 0.00166931753629629 0.000126724450019383 0.000363556877685527 9.95823892045588e-05 0.0247997135762531 0.224382022044004 0.00323121386173443 0.00306735976216423 0.00428739858761457 0.0520558775059596 0.117341572467319 0.000809596524928554 0.0237761209410258 0.136664702990676 0.0174849784038219 0.093110542685569 0.0719038401554495 0.0878604523947893 0.0491121681183692 0.0491121681183692 0.0491121681183692 0.0492424739258997 -9999 -9999 -9999 -9999 -9999 -9999 -9999 -9999 -9999 -9999 -9999 -9999 -9999 -9999 -9999 -9999 -9999 -9999 -9999 0.093110542685569
0 0 0 0 0 0 0 0 0 0 0 0 0 0 0 0 0 0 0.0119991436716543 0.0119991436716543 0.0119991436716543 0.0119991436716543 0.0119991436716543 7.04433313964207e-05 5.64470642866314e-05 7.04384307102589e-05 0.0119991436716543 3.26754880225585e-05 2.47750427434142e-05 0.00126693500390247 0.000604014428981551 0.00142205709434485 0.000982403047323465 0.00384289546193528 0.000654051182407519 0.212408663447119 0.0399705429372609 0.00528650157515674 0.000110034801792686 0.00979535266041677 0.0416198517832647 0.0274824200801951 0.00741734697201237 0.0620761796001997 0.0241776929061862 0.100639670862495 0.0403908849683837 0.0335766093204499 0.0186231354556339 0.0122953049786386 0.0394094756054031 0.093110542685569 0.182834598478819 0.0878604523947893 0.0491121681183692 0.0491121681183692 0.0491121681183692 0.0491121681183692 -9999 -9999 -9999 -9999 -9999 -9999 -9999 -9999 -9999 -9999 -9999 -9999 -9999 -9999 -9999 -9999 -9999 -9999 -9999 -9999
0 0 0 0 0 0 0 0 0 0 0 0 0 0 0 0 0 0 0.0119991436716543 0.0119991436716543 0.0119991436716543 0.0119991436716543 0.0119991436716543 0.0119991436716543 0.0119991436716543 0.0119991436716543 0.0119991436716543 0.0119991436716543 3.06913189850455e-05 8.77080750409778e-06 0.000269294599030076 3.20521902822784e-05 0.0241776929061862 0.0021734105767178 6.90595117038404e-05 4.43410482831821e-05 0.0213926390079287 0.0571246481482112 9.23898979153536e-05 0.0230707613212016 0.001515077399999 0.00483324573891192 0.00179592438578922 0.00227520554433545 0.00422936284826103 0.0102528736879912 0.000385538262014091 0.0221009625735437 0.00232997978737668 0.093110542685569 0.0446222807952626 0.110803138767697 0.0869593716532405 0.0878604523947893 0.0491121681183692 0.0491121681183692 0.0491121681183692 0.0491121681183692 -9999 -9999 -9999 -9999 -9999 -9999 -9999 -9999 -9999 -9999 -9999 -9999 -9999 -9999 -9999 -9999 -9999 -9999 -9999 -9999
0 0 0 0 0 0 0 0 0 0 0 0 0 0 0 0 0 0 0 0.0119991436716543 0.0119991436716543 0.0119991436716543 0.0119991436716543 0.0119991436716543 0.0119991436716543 0.0119991436716543 0.0119991436716543 0.0119991436716543 9.34893349618053e-05 4.24848465898422e-05 5.20550421118559e-05 0.0241776929061862 0.0241776929061862 0.0244230330983652 6.39269761631742e-05 0.00244031224082577 0.0108106243220315 0.00602231862362096 0.0170474498395907 0.0628878756748234 0.00311988764555988 0.00157633502175495 0.000467421154079718 0.00108923066294535 0.129679939158488 0.000340689889934123 0.000197614536350592 0.000455698874040417 0.0497724978168839 0.186052872300047 0.093110542685569 0.0219859883532699 0.179779515435463 0.0882783638206717 0.0491121681183692 0.0491121681183692 0.0491121681183692 0.0491121681183692 -9999 -9999 -9999 -9999 -9999 -9999 -9999 -9999 -9999 -9999 -9999 -9999 -9999 -9999 -9999 -9999 -9999 -9999 -9999 -9999
0 0 0 0 0 0 0 0 0 0 0 0 0 0 0 0 0 0 0 0 0 0.0119991436716543 0.0119991436716543 0.0119991436716543 0.0119991436716543 0.0119991436716543 0.0119991436716543 0.0119991436716543 1.80854951591783e-05 2.42030969706146e-05 0.000147868641770012 0.0239063125255271 0.00324966864349872 0.015472906075432 0.0211264594442178 0.00161055749407977 0.0010857634679601 0.00323349502846045 3.9528549277204e-05 0.0609240027672449 0.013595812356147 0.0054800074981048 8.20551485269631e-05 0.00201746032328868 0.00029915656979219 0.0341921584191879 0.0221150964961362 0.0500899803183384 0.0123446922280571 0.00185247132373704 0.093110542685569 0.183873260731578 0.093110542685569 0.093110542685569 0.0491121681183692 0.0491121681183692 0.0491121681183692 0.0493711286520792 -9999 -9999 -9999 -9999 -9999 -9999 -9999 -9999 -9999 -9999 -9999 -9999 -9999 -9999 -9999 -9999 -9999 -9999 -9999 -9999
0 0 0 0 0 0 0 0 0 0 0 0 0 0 0 0 0 0 0 0 0 0 0.0119991436716543 0.0119991436716543 0.0119991436716543 0.0119991436716543 0.0119991436716543 0.0119991436716543 0.000207925574268282 0.00174159605184334 0.000203680768042889 0.000130280436574964 2.88050756031757e-05 0.000268843689569939 0.015472906075432 0.00447254180844869 0.00160979259279097 0.049221054116549 0.000423793839450311 0.306896734645782 0.0156171241186516 0.00333133456800719 0.00125979076794704 0.00546136577034259 0.000637291070651455 0.0112319564198348 0.0013996109877662 0.0202675885240928 0.0455967660302788 0.1021034021959 0.0658678257973315 0.176253811610748 0.16897536036096 0.093110542685569 0.0495028154931004 0.0491121681183692 0.0491121681183692 -9999 -9999 -9999 -9999 -9999 -9999 -9999 -9999 -9999 -9999 -9999 -9999 -9999 -9999 -9999 -9999 -9999 -9999 -9999 -9999 -9999
0 0 0 0 0 0 0 0 0 0 0 0 0 0 0 0 0 0 0 0 0 0 0 0 0.0119991436716543 0.0119991436716543 0.0119991436716543 0.0119991436716543 0.0119991436716543 3.84346322673611e-05 6.41075973745826e-05 3.64230701480254e-05 0.0245674076158964 0.0285818572528917 0.015472906075432 0.000215612848907614 0.00190756394237744 5.80897467163281e-05 0.0045369183282929 0.0241776929061862 0.144534053701229 0.0441898436152948 8.19231260374855e-05 0.000560974072521744 4.30866475044066e-05 0.000190034853601031 0.037028862604021 0.110630531915804 0.0351866556291724 0.0059574776804767 0.0591763662646269 0.000285817668145633 0.093110542685569 0.19753237491182 0.0728161792884766 0.0516915850106615 0.0491121681183692 -9999 -9999 -9999 -9999 -9999 -9999 -9999 -9999 -9999 -9999 -9999 -9999 -9999 -9999 -9999 -9999 -9999 -9999 -9999 -9999 -9999
0 0 0 0 0 0 0 0 0 0 0 0 0 0 0 0 0 0 0 0 0 0 0 0 0 0.0119991436716543 0.0119991436716543 0.0119991436716543 0.0119991436716543 0.0119991436716543 0.015472906075432 0.015472906075432 5.18952687518042e-05 0.00190762010802168 0.00228295122411784 0.015472906075432 0.000795609673035442 0.0134780591860244 0.0157282902707243 0.284938417460908 5.21635945720499e-05 0.0356141067471893 0.0208017674077673 0.0243502250490063 0.0710483161748096 0.0400632833661769 0.00143086282928897 0.00159838907812663 0.0265400787522129 0.093110542685569 0.093110542685569 0.093110542685569 0.0168858413423385 0.069458855434352 0.093110542685569 0.0527087298646397 0.0545541036985289 -9999 -9999 -9999 -9999 -9999 -9999 -9999 -9999 -9999 -9999 -9999 -9999 -9999 -9999 -9999 -9999 -9999 -9999 -9999 -9999 -9999
0 0 0 0 0 0 0 0 0 0 0 0 0 0 0 0 0 0 0 0 0 0 0 0 0 0 0 0 0.0119991436716543 0.0119991436716543 0.015472906075432 5.1869298771283e-05 0.000236897660097093 1.91746254118532e-05 2.10149438913877e-05 0.000108477987825416 2.60023577684941e-05 0.015472906075432 0.0241776929061862 7.25919868453095e-05 2.41693787495748e-05 9.71017196384684e-05 0.152575693884474 0.0183963368267432 0.000339595625517147 0.00952707294514158 0.00492483078573919 0.000804531297779626 0.00197906376269132 0.00785955229250688 0.093110542685569 0.0206179088522645 0.0442398766062574 0.093110542685569 0.093110542685569 0.0773291756783815 -9999 -9999 -9999 -9999 -9999 -9999 -9999 -9999 -9999 -9999 -9999 -9999 -9999 -9999 -9999 -9999 -9999 -9999 -9999 -9999 -9999 -9999
0 0 0 0 0 0 0 0 0 0 0 0 0 0 0 0 0 0 0 0 0 0 0 0 0 0 0 0 0.0119991436716543 0.015472906075432 0.015472906075432 0.015472906075432 2.53829747594791e-05 0.00201153875083007 0.0066654478518324 0.015472906075432 6.04033951948295e-05 0.000355089273339584 0.00178225396609703 8.1664717308129e-05 0.000122358717147687 0.000695639750699409 5.72870871282608e-05 0.0173850581183142 0.14893869178386 0.00454377894357345 0.00561047402003316 0.00369838908970307 0.0241776929061862 0.0411056260868075 0.093110542685569 0.0785626574543365 0.0430071754377079 0.0691661770982377 0.0441721806326707 0.0921937482524765 -9999 -9999 -9999 -9999 -9999 -9999 -9999 -9999 -9999 -9999 -9999 -9999 -9999 -9999 -9999 -9999 -9999 -9999 -9999 -9999 -9999 -9999
0 0 0 0 0 0 0 0 0 0 0 0 0 0 0 0 0 0 0 0 0 0 0 0 0 0 0 0 0 0.015472906075432 0.015472906075432 0.015472906075432 5.18082077428161e-05 0.015472906075432 3.40478004290484e-05 0.000815881075104924 0.000728123426154243 0.000523507309022297 0.000587216421981129 0.0046481417924707 0.00583903709941781 6.55090673488273e-05 0.0241776929061862 0.0472777221866989 0.022993283175881 0.0294930642875937 5.11710162227666e-05 0.00160409369619455 0.00381476190534745 0.0130218520817953 0.0290574794085248 0.0277287057426628 0.117510101661277 0.165702605133104 0.205045251258963 0.0899749563607432 -9999 -9999 0.0776527216669306 0.0773291756783815 -9999 -9999 -9999 -9999 -9999 -9999 -9999 -9999 -9999 -9999 -9999 -9999 -9999 -9999 -9999 -9999 -9999 -9999
0 0 0 0 0 0 0 0 0 0 0 0 0 0 0 0 0 0 0 0 0 0 0 0 0 0 0 0 0 0 0.015472906075432 0.015472906075432 0.015472906075432 0.015472906075432 0.015472906075432 0.000169682026721228 0.00156392658123588 1.60205159825172e-05 5.17405488530573e-05 0.0644122375758654 0.0453271708748713 0.000434871369410225 0.00832234626134289 0.0164644960257261 0.0312064310653312 0.0452781906821605 0.00070320590517783 0.000212821396669281 0.000212838934976223 3.43649967633018e-05 0.000161709363198731 0.0983695583741349 0.35132309117903 0.202202382937279 0.133500535029783 0.0831774743166323 -9999 -9999 0.0688009009740429 0.0763857398390019 0.0803171032330874 -9999 -9999 -9999 -9999 -9999 -9999 -9999 -9999 -9999 -9999 -9999 -9999 -9999 -9999 -9999 -9999 -9999
0 0 0 0 0 0 0 0 0 0 0 0 0 0 0 0 0 0 0 0 0 0 0 0 0 0 0 0 0 0 0 0.015472906075432 0.015472906075432 0.015472906075432 0.015472906075432 0.00193701940786712 1.34645152869627e-05 7.92215297774532e-05 1.67711725586407e-05 0.00585695356682731 0.102668775358844 0.0241776929061862 0.00965055714294657 6.85423911531705e-05 0.0323453632536986 0.0162521105601979 0.00303531832211822 0.00776968901374619 0.00219862815485067 0.00413164251221268 0.0355324210391708 0.0723159646834887 0.190638616939582 0.145572887261945 0.0345337692072637 0.0597104933144264 0.0714250364504945 -9999 -9999 0.0854548539382788 0.0770140202265282 -9999 -9999 -9999 -9999 -9999 -9999 -9999 -9999 -9999 -9999 -9999 -9999 -9999 -9999 -9999 -9999 -9999
0 0 0 0 0 0 0 0 0 0 0 0 0 0 0 0 0 0 0 0 0 0 0 0 0 0 0 0 0 0 0 0.015472906075432 0.015472906075432 0.015472906075432 0.015472906075432 0.000516332563419992 0.000374382684275854 6.77273827930052e-05 0.00500062717572706 0.115839619700415 0.109373642945685 0.00952866569788631 0.00226493708267444 6.58620047429436e-05 0.000249645880220443 0.000483782684943231 0.00200283982312482 0.0893916902624729 0.00211239378371893 0.00529455039727738 0.000837159904762229 0.0241776929061862 0.12917619065956 0.155393746620116 0.0579754816397252 0.0426276975187133 0.0917380392533323 0.0572243986585011 0.0690523111294867 0.0751540027100382 -9999 -9999 -9999 -9999 -9999 -9999 -9999 -9999 -9999 -9999 -9999 -9999 -9999 -9999 -9999 -9999 -9999 -9999
0 0 0 0 0 0 0 0 0 0 0 0 0 0 0 0 0 0 0 0 0 0 0 0 0 0 0 0 0 0 0 0.015472906075432 0.015472906075432 0.015472906075432 0.000215462331375578 0.00117073537141229 0.00010331381657889 1.37713563287367e-05 0.00119078300000186 0.0505868974832 3.13420700370495e-05 4.89548813516064e-05 7.38178071537164e-05 0.00553191436820467 0.00206224334593261 7.54413257329093e-05 0.0101450364848434 5.90291523335391e-05 0.00412667327049415 0.000420937288464152 0.00873710820723585 0.0936095308654174 0.0552569109084639 0.0869636008817724 0.069177935803298 0.0967759559500758 0.0908479445902586 0.0643056316409296 0.0817190550199992 0.0754595676632455 -9999 -9999 -9999 -9999 -9999 -9999 -9999 -9999 -9999 -9999 -9999 -9999 -9999 -9999 -9999 -9999 -9999 -9999
0 0 0 0 0 0 0 0 0 0 0 0 0 0 0 0 0 0 0 0 0 0 0 0 0 0 0 0 0 0 0 0.015472906075432 0.015472906075432 0.015472906075432 8.89588096790847e-05 2.36080606991445e-05 5.97391072109402e-05 2.46576011240607e-05 5.5856729191195e-05 0.0130402110697816 0.00206373554746722 0.000334624086681633 9.0032035649063e-05 0.0220554142593031 0.00349761735187248 0.00627847207282629 0.0188906358023477 0.00947007950369836 0.0027735637943373 0.00255026482807531 0.00760438308824399 0.000170130987271705 0.0209577746513132 0.0925266656707749 0.0965875170431658 0.0365832615567364 0.000554290351896852 0.0717009751706324 0.058844360790951 -9999 -9999 -9999 -9999 -9999 -9999 -9999 -9999 -9999 -9999 -9999 -9999 -9999 -9999 -9999 -9999 -9999 -9999 -9999
0 0 0 0 0 0 0 0 0 0 0 0 0 0 0 0 0 0 0 0 0 0 0 0 0 0 0 0 0 0 0 0 0.015472906075432 0.015472906075432 2.04287424622807e-05 0.000637978461728759 0.000246237638099338 0.000176761371814197 1.35924853369083e-05 0.038412538481265 1.87349961153901e-05 0.0389835797022328 0.0190826911016446 0.00986228453443428 0.00255337010755931 0.000708216959936219 4.88646562754185e-05 8.12985100451574e-05 0.00575139949728566 0.0109146063377844 0.00274857989979295 0.0241776929061862 0.0696272352071655 0.0522719366358599 0.118065235328069 0.114084975819915 0.0721521971411542 0.0717009751706324 -9999 -9999 -9999 -9999 -9999 -9999 -9999 -9999 -9999 -9999 -9999 -9999 -9999 -9999 -9999 -9999 -9999 -9999 -9999 -9999
0 0 0 0 0 0 0 0 0 0 0 0 0 0 0 0 0 0 0 0 0 0 0 0 0 0 0 0 0 0 0 0 0.015472906075432 0.015472906075432 0.000111126218360054 0.0013746076948567 0.00197352372301577 0.00227664727445406 1.64539872203563e-05 0.000223385829716168 0.00570755823950706 0.00930468329804662 0.000880254488475278 0.00154545935447521 0.00509800219891651 0.00526520820787274 0.00570112006430139 0.00121176005937078 0.000604930001470492 0.000483521219339586 0.00025574993562065 3.77395587659308e-05 0.0241776929061862 0.093110542685569 0.093110542685569 0.0856927204064433 0.138117574823085 0.262481814257154 0.0690523111294867 -9999 -9999 -9999 -9999 -9999 -9999 -9999 -9999 -9999 -9999 -9999 -9999 -9999 -9999 -9999 -9999 -9999 -9999 -9999
0 0 0 0 0 0 0 0 0 0 0 0 0 0 0 0 0 0 0 0 0 0 0 0 0 0 0 0 0 0 0 0 0.015472906075432 0.015472906075432 7.32449438009949e-05 3.07582024699106e-05 0.000527271380690708 0.00353123777471556 0.000134281600280919 8.29438838834897e-05 0.00349398006786788 8.98013887284883e-05 0.0021311908798347 0.000175051734380072 4.88018407461561e-05 0.000983657541226212 0.00568844652799964 0.030120248998067 0.0164940555307066 0.0311253002700266 0.0107716040621969 0.00230077407110508 7.8665444381676e-05 0.0241776929061862 0.0172836574935129 0.093110542685569 0.00665524041693556 0.00722649922559536 0.0921937482524765 0.0719740688127549 -9999 -9999 -9999 -9999 -9999 -9999 -9999 -9999 -9999 -9999 -9999 -9999 -9999 -9999 -9999 -9999 -9999 -9999
0 0 0 0 0 0 0 0 0 0 0 0 0 0 0 0 0 0 0 0 0 0 0 0 0 0 0 0 0 0 0 0 0.015472906075432 0.015472906075432 0.015472906075432 0.015472906075432 0.000515317991236059 7.68700007956009e-05 0.015472906075432 0.000213550679439043 0.00382924803054231 0.0125232218176552 0.00150954325821045 0.00175167269086967 0.00241441390966461 0.0154848011945778 0.0228597651460867 0.0415128079215097 0.0148747336563628 0.00862938966493752 0.0331196389861003 0.00490708298756776 0.00256506279059837 0.00118323639407753 0.00297832367035513 0.028411604716846 0.0239799253621641 0.0384045726731214 0.111612005091726 0.0813671833780672 -9999 -9999 -9999 -9999 -9999 -9999 -9999 -9999 -9999 -9999 -9999 -9999 -9999 -9999 -9999 -9999 -9999 -9999
0 0 0 0 0 0 0 0 0 0 0 0 0 0 0 0 0 0 0 0 0 0 0 0 0 0 0 0 0 0 0 0 0.015472906075432 0.015472906075432 0.015472906075432 0.000623606005504759 2.63886018927737e-05 0.00116916204519956 5.14120000156038e-05 0.015472906075432 0.000616831817471953 0.000109676268968883 0.00149791841046485 0.0514015629103541 0.00379694784457502 0.0053803020424531 0.00413163353360823 0.0252948512829697 0.00652106938248683 0.00475862777912159 0.000141362506118125 0.00596271296027327 0.00800212252406389 0.00159335815862423 9.44725081638829e-05 0.00231314326658896 0.00806074193064608 0.197954653391179 0.00110214748767453 0.00207403537815807 -9999 -9999 -9999 -9999 -9999 -9999 -9999 -9999 -9999 -9999 -9999 -9999 -9999 -9999 -9999 -9999 -9999 -9999
0 0 0 0 0 0 0 0 0 0 0 0 0 0 0 0 0 0 0 0 0 0 0 0 0 0 0 0 0 0 0 0 0.015472906075432 0.015472906075432 0.015472906075432 0.015472906075432 0.000134002241418777 1.05092878708532e-05 5.13762498153884e-05 3.03880044754736e-05 6.78351840547024e-05 0.000123020768324764 0.00221432044346269 0.00799677993497373 0.00108647216517472 0.00111718941962356 0.0140893203904524 0.00388291379068828 0.0163176988836074 0.0858944551735896 0.0205904747251065 0.0241776929061862 0.0285719892796838 4.60547839282555e-05 0.000100003377779144 4.86901994218553e-05 0.00116321811426086 0.00141987444547206 0.0177716028600746 0.0172587712673489 0.0143464024762499 -9999 -9999 -9999 -9999 -9999 -9999 -9999 -9999 -9999 -9999 -9999 -9999 -9999 -9999 -9999 -9999 -9999
0 0 0 0 0 0 0 0 0 0 0 0 0 0 0 0 0 0 0 0 0 0 0 0 0 0 0 0 0 0 0 0 0.015472906075432 0.015472906075432 0.00357174493315763 0.00357174493315763 1.16988107011713e-05 0.000230364833669501 9.10790884928575e-06 1.75181254051833e-05 1.17019774223554e-05 1.16900388560453e-05 1.11664684978877e-05 0.01275254499402 0.000151207589679273 0.0438472990055333 0.00185885293771311 0.00623876291274557 0.000644994876789115 0.00537559100373176 0.0226469666813414 0.00531854389072211 0.00240589218843597 0.000616079615405388 0.00529139935152545 1.02637008365867e-05 0.000223840048412429 0.00848605806213733 0.0179562455578304 0.0129708601684797 0.00311915492111597 -9999 -9999 -9999 -9999 -9999 -9999 -9999 -9999 -9999 -9999 -9999 -9999 -9999 -9999 -9999 -9999 -9999
0 0 0 0 0 0 0 0 0 0 0 0 0 0 0 0 0 0 0 0 0 0 0 0 0 0 0 0 0 0 0 0 0.00357174493315763 0.00357174493315763 0.00357174493315763 0.00357174493315763 6.04697062303876e-05 0.000118936002261985 0.00357174493315763 1.16869750386004e-05 0.00357174493315763 1.16969206146443e-05 0.000453055050433213 9.5589223169919e-06 0.00145802195125973 0.000656510227602537 4.39697277371006e-06 0.0101177995714462 0.00301819839365809 0.00358284741394274 0.0135437992843984 0.00134612345925437 0.00657232595262076 0.00103061153444317 0.00527314700978593 0.00126794125934895 0.00624362514019548 0.00685284423530675 0.00740903660019668 0.072317536078051 0.0399862638159671 0.0142722332170727 -9999 -9999 0.0131281233696859 -9999 -9999 -9999 -9999 -9999 -9999 -9999 -9999 -9999 -9999 -9999 -9999 -9999
0 0 0 0 0 0 0 0 0 0 0 0 0 0 0 0 0 0 0 0 0 0 0 0 0 0 0 0 0 0 0 0 0.00357174493315763 0.00357174493315763 0.00357174493315763 0.00357174493315763 2.91377277044066e-06 1.26539322378669e-05 2.44313191581808e-05 1.16831732395979e-05 0.00357174493315763 1.16853416271091e-05 0.000264025409658259 0.00245033287199217 0.000747297715848327 0.00172605512261505 2.67735570882596e-06 0.000409809340478296 0.000364360863223728 0.000227562840141917 0.00923084479009624 0.00945313785416779 0.00588284768412739 0.0109472389599398 0.00647319187797231 0.0195792419653189 0.000754224450297101 0.015208742719941 5.02949105378227e-05 0.0143231908774324 0.0656778996074967 0.0224751062428714 0.0119963322605677 0.00877940784870385 0.0132530463240125 -9999 -9999 -9999 -9999 -9999 -9999 -9999 -9999 -9999 -9999 -9999 -9999 -9999
0 0 0 0 0 0 0 0 0 0 0 0 0 0 0 0 0 0 0 0 0 0 0 0 0 0 0 0 0 0 0 0 0.00357174493315763 0.00357174493315763 0.00357174493315763 0.00357174493315763 0.00357174493315763 0.00067336526843767 0.00357174493315763 0.00357174493315763 1.16733334036484e-05 1.74761975763063e-05 2.61864628482841e-06 3.56304023370159e-06 0.000942275395225082 0.00101484184098738 3.51458192911299e-06 7.6833344957105e-06 0.00468949842469498 0.00917771218328143 0.0049067945284394 0.00667962275799142 0.00901320104826749 0.00458225543915154 0.00643198279949342 0.0153275687955098 0.00624362514019548 0.0046396520305745 0.000129247532115972 0.0217918736738756 0.102144440310244 0.00262705337119128 0.0147263144366315 0.0100832668743709 0.0109573100839546 -9999 -9999 -9999 -9999 -9999 -9999 -9999 -9999 -9999 -9999 -9999 -9999 -9999
0 0 0 0 0 0 0 0 0 0 0 0 0 0 0 0 0 0 0 0 0 0 0 0 0 0 0 0 0 0 0 0 0 0.00357174493315763 0.00357174493315763 0.00357174493315763 0.00357174493315763 0.000270859804707499 9.1457700287293e-05 1.16521002683602e-05 0.00357174493315763 1.06574020633844e-05 9.43028016843499e-06 3.47473970910788e-05 3.47458529112171e-05 0.00357174493315763 5.84775853973764e-06 1.02325932521395e-05 7.09519868269965e-05 1.65158557570517e-05 5.97338617302105e-06 0.0020480703510337 0.00374813345267194 0.00465308953640941 0.0137542365413147 0.000387129032904612 0.00582492876628533 0.150860771144868 0.00931417222002099 0.00997330382370912 0.0378485025876717 3.77089811930381e-05 0.015208742719941 0.00880691555284332 -9999 -9999 -9999 -9999 -9999 -9999 -9999 -9999 -9999 -9999 -9999 -9999 -9999 -9999
0 0 0 0 0 0 0 0 0 0 0 0 0 0 0 0 0 0 0 0 0 0 0 0 0 0 0 0 0 0 0 0 0 0.00357174493315763 0.00357174493315763 0.00357174493315763 0.00357174493315763 0.00357174493315763 9.06973851127241e-05 0.00357174493315763 0.00357174493315763 0.00357174493315763 6.03533026401681e-05 7.00941853851871e-06 0.00233347339449166 0.00285208844907773 2.21899830337101e-05 7.21531367132503e-06 0.000105750180369805 2.52099827203645e-05 0.00014019050293001 0.0968909092799907 0.00960728556774826 0.0685751057474606 8.59272162783508e-06 0.00201239926068536 0.000539860524197646 0.00233467800163686 0.015208742719941 0.015208742719941 0.0199736633654021 6.86574866573036e-05 0.00196105473532164 0.0115959131412576 -9999 -9999 -9999 -9999 -9999 -9999 -9999 -9999 -9999 -9999 -9999 -9999 -9999 -9999
0 0 0 0 0 0 0 0 0 0 0 0 0 0 0 0 0 0 0 0 0 0 0 0 0 0 0 0 0 0 0 0 0 0.00357174493315763 0.00357174493315763 0.00357174493315763 0.00357174493315763 0.00357174493315763 0.00357174493315763 0.00357174493315763 0.00357174493315763 0.00357174493315763 7.07012711009427e-05 0.000121187378639936 0.02080262636372 0.00642604778257472 4.0430937056063e-05 2.21757815796e-05 1.19191234362558e-05 2.6755208964236e-05 7.11755259993784e-06 0.0935825760867299 0.0211126248108951 0.0166347341857836 0.0413179179006163 0.000167258904560018 0.0123635468227117 0.00624362514019548 0.00624362514019548 0.015208742719941 0.0172168773008554 0.0162101107622319 0.0490484444169523 0.014200131036868 0.0100107909877492 0.00990432733270907 0.0128253499802659 0.0133169772431585 -9999 -9999 -9999 -9999 -9999 -9999 -9999 -9999 -9999 -9999
0 0 0 0 0 0 0 0 0 0 0 0 0 0 0 0 0 0 0 0 0 0 0 0 0 0 0 0 0 0 0 0 0 0.00357174493315763 0.00357174493315763 0.00357174493315763 0.00357174493315763 0.00357174493315763 0.00357174493315763 1.22179026283217e-05 0.000229340639099629 1.16413976769212e-05 0.000141246538833402 0.000254285242643406 0.00561068144405872 0.000684827860155079 0.000193351517095783 2.11628789908803e-06 7.07758919574035e-05 2.61656156035315e-05 1.66967490017632e-05 0.0156825826072297 0.021779658898535 0.0137881082728991 0.000936812914124024 0.00260000643863833 0.0601029733099122 0.000643770179038746 2.03945518059822e-05 0.00624362514019548 0.0333237937021998 0.118158209200118 0.0350718923800951 0.015208742719941 0.00262050135745659 0.015208742719941 0.015208742719941 0.0110441985315932 -9999 -9999 -9999 -9999 -9999 -9999 -9999 -9999 -9999 -9999
0 0 0 0 0 0 0 0 0 0 0 0 0 0 0 0 0 0 0 0 0 0 0 0 0 0 0 0 0 0 0 0 0 0 0.00357174493315763 0.00357174493315763 0.00357174493315763 0.00357174493315763 0.00357174493315763 0.00357174493315763 1.16222875361896e-05 0.00357174493315763 0.00357174493315763 1.28510068769011e-05 0.00124162962150139 0.00394246153435 4.53784893218172e-06 2.75516773463691e-06 1.2243756057571e-05 6.4338283838851e-06 7.65648516627527e-06 0.00177669902347121 0.00491088390414365 0.00819877003388098 0.00344598061766269 0.00142542984760371 0.114134846006744 1.22449604146153e-05 0.00624362514019548 0.015208742719941 0.015208742719941 0.015208742719941 0.00401445672703549 0.00405259329119959 0.000371335680695043 0.00262013399568043 0.015208742719941 0.0148836869089497 -9999 -9999 -9999 -9999 -9999 -9999 -9999 -9999 -9999 -9999
0 0 0 0 0 0 0 0 0 0 0 0 0 0 0 0 0 0 0 0 0 0 0 0 0 0 0 0 0 0 0 0 0 0 0.00357174493315763 0.00357174493315763 0.00357174493315763 0.00357174493315763 0.00357174493315763 2.02671400219044e-05 2.70077407981085e-05 1.16197874405787e-05 0.000130561344301615 5.16850510618064e-05 0.00752631884873615 0.00377325304942449 2.8829210207637e-06 4.01393962020323e-06 0.000401267545875039 0.00624362514019548 2.25980335680272e-05 0.00358091459062003 0.00150445209866747 7.98075270887186e-06 7.74451115137745e-06 0.000971714623590344 0.000279968896905103 0.000118664330804358 0.000401896027606481 2.03585516663903e-05 0.015208742719941 0.015208742719941 0.00403445203323924 0.0057000178533849 0.00258321962096489 0.0664341773516548 2.56888075500038e-05 0.015208742719941 -9999 -9999 -9999 -9999 -9999 -9999 -9999 -9999 -9999 -9999
0 0 0 0 0 0 0 0 0 0 0 0 0 0 0 0 0 0 0 0 0 0 0 0 0 0 0 0 0 0 0 0 0 0 0 0.00357174493315763 0.00357174493315763 0.00357174493315763 0.00357174493315763 0.00357174493315763 0.00357174493315763 0.000115523835637852 0.00357174493315763 3.58263526414322e-06 5.77696254983868e-06 0.000137305800387864 2.57850364352112e-06 4.1744206690412e-05 0.00624362514019548 0.00624362514019548 5.08569351421709e-05 0.00168559584239511 0.00291136673536596 0.00846577887420286 0.00307906355919555 0.00474894713428189 0.000296699994052253 3.55108305285503e-05 0.0214111178447898 0.00624362514019548 5.00399226923636e-05 0.015208742719941 0.000985282825672497 0.00387870636306591 3.09431038128459e-05 0.000239158282603517 0.0067858675832145 0.015208742719941 -9999 -9999 -9999 -9999 -9999 -9999 -9999 -9999 -9999 -9999
0 0 0 0 0 0 0 0 0 0 0 0 0 0 0 0 0 0 0 0 0 0 0 0 0 0 0 0 0 0 0 0 0 0 0 0.00357174493315763 0.00357174493315763 0.00357174493315763 0.00357174493315763 0.00407082013840913 0.00269742563651196 0.00357174493315763 1.15990837613206e-05 8.41779172138646e-06 0.000150742213185307 0.0236752537154617 1.87169652962201e-05 4.8879773756931e-06 1.16091046284609e-05 2.03330815251744e-05 0.0026677902914354 0.0350421851552223 0.0274382318255739 0.00139809712763561 0.0162767604288502 0.000920569469245133 8.34699807867131e-05 1.52639420360382e-05 1.25725215864491e-05 2.03381592161242e-05 3.04532876349435e-05 0.00014891198070522 0.000148995183702677 3.09253429485026e-05 0.00060555977431538 4.28617289137567e-05 0.00171088002360087 0.015208742719941 0.0136424993523177 -9999 -9999 -9999 -9999 -9999 -9999 -9999 -9999 -9999
0 0 0 0 0 0 0 0 0 0 0 0 0 0 0 0 0 0 0 0 0 0 0 0 0 0 0 0 0 0 0 0 0 0 0 0.00357174493315763 0.00357174493315763 0.00357174493315763 0.00357174493315763 0.00357174493315763 0.00357174493315763 0.0044713974954141 0.00616550487574607 0.00357174493315763 0.00357174493315763 0.062544372449294 0.000422554221585719 0.000285339661731072 1.87014653072581e-05 0.00624362514019548 0.00624362514019548 2.66431243120017e-05 8.44620145969343e-05 1.33462589837539e-05 6.25528937469112e-05 0.000797012720379222 0.000549139947250328 0.00624362514019548 0.00624362514019548 0.00624362514019548 2.0318736391907e-05 0.000130434017393527 0.00132496431664163 0.015208742719941 0.015208742719941 0.00144058643870248 0.015208742719941 0.015208742719941 0.015125414951265 0.0135766049314637 -9999 -9999 -9999 -9999 -9999 -9999 -9999 -9999
0 0 0 0 0 0 0 0 0 0 0 0 0 0 0 0 0 0 0 0 0 0 0 0 0 0 0 0 0 0 0 0 0 0 0 0.00357174493315763 0.00357174493315763 0.00357174493315763 0.00369307076539962 0.00281882969642632 0.000279707319653936 0.00357174493315763 0.00357174493315763 0.00357174493315763 1.86914355578171e-05 3.02673503378708e-05 1.1596140441835e-05 0.00357174493315763 0.00357174493315763 1.15956621947127e-05 0.00624362514019548 0.00624362514019548 2.03069723518972e-05 0.00624362514019548 0.00624362514019548 0.000245285438612503 0.000144393585113834 1.18634514479874e-05 0.00624362514019548 0.00204607020318266 0.00624362514019548 0.00624362514019548 0.015208742719941 0.000746644360114119 0.015208742719941 0.000130358853623425 7.46845910518413e-05 0.0014290039255463 0.015208742719941 0.014495718627731 0.0134455377915925 0.012369719023209 -9999 -9999 -9999 -9999 -9999 -9999
0 0 0 0 0 0 0 0 0 0 0 0 0 0 0 0 0 0 0 0 0 0 0 0 0 0 0 0 0 0 0 0 0 0 0 0 0.00357174493315763 0.00357174493315763 0.00481077893061927 0.000836371930883709 0.000195987662659427 0.000776533869375933 0.00357174493315763 0.00357174493315763 0.00357174493315763 0.00357174493315763 5.80669218962812e-06 0.000866931419732442 1.15843560136712e-05 0.00357174493315763 0.00624362514019548 1.93756463563362e-05 2.24238151399542e-05 0.000406360780922733 1.01634713325495e-05 9.27979728944549e-06 0.000925590506242499 2.83607276983889e-05 0.0118124771070077 0.00624362514019548 0.00624362514019548 0.00624362514019548 1.01640998469262e-05 0.015208742719941 0.015208742719941 0.015208742719941 0.00261070368381435 0.015208742719941 0.015208742719941 0.015208742719941 0.015208742719941 0.0150444592021275 0.0150444592021275 0.0145722351472254 -9999 -9999 -9999 -9999
0 0 0 0 0 0 0 0 0 0 0 0 0 0 0 0 0 0 0 0 0 0 0 0 0 0 0 0 0 0 0 0 0 0 0 0 0.00357174493315763 0.00357174493315763 0.000700775154811073 0.00172911757351468 0.000961607784927114 0.00357174493315763 1.34967880750622e-05 7.94220927062786e-05 0.00357174493315763 5.80136074693679e-06 0.000728424020015649 2.21942957303596e-05 8.39058930197897e-06 7.38215148041889e-06 8.53416113396392e-06 0.00624362514019548 1.93618883162352e-05 1.06607513336853e-05 2.55193948762206e-05 0.00522738587604568 0.00047434565776743 0.000847302096332945 0.000542224974343629 0.00624362514019548 0.00624362514019548 0.00624362514019548 0.015208742719941 4.98620861955947e-05 0.015208742719941 0.015208742719941 0.015208742719941 0.015208742719941 0.015208742719941 0.015208742719941 0.015208742719941 0.015208742719941 0.015208742719941 0.0122608251575503 0.0150444592021275 -9999 -9999 -9999
0 0 0 0 0 0 0 0 0 0 0 0 0 0 0 0 0 0 0 0 0 0 0 0 0 0 0 0 0 0 0 0 0 0 0 0 0.00357174493315763 0.00357174493315763 0.00357174493315763 0.00357174493315763 0.00676560148373257 0.0046328529896545 6.14363742191817e-05 3.04695389209793e-06 1.15723766665995e-05 0.00357174493315763 1.15617915574011e-05 0.00357174493315763 0.00357174493315763 1.15695459221091e-05 0.00624362514019548 2.02669658897169e-05 0.00624362514019548 0.00624362514019548 0.000834464593912265 3.35159969659649e-05 0.000211583780504468 0.000519238682348964 0.000889455341676386 1.41976764105543e-05 0.00015012836588668 0.000224876491855492 0.00624362514019548 0.015208742719941 4.61520016949455e-05 0.000155754234438565 5.50297792814598e-05 0.015208742719941 0.015208742719941 0.015208742719941 0.015208742719941 0.015208742719941 0.015208742719941 0.015208742719941 0.0127670960192356 -9999 -9999 -9999
0 0 0 0 0 0 0 0 0 0 0 0 0 0 0 0 0 0 0 0 0 0 0 0 0 0 0 0 0 0 0 0 0 0 0 0 0.00357174493315763 0.00357174493315763 0.00357174493315763 3.4432301152149e-05 0.00573126315656716 2.41302560127633e-05 7.56830107926211e-06 0.00357174493315763 0.00357174493315763 0.00155128571887381 0.000804137915596956 0.000334971299240535 0.00357174493315763 0.00357174493315763 0.00357174493315763 0.00624362514019548 0.000153533187403438 0.000407177856283617 7.03090433849554e-05 0.000422001983442068 0.000113442128076761 6.97815412306871e-05 1.15081078082824e-05 0.00431849638879788 0.00624362514019548 0.000810568820697882 0.00624362514019548 1.03905760151558e-05 9.20103409585341e-05 0.0050946736659546 0.000115669947012473 0.00291795396994874 0.015208742719941 0.015208742719941 0.015208742719941 0.015208742719941 0.015208742719941 0.015208742719941 0.015208742719941 0.0126500909266794 0.015208742719941 -9999
0 0 0 0 0 0 0 0 0 0 0 0 0 0 0 0 0 0 0 0 0 0 0 0 0 0 0 0 0 0 0 0 0 0 0 0 0 0.00357174493315763 0.00357174493315763 0.00357174493315763 0.150356392343174 0.00357174493315763 6.6044301749608e-05 0.00073386345258651 2.01676249525948e-05 2.6835809196858e-05 1.15540589913582e-05 0.00357174493315763 4.80150961730645e-05 1.51527377217985e-05 0.00357174493315763 1.03820850004831e-05 0.000269620707539477 0.00624362514019548 0.000487171901822773 0.00333317425868602 0.00624362514019548 0.00624362514019548 0.00624362514019548 0.00624362514019548 0.000206155986876133 2.236252181131e-05 0.00624362514019548 0.00624362514019548 0.015208742719941 0.000155540451199111 0.000141525126134526 0.015208742719941 0.00185588987853169 0.015208742719941 0.015208742719941 0.015208742719941 0.015208742719941 0.015208742719941 0.015208742719941 0.0136424993523177 -9999 -9999
0 0 0 0 0 0 0 0 0 0 0 0 0 0 0 0 0 0 0 0 0 0 0 0 0 0 0 0 0 0 0 0 0 0 0 0 0 0.00357174493315763 0.00357174493315763 0.00357174493315763 1.15316470131744e-05 2.41452302229221e-05 1.34583692032851e-05 0.000336048661338716 0.00357174493315763 0.00996019145404574 0.00968049322962529 1.15507912971241e-05 0.00357174493315763 1.01124242052072e-05 6.2322046956902e-06 2.89697567261018e-06 8.34218941989129e-06 0.00661316543571023 0.000703711343222962 0.00393375425283415 0.000127811443252887 0.000335943953978157 5.75405666967986e-05 0.000100600768398645 2.23471437328286e-05 0.00624362514019548 5.468803453501e-05 2.09311306556571e-05 0.00295847586649073 0.00253934322220142 3.64643052627601e-05 0.000632091568176813 0.00975611389455473 0.0015694764410987 2.55061250569052e-05 0.015208742719941 0.015208742719941 0.015208742719941 0.015208742719941 0.015208742719941 0.015208742719941 -9999
0 0 0 0 0 0 0 0 0 0 0 0 0 0 0 0 0 0 0 0 0 0 0 0 0 0 0 0 0 0 0 0 0 0 0 0 0 0 0.00357174493315763 0.00357174493315763 0.00357174493315763 0.00357174493315763 2.55848144267459e-06 0.000944197593511052 3.62754949202693e-06 0.000581665882516019 6.68281361282217e-05 1.27515304757628e-05 0.00357174493315763 0.00357174493315763 8.08658944159682e-06 2.5605846048654e-06 1.37012347981418e-05 0.000761506987190853 0.000293881328882342 0.000411794989924869 8.67531357897604e-06 3.02599192275524e-05 7.37616086582677e-06 2.19486824976478e-05 0.00624362514019548 1.18044369568183e-05 5.59658578535744e-06 0.000438348389890836 0.00038268453859671 0.0233898507181465 6.13051276675838e-05 0.015208742719941 0.015208742719941 0.015208742719941 0.015208742719941 0.015208742719941 0.015208742719941 0.015208742719941 0.015208742719941 0.015208742719941 -9999 0.015208742719941
0 0 0 0 0 0 0 0 0 0 0 0 0 0 0 0 0 0 0 0 0 0 0 0 0 0 0 0 0 0 0 0 0 0 0 0 0 0 0.00357174493315763 0.00357174493315763 0.00357174493315763 0.000117358957354071 4.2549419476427e-06 0.00018687453913439 6.55635965226447e-06 0.0395351499018351 0.00357174493315763 1.15336213619175e-05 0.00357174493315763 3.43555133676242e-05 5.39406785594873e-06 1.28699996924329e-05 0.000352697319837621 0.000264960276279594 1.28663858297687e-05 0.00624362514019548 2.01941307840334e-05 0.000303465351539928 4.18155005445619e-06 1.87111064780741e-05 1.27364516921084e-05 0.00624362514019548 1.06190959973841e-05 0.000205769063792306 0.0101745419896364 6.51050006442089e-05 9.4521356089886e-05 0.015208742719941 0.015208742719941 0.015208742719941 0.015208742719941 0.015208742719941 0.015208742719941 0.015208742719941 0.015208742719941 0.015208742719941 -9999 -9999
0 0 0 0 0 0 0 0 0 0 0 0 0 0 0 0 0 0 0 0 0 0 0 0 0 0 0 0 0 0 0 0 0 0 0 0 0 0 0 6.7862890293588e-05 2.01057667727638e-05 8.35177136321052e-06 0.000236260288711354 8.77848459029659e-05 1.95572474062281e-06 0.00758526365796595 0.000311888593310825 2.01089998623929e-05 1.15285492422707e-05 4.25837732431436e-06 6.38136518786293e-06 7.81489625214054e-06 0.0007181580613251 0.00624362514019548 0.00624362514019548 5.20033050631486e-05 0.00624362514019548 0.000578786570107654 0.00012178854347447 8.07342327433664e-06 1.38493149853265e-05 4.99798493978473e-06 0.00624362514019548 4.68765501320367e-05 3.25951512450422e-05 0.00423510431095933 4.17064318486895e-05 3.90949581285709e-05 0.020948825005145 2.32013425312468e-05 0.015208742719941 0.015208742719941 0.015208742719941 0.015208742719941 0.015208742719941 0.015208742719941 0.0150444592021275 0.0115959131412576
0 0 0 0 0 0 0 0 0 0 0 0 0 0 0 0 0 0 0 0 0 0 0 0 0 0 0 0 0 0 0 0 0 0 0 0 0 0 0 0 5.38319536511708e-06 0.000227023736702469 0.00109015481360033 0.000285822755452757 6.06007424786191e-06 0.0166194907578018 0.000746683251384564 5.76789740666603e-06 0.00357174493315763 5.77131261345678e-06 1.15166769983862e-05 0.00357174493315763 0.00157763430800697 0.00624362514019548 3.52070950674991e-05 4.68542686025319e-05 0.00624362514019548 0.00624362514019548 0.00624362514019548 8.38364370074794e-05 1.14622267878873e-05 0.00624362514019548 2.01675632070473e-05 2.48963450013373e-05 1.35583033085274e-05 0.000103709316217048 0.015208742719941 3.95821125120778e-05 1.98121727481383e-05 4.95969278253928e-05 0.015208742719941 0.015208742719941 0.015208742719941 0.015208742719941 0.015208742719941 0.015208742719941 0.015125414951265 0.0100472249501615
