NCOLS 78 
NROWS 66 
XLLCORNER -87.5 
YLLCORNER 25 
CELLSIZE 0.0833333333333333 
NODATA_value -9999 
-9999.000000000000000 -9999 -9999 -9999 8.59283684246338e-05 8.45621566613299e-05 -9999 -9999 -9999 -9999 -9999 7.25837752917086e-05 6.62345599287607e-05 7.94842991517474e-05 7.79268332618442e-05 8.59283684246338e-05 -9999 -9999 -9999 -9999 -9999 -9999 -9999 -9999 -9999 -9999 -9999 -9999 -9999 -9999 -9999 -9999 -9999 -9999 -9999 -9999 -9999 -9999 -9999 -9999 -9999 -9999 -9999 -9999 -9999 -9999 -9999 -9999 -9999 -9999 -9999 -9999 -9999 -9999 -9999 -9999 -9999 -9999 -9999 -9999 -9999 -9999 -9999 -9999 -9999 -9999 -9999 -9999 -9999 -9999 -9999 -9999 1.76415740793221e-05 1.76415740793221e-05 1.76415740793221e-05 1.76415740793221e-05 1.76415740793221e-05 1.76415740793221e-05
-9999 -9999 -9999 7.32583214194831e-05 6.62345599287607e-05 6.67907471185805e-05 6.70698117650283e-05 5.79916286181487e-05 6.35421084307508e-05 5.96352472656583e-05 0.000136630657517095 9.73712783477529e-05 0.000152185743408397 0.00011016301198856 7.25966665255399e-05 -9999 -9999 -9999 -9999 -9999 -9999 -9999 -9999 -9999 -9999 -9999 -9999 -9999 -9999 -9999 -9999 -9999 -9999 -9999 -9999 -9999 -9999 -9999 -9999 -9999 -9999 -9999 -9999 -9999 -9999 -9999 -9999 -9999 -9999 -9999 -9999 -9999 -9999 -9999 -9999 -9999 -9999 -9999 -9999 -9999 -9999 -9999 -9999 -9999 -9999 -9999 -9999 -9999 -9999 -9999 -9999 -9999 -9999 1.76415740793221e-05 1.76415740793221e-05 1.76415740793221e-05 1.76415740793221e-05 1.76415740793221e-05
6.85168038510084e-05 6.58804124405942e-05 7.94325865938039e-05 0.000121314524868861 0.000357762268953663 4.03558349245175e-05 6.0537211525827e-05 5.76778773476575e-05 2.37744658534156e-05 6.4092733994314e-05 0.000191361094160578 2.89416869683668e-05 2.16605543477623e-05 0.000108408720094668 3.48899678010532e-05 4.05855890947046e-05 7.2975878182843e-05 -9999 -9999 -9999 -9999 -9999 -9999 -9999 -9999 -9999 -9999 -9999 -9999 -9999 -9999 -9999 -9999 -9999 -9999 -9999 -9999 -9999 -9999 -9999 -9999 -9999 -9999 -9999 -9999 -9999 -9999 -9999 -9999 -9999 -9999 -9999 -9999 -9999 -9999 -9999 -9999 -9999 -9999 -9999 -9999 -9999 -9999 -9999 -9999 -9999 -9999 -9999 -9999 -9999 -9999 -9999 -9999 1.76415740793221e-05 1.76415740793221e-05 1.76415740793221e-05 1.76415740793221e-05 1.76415740793221e-05
5.49715986191088e-05 7.12923975985367e-05 4.86679944890913e-05 0.000168019677598732 2.33535766346837e-05 3.3034586667829e-05 4.32721407850099e-05 1.78120297057266e-05 1.8309018787735e-05 1.5786336794501e-05 2.39143362290426e-05 0.00018101300149141 1.35729263728102e-05 2.23008063121295e-05 1.54809284227359e-05 7.04826246249112e-05 3.21602457428556e-05 3.70589559278495e-05 2.25627597613444e-05 4.64038090934088e-05 7.09676423476818e-05 6.02089780474698e-05 -9999 -9999 -9999 -9999 -9999 -9999 -9999 -9999 -9999 -9999 -9999 -9999 -9999 -9999 -9999 -9999 -9999 -9999 -9999 -9999 -9999 -9999 -9999 -9999 -9999 -9999 -9999 -9999 -9999 -9999 -9999 -9999 -9999 -9999 -9999 -9999 -9999 -9999 -9999 -9999 -9999 -9999 -9999 -9999 -9999 -9999 -9999 -9999 -9999 -9999 -9999 1.76415740793221e-05 1.76415740793221e-05 1.76415740793221e-05 1.76415740793221e-05 1.76415740793221e-05
3.42668856832761e-05 3.56499414401615e-05 1.36468133316577e-05 0.00010526867482404 4.6652337617615e-05 1.00241086724733e-05 2.59078736125228e-05 1.92985391691333e-05 5.71754736487132e-05 9.9926020412361e-05 0.000200115970406953 0.000168824752860719 4.59670213386689e-05 0.000167922998237927 7.34705845316154e-05 4.86279008268077e-05 2.66144456354044e-05 2.03945188453982e-05 1.20903370506872e-05 3.49623043296664e-05 5.86127494911141e-05 4.54033193167085e-05 5.82236697671675e-05 6.51495195670537e-05 -9999 -9999 -9999 -9999 -9999 -9999 -9999 -9999 -9999 -9999 -9999 -9999 -9999 -9999 -9999 -9999 -9999 1.453147995312e-05 -9999 -9999 -9999 -9999 -9999 -9999 -9999 -9999 -9999 -9999 -9999 -9999 -9999 -9999 -9999 -9999 -9999 -9999 -9999 -9999 -9999 -9999 -9999 -9999 -9999 -9999 -9999 -9999 -9999 -9999 -9999 -9999 1.76415740793221e-05 1.76415740793221e-05 1.76415740793221e-05 1.76415740793221e-05
2.79774636683938e-05 0.00010982760198762 5.18358505402095e-05 3.04178104412265e-05 0.000161744515417348 0.000197815130698125 9.17100545819259e-06 4.62199762273583e-05 3.65724119968965e-05 1.47915377122277e-05 2.87355942642487e-05 1.69149503251092e-05 2.21563689522423e-05 4.99608977724789e-05 8.30401016256198e-05 3.86943849122807e-05 4.11846200436543e-05 1.35908561852557e-05 0.000134785554687631 2.42747655373271e-05 8.22077956552863e-05 0.000182802213135678 0.000141521935352342 6.43564396339091e-05 -9999 -9999 -9999 -9999 -9999 -9999 -9999 -9999 -9999 -9999 -9999 -9999 -9999 -9999 1.19779056644989e-05 1.1511568956921e-05 1.00151203866993e-05 9.71328286039308e-06 1.03363188954733e-05 1.49609458918218e-05 -9999 -9999 -9999 -9999 -9999 -9999 -9999 -9999 -9999 -9999 -9999 -9999 -9999 -9999 -9999 -9999 -9999 -9999 -9999 -9999 -9999 -9999 -9999 -9999 -9999 -9999 -9999 -9999 -9999 -9999 1.76415740793221e-05 1.76415740793221e-05 1.76415740793221e-05 1.76415740793221e-05
1.82286600842303e-05 2.41229911782396e-05 3.27306863153617e-05 5.24321809252566e-05 0.000216447351572244 9.15134306813133e-06 1.06249349776211e-05 1.04742305981847e-05 1.09452034346265e-05 2.93087844774253e-05 9.61142726656382e-06 6.8719840377586e-05 3.00113929658772e-05 1.93755779634551e-05 3.34884419344385e-05 5.51716973564566e-05 2.33169047031349e-05 1.33790976307894e-05 3.86078739635312e-05 9.86664216946469e-05 8.50943792156267e-05 0.000227216235291586 7.68352599439554e-05 6.03415169282557e-05 -9999 -9999 -9999 -9999 -9999 -9999 -9999 -9999 -9999 -9999 -9999 -9999 -9999 -9999 1.58292392684579e-05 1.53492762541011e-05 1.53492762541011e-05 9.9033055859808e-06 9.30524006268751e-06 9.30524006268751e-06 1.12197013121994e-05 -9999 -9999 -9999 -9999 -9999 -9999 -9999 -9999 -9999 -9999 -9999 -9999 -9999 -9999 -9999 -9999 -9999 -9999 -9999 -9999 -9999 -9999 -9999 -9999 -9999 -9999 -9999 -9999 -9999 1.76415740793221e-05 1.76415740793221e-05 1.76415740793221e-05 1.76415740793221e-05
1.87972753527832e-05 3.69232945834821e-05 3.10645066910834e-05 2.38606115549076e-05 1.1648707691877e-05 1.51177476727096e-05 1.51177476727096e-05 1.06221469318768e-05 1.51177476727096e-05 1.591649314743e-05 2.16155423596465e-05 7.4148116422334e-06 3.4191943228521e-05 3.28749778386329e-05 7.35637836317447e-06 3.31746458523332e-05 1.87924341618674e-05 1.84639739106211e-05 3.51608553447679e-05 1.95103431541364e-05 2.83733402820993e-05 1.87098526894917e-05 6.78835699882008e-05 0.000237295616535183 4.93648505296304e-05 8.23689398922033e-05 -9999 -9999 -9999 -9999 -9999 -9999 -9999 -9999 -9999 -9999 1.34818820548008e-05 1.75535098569358e-05 1.61910573465431e-05 1.2753663439294e-05 1.47127940857814e-05 1.31804852991752e-05 1.21839324698393e-05 1.10107934015895e-05 9.30524006268751e-06 9.30524006268751e-06 -9999 -9999 -9999 -9999 -9999 -9999 -9999 -9999 -9999 -9999 -9999 -9999 -9999 -9999 -9999 -9999 -9999 -9999 -9999 -9999 -9999 -9999 -9999 -9999 -9999 -9999 -9999 -9999 1.76415740793221e-05 1.76415740793221e-05 1.76415740793221e-05 1.76415740793221e-05
3.82232282768916e-05 1.05685400022864e-05 2.61478771384992e-05 7.63975052696946e-06 1.51177476727096e-05 1.51177476727096e-05 1.51177476727096e-05 3.74696700791847e-06 1.51177476727096e-05 1.4391589358147e-05 1.18916164694644e-05 9.89892379057343e-06 6.37726129081466e-06 6.87567720090906e-06 7.54246787483357e-06 1.96835080745338e-05 1.9833549884438e-05 1.31326446179456e-05 1.88014008669813e-05 2.57036549300162e-05 2.72623390808894e-05 5.94891809005201e-05 3.86076838003678e-05 6.57746725159503e-05 5.36010232177448e-05 7.60605033005388e-05 -9999 -9999 -9999 -9999 -9999 -9999 1.55517146250187e-05 1.49609458918218e-05 1.49609458918218e-05 1.44699329485221e-05 1.02862141187393e-05 1.76415740793221e-05 9.35123408691455e-06 6.38552988430404e-06 8.13127586381713e-06 8.95035201305962e-06 1.60107501763416e-05 1.81295366292284e-05 1.22262949119402e-05 1.26626319016902e-05 9.47948996580265e-06 -9999 -9999 -9999 -9999 -9999 -9999 -9999 -9999 -9999 -9999 -9999 -9999 -9999 -9999 -9999 -9999 -9999 -9999 -9999 -9999 -9999 -9999 -9999 -9999 -9999 -9999 -9999 -9999 1.76415740793221e-05 1.76415740793221e-05 1.76415740793221e-05
2.21418064053575e-05 9.96079654495076e-06 9.95507148562004e-06 1.20172616712654e-05 1.51177476727096e-05 1.51177476727096e-05 1.51177476727096e-05 1.51177476727096e-05 1.51177476727096e-05 1.11041967799594e-05 1.51177476727096e-05 1.51177476727096e-05 1.2221718386243e-05 1.28688429172092e-05 9.15049892363079e-06 2.10599041325866e-05 1.63735386875075e-05 1.88417104332372e-05 0.000149750446544577 2.51681900405854e-05 2.25724261904134e-05 9.21160235985541e-06 2.23337126703728e-05 3.14045491353695e-05 3.01111824042054e-05 6.62345599287607e-05 6.82255941393273e-05 -9999 -9999 -9999 1.52176121592156e-05 1.60446246672853e-05 1.45917798756776e-05 1.74941241982583e-05 4.72446153917145e-05 1.27548633536757e-05 5.76361021861907e-06 1.13257620446981e-05 6.7292737155205e-06 4.95128714389483e-06 5.72534020379351e-06 4.40293964179875e-06 1.15619104966235e-05 1.25985888419322e-05 1.60159149351878e-05 1.56892498635406e-05 1.13274819006024e-05 1.10107934015895e-05 -9999 -9999 -9999 -9999 -9999 -9999 -9999 -9999 -9999 -9999 -9999 -9999 -9999 -9999 -9999 -9999 -9999 -9999 -9999 -9999 -9999 -9999 -9999 -9999 -9999 -9999 -9999 1.76415740793221e-05 1.76415740793221e-05 1.76415740793221e-05
2.04192023746366e-05 1.74153148845724e-05 1.26902756853469e-05 1.51177476727096e-05 1.51177476727096e-05 1.51177476727096e-05 1.51177476727096e-05 1.51177476727096e-05 1.51177476727096e-05 1.51177476727096e-05 1.51177476727096e-05 1.51177476727096e-05 1.51177476727096e-05 1.51177476727096e-05 1.33385678477952e-05 9.78845585513314e-06 2.52483192039997e-05 3.06309984242859e-05 7.72338008683387e-05 2.52061043040547e-05 1.24444958207119e-05 2.10446661661268e-05 2.79746814161105e-05 2.52813529383948e-05 6.09135070896184e-05 8.73480917623015e-05 8.73480917623015e-05 8.73480917623015e-05 8.54708437528461e-05 7.46331193492921e-05 1.50248705521527e-05 1.56495836058364e-05 1.74879181477705e-05 9.36782166130665e-06 1.12057944968848e-05 3.02833162995691e-05 8.01345481355885e-06 0.000258329693734006 9.79209984362578e-06 8.27571312902943e-06 7.91911994770734e-06 3.32176958456361e-06 8.31915991404997e-06 8.08865164416105e-06 4.70808930176565e-06 1.08281435979e-05 1.70474772473626e-05 1.71305251860084e-05 1.15867536161345e-05 -9999 -9999 -9999 -9999 -9999 -9999 -9999 -9999 -9999 -9999 -9999 -9999 -9999 -9999 -9999 -9999 -9999 -9999 -9999 -9999 -9999 -9999 -9999 -9999 -9999 -9999 -9999 1.76415740793221e-05 1.76415740793221e-05
6.72581059217709e-06 1.29406914208303e-05 1.51177476727096e-05 0 0 0 0 1.51177476727096e-05 1.51177476727096e-05 1.51177476727096e-05 1.51177476727096e-05 1.51177476727096e-05 1.51177476727096e-05 1.06130992186741e-05 1.51177476727096e-05 1.06132569072938e-05 1.03115644755322e-05 4.57223801119999e-05 2.6519330535643e-05 3.81305465531629e-05 1.13395085564452e-05 1.96052820692085e-05 3.22639277649957e-05 5.67276614544813e-05 8.73480917623015e-05 8.73480917623015e-05 6.6540044809357e-05 8.73480917623015e-05 8.73341261126954e-05 8.73480917623015e-05 1.6936797643935e-05 7.54214618283127e-06 5.32605221154258e-06 7.24015881093461e-06 6.57302020526761e-05 8.63192441447819e-06 1.52797117036304e-05 5.50765873556463e-05 6.7446610981438e-06 7.22616395880907e-06 5.75015800113937e-06 3.18201176163351e-06 7.79378177613595e-06 5.98721636248906e-06 1.43617039076596e-05 1.0902216104876e-05 1.21956887167355e-05 1.76415740793221e-05 1.05517712576247e-05 -9999 -9999 -9999 -9999 -9999 -9999 -9999 -9999 -9999 -9999 -9999 -9999 -9999 -9999 -9999 -9999 -9999 -9999 -9999 -9999 -9999 -9999 -9999 -9999 -9999 -9999 -9999 1.76415740793221e-05 1.76415740793221e-05
0 0 0 0 0 0 0 0 0 0 0 1.51177476727096e-05 1.51177476727096e-05 1.51177476727096e-05 1.51177476727096e-05 1.44839881126753e-05 5.35084552055161e-06 1.41581210791196e-05 2.06276571955398e-05 1.98169718756863e-05 2.15724527507302e-05 4.19330261079076e-05 4.19330260289876e-05 8.73480917623015e-05 3.08102086309669e-05 2.71480135903331e-05 2.30416162111035e-05 3.06085826660645e-05 9.81729726964125e-05 8.73480917623015e-05 1.10551399482775e-05 9.72161229538887e-06 3.95767499472574e-06 3.24835384392649e-06 3.08580397158114e-06 2.67005346433143e-06 4.31144686679831e-06 4.9065311519875e-06 1.03859484198126e-05 1.06260884095393e-05 7.74934251325689e-06 9.46351056896737e-06 7.51846913041926e-06 1.27506400064859e-05 1.19154614365751e-05 8.40755915603627e-06 1.57551211081628e-05 1.76415740793221e-05 1.42393639637996e-05 1.07434721925086e-05 1.453147995312e-05 -9999 -9999 -9999 -9999 -9999 -9999 -9999 -9999 -9999 -9999 -9999 -9999 -9999 -9999 -9999 -9999 -9999 -9999 -9999 -9999 -9999 -9999 -9999 -9999 -9999 1.76415740793221e-05 1.76415740793221e-05
0 0 0 0 0 0 0 0 0 0 0 0 1.51177476727096e-05 1.51177476727096e-05 1.51177476727096e-05 9.97647628675588e-06 8.46444660958171e-06 4.82843121764859e-06 4.15548882903389e-06 1.78259014048018e-05 1.84525577021384e-05 3.67679994459122e-05 3.67322937419091e-05 2.19360934494281e-05 2.35496337788899e-05 2.11702412658786e-05 2.91155346781292e-05 4.42347367611137e-05 6.57062001331551e-05 5.17292533304859e-05 5.51489317385685e-06 2.27607691545768e-06 1.04544748059153e-05 2.06790378883907e-06 2.49794062221899e-06 1.96317235467622e-06 4.75939423597276e-06 3.78397738939512e-05 1.17631574924274e-05 1.59615817142885e-05 9.72473501835074e-06 1.00834908074104e-05 6.42451134996692e-06 8.17346821822758e-06 1.22105933623754e-05 6.55232141516638e-06 9.92042024094149e-06 7.30579466871824e-06 1.54165699370629e-05 1.55517146250187e-05 1.73815270397973e-05 1.63401875060641e-05 -9999 -9999 -9999 -9999 -9999 -9999 -9999 -9999 -9999 -9999 -9999 -9999 -9999 -9999 -9999 -9999 -9999 -9999 -9999 -9999 -9999 -9999 -9999 -9999 -9999 1.76415740793221e-05
0 0 0 0 0 0 0 0 0 0 0 0 0 1.51177476727096e-05 1.51177476727096e-05 1.51177476727096e-05 1.51177476727096e-05 3.46438135490105e-06 4.33105227280059e-06 1.36903600463458e-05 4.04861699843593e-06 8.94381938462596e-06 3.75903439104959e-05 3.79884030266624e-05 2.31834065191093e-05 2.4085012896491e-05 1.90414187312359e-05 4.42347367611137e-05 2.35410896055124e-05 3.81171659861423e-05 5.46876603563232e-06 4.59233116592878e-06 3.55352652859038e-06 2.55173955149927e-06 0.000146778638158839 3.86728892667835e-06 1.79646246279228e-06 2.28686183272903e-06 3.06864896163803e-06 1.74179198119025e-05 1.11593133906041e-05 5.43542619092738e-06 6.07318868273032e-06 5.69030221617716e-06 8.04218543770809e-06 1.10366117535121e-05 1.33504843655598e-05 8.06379408040684e-06 1.85775287375405e-05 1.25728906618869e-05 1.67260253245748e-05 1.56892498635406e-05 -9999 -9999 -9999 -9999 -9999 -9999 -9999 -9999 -9999 -9999 -9999 -9999 -9999 -9999 -9999 -9999 -9999 -9999 1.76415740793221e-05 1.76415740793221e-05 -9999 -9999 -9999 -9999 -9999 1.76415740793221e-05
0 0 0 0 0 0 0 0 0 0 0 0 0 0 1.51177476727096e-05 1.51177476727096e-05 1.51177476727096e-05 1.51177476727096e-05 1.07606412696843e-05 1.44819901096403e-05 7.43861217916834e-06 6.90717708940545e-05 9.13176018769507e-06 9.34372205877185e-06 1.83625669350684e-05 1.61047280589857e-05 1.35339039059744e-05 1.25222558110045e-05 3.08143160783556e-05 3.29117392825352e-05 4.47603568626612e-06 3.08064865287307e-06 3.40189822818621e-06 3.24616470973671e-06 1.72442486587224e-06 2.43038717553514e-06 2.86422829100671e-06 2.57984038713414e-06 5.04725875133002e-06 6.1514037950099e-06 6.49405059073023e-06 7.32036399633693e-06 5.09630912052427e-06 8.33165397672731e-06 1.2880329717724e-05 8.46657341828772e-06 9.14825386822464e-06 1.76415740793221e-05 1.76415740793221e-05 1.76415740793221e-05 1.72128815729864e-05 1.76415740793221e-05 1.47735029087835e-05 -9999 -9999 -9999 -9999 -9999 -9999 -9999 -9999 -9999 -9999 -9999 -9999 -9999 -9999 -9999 -9999 -9999 -9999 1.76415740793221e-05 -9999 -9999 -9999 -9999 -9999 -9999
0 0 0 0 0 0 0 0 0 0 0 0 0 0 0 1.51177476727096e-05 1.51177476727096e-05 1.51177476727096e-05 1.51177476727096e-05 1.40166371829404e-05 3.84423628376447e-06 1.13077006782365e-05 4.63175260176005e-06 7.34087757780942e-06 3.22299194678593e-05 1.92003152570642e-05 1.77821823926268e-05 1.1555621669536e-05 1.24510534259086e-05 3.02072156586339e-05 4.43736108865353e-06 2.78049956616619e-06 4.48530176756771e-06 2.33609597570818e-06 2.11549208278516e-06 2.46394573763952e-06 1.84626974092944e-06 3.24421923918846e-06 3.43319289883643e-06 2.48103064726152e-06 2.00483161189653e-06 4.5347873874861e-06 8.31777935655619e-06 1.01096448798432e-05 9.90544782971921e-06 1.15740028977224e-05 1.12489826148539e-05 6.24488828101135e-06 9.82665121910455e-06 7.99990072951849e-06 1.76415740793221e-05 1.76415740793221e-05 1.48358324657826e-05 1.19779056644989e-05 1.22262949119402e-05 9.73970582359954e-06 -9999 -9999 -9999 -9999 -9999 -9999 -9999 -9999 -9999 -9999 -9999 -9999 -9999 -9999 -9999 -9999 1.76415740793221e-05 -9999 -9999 -9999 -9999 -9999
0 0 0 0 0 0 0 0 0 0 0 0 0 0 0 0 1.51177476727096e-05 1.51177476727096e-05 1.51177476727096e-05 1.51177476727096e-05 1.51177476727096e-05 1.51177476727096e-05 1.51177476727096e-05 8.3153753462297e-06 1.81899549173068e-05 1.78769936433632e-05 2.40559703699895e-05 1.52641493924311e-05 3.07990677662713e-05 2.9917830784787e-05 4.47603552980082e-06 3.34406593482099e-06 2.29391357833009e-06 1.81876532336923e-06 1.79663262085346e-06 2.59815225342371e-06 1.71182356101636e-06 2.4851627242836e-06 3.58453386656173e-06 1.75731356842987e-06 4.68131734137297e-06 3.30427636232009e-06 9.99966722001735e-06 6.78563721528094e-06 8.6932915977769e-06 1.37663279929231e-05 7.15854231090733e-06 6.39873947964497e-06 6.21619643190446e-06 8.0125029710354e-06 1.39301103494154e-05 1.76415740793221e-05 1.75535098569358e-05 1.48975630413791e-05 1.3083281731619e-05 9.45400396453831e-06 9.35430509127932e-06 -9999 -9999 -9999 -9999 -9999 -9999 -9999 -9999 -9999 -9999 -9999 -9999 -9999 -9999 -9999 -9999 -9999 -9999 -9999 -9999 -9999
0 0 0 0 0 0 0 0 0 0 0 0 0 0 0 0 1.51177476727096e-05 1.51177476727096e-05 1.51177476727096e-05 1.51177476727096e-05 1.51177476727096e-05 1.51177476727096e-05 1.51177476727096e-05 1.05948525520771e-05 7.76184063093926e-06 1.10821838546966e-05 3.80358714380319e-06 1.40119532069318e-05 1.82782540851787e-05 3.27195509436135e-05 2.55114355984139e-06 4.37581320830955e-06 3.4015574110474e-06 2.2381775876264e-06 1.95612627129166e-06 2.45262296927135e-06 1.66643863448267e-06 2.71304559861067e-06 2.90438653911779e-06 3.33391396015528e-06 3.70145909275723e-06 3.98143539281387e-06 4.81893801932614e-06 1.36413368711549e-05 1.47361532593576e-05 1.34450207843866e-05 1.27482301405927e-05 1.52836751646973e-05 4.26176049819903e-06 6.16318342757877e-06 9.55437640855366e-06 1.76415740793221e-05 1.76415740793221e-05 1.76415740793221e-05 1.66468440077695e-05 1.1079559818619e-05 1.01294892561345e-05 -9999 -9999 -9999 -9999 -9999 -9999 -9999 -9999 -9999 -9999 -9999 -9999 -9999 -9999 -9999 -9999 -9999 -9999 -9999 -9999 -9999
0 0 0 0 0 0 0 0 0 0 0 0 0 0 0 0 1.51177476727096e-05 1.51177476727096e-05 1.51177476727096e-05 1.51177476727096e-05 1.51177476727096e-05 1.51177476727096e-05 1.51177476727096e-05 1.51177476727096e-05 6.2173763560346e-06 7.50693246051201e-06 7.34957302967404e-06 5.81316146817691e-06 1.24822202113924e-05 2.71741835202807e-05 2.06803750032559e-06 3.61857651484582e-06 3.85119909511461e-06 2.77574366251906e-06 2.49380160447234e-06 2.08923035710182e-06 2.28180075776701e-06 3.94240362509442e-06 2.29892349875226e-06 1.95081991043438e-06 4.67365792633263e-06 4.49075527929052e-06 3.57194064364474e-06 3.12426349838688e-06 1.73462980015229e-05 9.99884475205073e-06 7.52086135524998e-06 1.42107865982725e-05 1.76415740793221e-05 1.49949279992987e-05 6.9284409323567e-06 1.43722090508958e-05 1.76415740793221e-05 1.69666923487005e-05 9.73970582359954e-06 9.30524006268751e-06 9.30524006268751e-06 9.37925568327611e-06 -9999 -9999 -9999 -9999 -9999 -9999 -9999 -9999 -9999 -9999 -9999 -9999 -9999 -9999 -9999 -9999 -9999 -9999 -9999 -9999
0 0 0 0 0 0 0 0 0 0 0 0 0 0 0 0 0 1.51177476727096e-05 1.51177476727096e-05 1.51177476727096e-05 1.51177476727096e-05 1.51177476727096e-05 1.51177476727096e-05 1.2849732478956e-05 1.35740088923106e-05 7.79737411439203e-06 6.73214798157397e-06 8.20224061168831e-06 5.66712048423782e-06 1.00504137525898e-05 4.20875446317028e-06 2.71076573704698e-06 2.42118307006447e-06 4.10287630016447e-06 4.63502988325386e-06 3.04808090483846e-06 2.52103110321012e-06 3.11759793791421e-06 2.79399761408112e-06 4.62374056070081e-06 3.59444578246237e-06 1.67709254280801e-06 1.70137476014967e-06 3.38038756587444e-06 7.72718684700478e-06 5.85033427342998e-06 7.25802849252895e-06 1.1022048895096e-05 1.3673948906064e-05 9.04721465698354e-06 1.89786419620826e-05 1.76415740793221e-05 9.54950298017219e-06 1.66468440077695e-05 9.30524006268751e-06 9.30524006268751e-06 9.30524006268751e-06 9.32992899146197e-06 -9999 -9999 -9999 -9999 -9999 -9999 -9999 -9999 -9999 -9999 -9999 -9999 -9999 -9999 -9999 -9999 -9999 -9999 -9999 1.76415740793221e-05
0 0 0 0 0 0 0 0 0 0 0 0 0 0 0 0 0 0 1.51177476727096e-05 1.51177476727096e-05 1.51177476727096e-05 1.51177476727096e-05 1.51177476727096e-05 1.21981128642366e-05 1.16094914751214e-05 1.21969267605782e-05 1.51177476727096e-05 9.86384301499796e-06 1.62942940237626e-05 6.33056043658527e-06 4.37029913478993e-06 3.4910261140841e-06 4.12591516068001e-06 5.02375281177399e-06 4.07067336935594e-06 2.46309994119854e-06 2.46342326500838e-06 2.59113186068814e-06 4.74611830990837e-06 3.26939494823838e-06 1.85554579145236e-06 2.38704187759819e-06 3.55449625378332e-06 3.06276346706481e-06 6.18212688851425e-06 7.14007507750532e-06 7.77576139940684e-06 1.00126418222064e-05 1.69338338462971e-05 1.01586283254351e-05 1.41398896791132e-05 1.76415740793221e-05 1.0982761836761e-05 1.66468440077695e-05 9.30524006268751e-06 9.30524006268751e-06 9.30524006268751e-06 9.30524006268751e-06 -9999 -9999 -9999 -9999 -9999 -9999 -9999 -9999 -9999 -9999 -9999 -9999 -9999 -9999 -9999 -9999 -9999 -9999 -9999 -9999
0 0 0 0 0 0 0 0 0 0 0 0 0 0 0 0 0 0 1.51177476727096e-05 1.51177476727096e-05 1.51177476727096e-05 1.51177476727096e-05 1.51177476727096e-05 1.51177476727096e-05 1.51177476727096e-05 1.51177476727096e-05 1.51177476727096e-05 1.51177476727096e-05 9.64105316126493e-06 2.77435838331469e-05 8.32617579246446e-07 2.94009929418796e-06 6.18212688851425e-06 5.71100338529986e-06 4.12822437014012e-06 3.45434641897217e-06 2.90641134232482e-06 1.4425629945485e-06 4.52803818667626e-06 4.71146745942932e-06 3.14341820432228e-06 2.50356512980765e-06 3.25805134118059e-06 2.88595340263427e-06 1.71749763712895e-06 3.37945617008228e-06 1.25838130094348e-05 9.38664635157883e-06 1.82456286957736e-05 1.76415740793221e-05 1.40353755723612e-05 7.87941102921616e-06 1.22821021882132e-05 1.66468440077695e-05 9.30524006268751e-06 9.30524006268751e-06 9.30524006268751e-06 9.30524006268751e-06 -9999 -9999 -9999 -9999 -9999 -9999 -9999 -9999 -9999 -9999 -9999 -9999 -9999 -9999 -9999 -9999 -9999 -9999 -9999 -9999
0 0 0 0 0 0 0 0 0 0 0 0 0 0 0 0 0 0 0 1.51177476727096e-05 1.51177476727096e-05 1.51177476727096e-05 1.51177476727096e-05 1.51177476727096e-05 1.51177476727096e-05 1.51177476727096e-05 1.51177476727096e-05 1.51177476727096e-05 1.28449282342218e-05 3.43538593043438e-06 1.18879492682027e-06 6.18212688851425e-06 6.18212688851425e-06 5.09167779771586e-06 4.01545847884974e-06 4.56278039680879e-06 4.59551581402889e-06 3.15513789144853e-06 4.07669743641047e-06 2.68776629824106e-06 3.86339024982841e-06 3.4347001417827e-06 2.49227087471535e-06 3.80503412236409e-06 1.97025337206888e-06 5.7214154553247e-06 1.09752152024638e-05 1.22307564173227e-05 8.60643278917556e-06 8.86196888089716e-06 1.76415740793221e-05 1.44250526660897e-05 1.41506546825272e-05 1.67260253245748e-05 9.30524006268751e-06 9.30524006268751e-06 9.30524006268751e-06 9.30524006268751e-06 -9999 -9999 -9999 -9999 -9999 -9999 -9999 -9999 -9999 -9999 -9999 -9999 -9999 -9999 -9999 -9999 -9999 -9999 -9999 -9999
0 0 0 0 0 0 0 0 0 0 0 0 0 0 0 0 0 0 0 0 0 1.51177476727096e-05 1.51177476727096e-05 1.51177476727096e-05 1.51177476727096e-05 1.51177476727096e-05 1.51177476727096e-05 1.51177476727096e-05 7.65428281617913e-06 1.14185613619439e-05 6.37599387710234e-05 1.18091234982897e-06 1.05917921511798e-06 1.69659491009823e-06 1.16339209740676e-06 6.19266279867218e-06 3.3688916919172e-06 3.70773044989103e-06 3.16595486003735e-06 2.29180737829543e-06 0.000193220254661016 1.83820043572542e-06 4.37026944555577e-06 2.59656398645142e-06 2.78887553500167e-06 2.03053900058332e-06 2.99178562311279e-06 9.58124280613247e-06 9.12139686697977e-06 1.57351829009584e-05 1.76415740793221e-05 1.09754370919073e-05 1.76415740793221e-05 1.76415740793221e-05 9.30524006268751e-06 9.30524006268751e-06 9.30524006268751e-06 9.35430509127932e-06 -9999 -9999 -9999 -9999 -9999 -9999 -9999 -9999 -9999 -9999 -9999 -9999 -9999 -9999 -9999 -9999 -9999 -9999 -9999 -9999
0 0 0 0 0 0 0 0 0 0 0 0 0 0 0 0 0 0 0 0 0 0 1.51177476727096e-05 1.51177476727096e-05 1.51177476727096e-05 1.51177476727096e-05 1.51177476727096e-05 1.51177476727096e-05 1.40999422421969e-05 7.55738856044444e-06 5.04569513259239e-07 1.46200779223574e-06 9.49860855304008e-07 1.5868012052588e-06 1.69659491009823e-06 7.36656996738771e-07 6.19260150461945e-06 3.14074341740189e-06 5.83310355245204e-06 3.38588065920138e-06 3.47853174376725e-06 3.11215966603378e-06 2.66764018411697e-06 4.47722628207081e-06 2.60681933243911e-06 3.81319958199048e-06 2.93165934169799e-06 2.81199074413077e-06 7.81179676481861e-06 8.66882147079256e-06 9.58769540235533e-06 1.1405481386616e-05 1.08532150133703e-05 1.76415740793221e-05 9.37925568327611e-06 9.30524006268751e-06 9.30524006268751e-06 -9999 -9999 -9999 -9999 -9999 -9999 -9999 -9999 -9999 -9999 -9999 -9999 -9999 -9999 -9999 -9999 -9999 -9999 -9999 -9999 -9999
0 0 0 0 0 0 0 0 0 0 0 0 0 0 0 0 0 0 0 0 0 0 0 0 1.51177476727096e-05 1.51177476727096e-05 1.51177476727096e-05 1.51177476727096e-05 1.51177476727096e-05 1.04217962654459e-05 1.26272366491626e-06 1.04857748357634e-06 9.89849495753111e-07 7.7501875287056e-07 1.69659491009823e-06 1.55600987434578e-06 0.000297215321463546 3.36120102921948e-06 3.28104014668953e-06 6.18212688851425e-06 2.02325160477267e-06 3.84387655873361e-06 4.3680765508809e-06 5.94919754297622e-06 3.40914662646702e-06 5.30930521564435e-06 2.45291829286455e-06 2.89879917509333e-06 7.32394733464084e-06 9.29949754534803e-06 8.21013177228724e-06 1.26879632976869e-05 1.76415740793221e-05 0.000133706154440146 1.37964185798904e-05 9.79395995277019e-06 9.30524006268751e-06 -9999 -9999 -9999 -9999 -9999 -9999 -9999 -9999 -9999 -9999 -9999 -9999 -9999 -9999 -9999 -9999 -9999 -9999 -9999 -9999 -9999
0 0 0 0 0 0 0 0 0 0 0 0 0 0 0 0 0 0 0 0 0 0 0 0 0 1.51177476727096e-05 1.51177476727096e-05 1.51177476727096e-05 1.51177476727096e-05 1.51177476727096e-05 1.69659491009823e-06 1.69659491009823e-06 1.18765602748523e-06 9.36144443424724e-07 8.74450846295034e-07 1.69659491009823e-06 1.18686009726789e-06 4.06757038853379e-06 3.20688765224041e-06 1.41125903693046e-06 3.7080443299859e-06 2.41698090899061e-06 4.27595208414807e-06 3.8101461518784e-06 2.79047534516119e-06 2.5443379871461e-06 4.35818372787792e-06 4.2760976601883e-06 6.6660062762171e-06 1.76415740793221e-05 1.76415740793221e-05 1.76415740793221e-05 1.32076312860808e-05 1.24371598398068e-05 1.76415740793221e-05 9.98667750948613e-06 1.03363188954733e-05 -9999 -9999 -9999 -9999 -9999 -9999 -9999 -9999 -9999 -9999 -9999 -9999 -9999 -9999 -9999 -9999 -9999 -9999 -9999 -9999 -9999
0 0 0 0 0 0 0 0 0 0 0 0 0 0 0 0 0 0 0 0 0 0 0 0 0 0 0 0 1.51177476727096e-05 1.51177476727096e-05 1.69659491009823e-06 1.18747045126828e-06 5.22220645564322e-07 7.74648228583936e-07 8.13967016390503e-07 1.41844831572831e-06 9.05875717859548e-07 1.69659491009823e-06 6.18212688851425e-06 4.19969918121487e-06 2.50161533417924e-06 4.59189354955141e-06 1.94776153102185e-06 4.2859324697368e-06 3.05289201142832e-06 2.57075053505106e-06 3.93532185565061e-06 3.95277931441279e-06 4.35718131170202e-06 5.46404951241064e-06 1.76415740793221e-05 1.17060832757687e-05 7.63079864873423e-06 1.76415740793221e-05 1.76415740793221e-05 1.46514921068602e-05 -9999 -9999 -9999 -9999 -9999 -9999 -9999 -9999 -9999 -9999 -9999 -9999 -9999 -9999 -9999 -9999 -9999 -9999 -9999 -9999 -9999 -9999
0 0 0 0 0 0 0 0 0 0 0 0 0 0 0 0 0 0 0 0 0 0 0 0 0 0 0 0 1.51177476727096e-05 1.69659491009823e-06 1.69659491009823e-06 1.69659491009823e-06 8.95452162662033e-07 6.58322959620966e-07 1.43423799283378e-06 1.69659491009823e-06 1.24221309809948e-06 1.61824937253926e-06 4.35105415454051e-06 4.3622197682886e-06 4.86976932075109e-06 2.52740812378093e-06 3.85136305489245e-06 3.18756865202706e-06 2.37709808760825e-06 3.03923680699778e-06 1.96863554912335e-06 3.39380312762811e-06 6.18212688851425e-06 4.67020672906287e-06 1.76415740793221e-05 1.23763645434029e-05 1.28508495388452e-05 0.00022706616693178 1.31876833450055e-05 1.74678698301532e-05 -9999 -9999 -9999 -9999 -9999 -9999 -9999 -9999 -9999 -9999 -9999 -9999 -9999 -9999 -9999 -9999 -9999 -9999 -9999 -9999 -9999 -9999
0 0 0 0 0 0 0 0 0 0 0 0 0 0 0 0 0 0 0 0 0 0 0 0 0 0 0 0 0 1.69659491009823e-06 1.69659491009823e-06 1.69659491009823e-06 1.18703340213778e-06 1.69659491009823e-06 1.02060206354933e-06 4.37674765620127e-07 8.65473732952731e-07 8.12942312064319e-07 1.07473544145534e-06 3.49694596798605e-06 3.48031394937706e-05 3.39399904743888e-06 6.18212688851425e-06 5.70862720954493e-06 1.80765238234444e-06 2.02481659133389e-06 2.45768799944027e-06 6.19214289128115e-06 2.78076186127535e-06 3.17716606009995e-06 1.72781844567741e-06 7.3272985054286e-06 8.46901358989685e-05 1.81047337497616e-05 2.89242933420117e-06 1.70474772473626e-05 -9999 -9999 1.47127940857814e-05 1.46514921068602e-05 -9999 -9999 -9999 -9999 -9999 -9999 -9999 -9999 -9999 -9999 -9999 -9999 -9999 -9999 -9999 -9999 -9999 -9999
0 0 0 0 0 0 0 0 0 0 0 0 0 0 0 0 0 0 0 0 0 0 0 0 0 0 0 0 0 0 1.69659491009823e-06 1.69659491009823e-06 1.69659491009823e-06 1.69659491009823e-06 1.69659491009823e-06 5.77917350228153e-07 6.79393597082909e-07 6.98304902888063e-07 1.18654853725981e-06 1.04587169403621e-06 6.87771068011345e-07 2.50383842974473e-06 1.74249063033971e-06 2.55066290939773e-06 1.70506558847888e-06 2.27526831798804e-06 2.57663469853437e-06 5.40363431023561e-06 5.40370027285322e-06 3.0504068566758e-06 1.48223729964976e-06 0.000231534148451172 5.14369397438965e-06 0.000216598694903113 5.63299430832314e-06 1.57595641971831e-05 -9999 -9999 1.30356472666741e-05 1.4472740133459e-05 1.52176121592156e-05 -9999 -9999 -9999 -9999 -9999 -9999 -9999 -9999 -9999 -9999 -9999 -9999 -9999 -9999 -9999 -9999 -9999
0 0 0 0 0 0 0 0 0 0 0 0 0 0 0 0 0 0 0 0 0 0 0 0 0 0 0 0 0 0 0 1.69659491009823e-06 1.69659491009823e-06 1.69659491009823e-06 1.69659491009823e-06 5.62571846397345e-07 6.27686842414569e-07 7.88595485499578e-07 7.17865881244703e-07 3.47069666608227e-07 4.97434313249123e-07 6.18212688851425e-06 3.29361176485034e-06 4.11735965215953e-06 2.50835910151433e-06 2.38203975511646e-06 2.29064574805659e-06 2.44162034719302e-06 1.91212201213488e-06 9.24279556363057e-07 1.84408804099855e-06 2.50560546825189e-06 4.45631122656515e-06 3.74602868566356e-06 4.05696348355274e-06 1.62988054610994e-05 1.35328399482626e-05 -9999 -9999 1.61910573465431e-05 1.45917798756776e-05 -9999 -9999 -9999 -9999 -9999 -9999 -9999 -9999 -9999 -9999 -9999 -9999 -9999 -9999 -9999 -9999 -9999
0 0 0 0 0 0 0 0 0 0 0 0 0 0 0 0 0 0 0 0 0 0 0 0 0 0 0 0 0 0 0 1.69659491009823e-06 1.69659491009823e-06 1.69659491009823e-06 1.69659491009823e-06 7.15197559766065e-07 6.30723357731902e-07 1.28110950585717e-06 8.60752708121111e-07 1.90814704254391e-07 1.92726399226298e-07 2.24881810909361e-06 2.45511012585581e-06 4.05929409452153e-06 2.66122852907458e-06 2.01889338541214e-06 2.3747199845336e-06 1.19175678499472e-06 2.09896701176764e-06 2.66422229059355e-06 7.94006312283333e-05 6.18212688851425e-06 1.05866999492835e-05 3.79738253317119e-06 8.35022858749563e-05 7.69314718053813e-06 1.73815270397973e-05 1.08422573745247e-05 1.3083281731619e-05 1.42393639637996e-05 -9999 -9999 -9999 -9999 -9999 -9999 -9999 -9999 -9999 -9999 -9999 -9999 -9999 -9999 -9999 -9999 -9999 -9999
0 0 0 0 0 0 0 0 0 0 0 0 0 0 0 0 0 0 0 0 0 0 0 0 0 0 0 0 0 0 0 1.69659491009823e-06 1.69659491009823e-06 1.69659491009823e-06 6.97151972676446e-07 2.8848972042606e-07 6.68902062008933e-07 6.36507267964725e-07 5.75819368695115e-07 7.6035650972916e-07 9.85781850732139e-07 3.60959164355329e-06 4.13380735755454e-06 2.73694322675308e-06 3.99495178604429e-06 4.25407912533312e-06 2.72347462752359e-06 3.89652923342598e-06 3.46276666088681e-06 5.8299407847984e-06 4.30211837849463e-06 1.57237147265463e-06 4.85686628400374e-06 5.34931313662196e-06 4.08952230123387e-06 6.64929710128775e-06 1.72128815729864e-05 1.21839324698393e-05 1.54832387530586e-05 1.42972590914894e-05 -9999 -9999 -9999 -9999 -9999 -9999 -9999 -9999 -9999 -9999 -9999 -9999 -9999 -9999 -9999 -9999 -9999 -9999
0 0 0 0 0 0 0 0 0 0 0 0 0 0 0 0 0 0 0 0 0 0 0 0 0 0 0 0 0 0 0 1.69659491009823e-06 1.69659491009823e-06 1.69659491009823e-06 9.03040098737434e-07 5.25937617672746e-07 1.23241860068059e-06 8.82330470649979e-07 5.66305586989947e-05 3.34277669036966e-07 5.14770051643528e-07 5.76543270931561e-07 2.33465869835966e-06 2.18263410735017e-05 2.6985993576295e-06 3.18123490852562e-06 4.17323199394728e-06 2.84032225209431e-06 2.51461639549288e-06 2.04160702734823e-06 2.96097119851639e-06 5.20989184769287e-06 9.6344933579615e-05 6.57284873103904e-06 4.31346712997456e-06 3.83715164695861e-05 1.51921689358048e-05 1.35851218191685e-05 1.11491902001857e-05 -9999 -9999 -9999 -9999 -9999 -9999 -9999 -9999 -9999 -9999 -9999 -9999 -9999 -9999 -9999 -9999 -9999 -9999 -9999
0 0 0 0 0 0 0 0 0 0 0 0 0 0 0 0 0 0 0 0 0 0 0 0 0 0 0 0 0 0 0 0 1.69659491009823e-06 1.69659491009823e-06 8.00584353656891e-07 8.25978099318836e-07 5.5745108081389e-07 5.91314274506339e-07 6.31494150168843e-07 1.71364651646525e-05 7.64744597222456e-07 6.31717811947191e-07 5.53748517705148e-07 1.7669884056055e-06 2.97475506390909e-06 4.35490321320749e-06 3.60671698583956e-06 4.35763529373012e-06 3.6767495886931e-06 1.86691527078841e-06 4.05108870276156e-06 6.18212688851425e-06 1.54877072827693e-06 6.23224265199297e-06 6.23887241579286e-06 3.9818739674039e-06 1.17192344811704e-05 1.35851218191685e-05 -9999 -9999 -9999 -9999 -9999 -9999 -9999 -9999 -9999 -9999 -9999 -9999 -9999 -9999 -9999 -9999 -9999 -9999 -9999 -9999
0 0 0 0 0 0 0 0 0 0 0 0 0 0 0 0 0 0 0 0 0 0 0 0 0 0 0 0 0 0 0 0 1.69659491009823e-06 1.69659491009823e-06 1.42102081600928e-06 9.42732773234209e-07 4.02507134237705e-07 5.3678819528966e-07 7.09859457055777e-07 8.27620847493173e-07 5.00420024040966e-07 6.24327533241847e-07 9.33582831701236e-07 7.14523888513214e-07 2.74144983480453e-06 1.44082039768044e-06 2.74160841430523e-06 2.91892332027189e-06 1.69940181760862e-06 3.39525447018503e-06 3.85814953823607e-06 3.19912624420615e-06 6.18212688851425e-06 1.76415740793221e-05 1.76415740793221e-05 1.08123369130646e-05 8.63923076072249e-06 1.16034037196738e-05 1.3083281731619e-05 -9999 -9999 -9999 -9999 -9999 -9999 -9999 -9999 -9999 -9999 -9999 -9999 -9999 -9999 -9999 -9999 -9999 -9999 -9999
0 0 0 0 0 0 0 0 0 0 0 0 0 0 0 0 0 0 0 0 0 0 0 0 0 0 0 0 0 0 0 0 1.69659491009823e-06 1.69659491009823e-06 9.8110609968827e-07 9.74300132553134e-07 9.67930913600632e-07 9.76407310505549e-07 1.46869254233499e-06 1.34470895582137e-06 8.16292663922765e-07 1.36778118518223e-06 5.18557093626614e-07 1.08748583560247e-06 3.60471205551038e-06 2.07085125659334e-06 1.99062255514327e-06 2.45666973956275e-05 2.63520590933137e-06 1.55886709615458e-06 1.20835617434628e-06 1.64163189531734e-06 0.00016446347146247 6.18212688851425e-06 1.89785031702727e-05 1.76415740793221e-05 6.59988977530231e-05 6.0753645062428e-05 1.74678698301532e-05 1.36368646356009e-05 -9999 -9999 -9999 -9999 -9999 -9999 -9999 -9999 -9999 -9999 -9999 -9999 -9999 -9999 -9999 -9999 -9999 -9999
0 0 0 0 0 0 0 0 0 0 0 0 0 0 0 0 0 0 0 0 0 0 0 0 0 0 0 0 0 0 0 0 1.69659491009823e-06 1.69659491009823e-06 1.69659491009823e-06 1.69659491009823e-06 1.18367140929512e-06 1.32009190776465e-06 1.69659491009823e-06 1.55453780265705e-06 9.88075993996475e-07 5.262672453478e-07 3.93083052798669e-07 5.54563503278399e-07 1.59282670465455e-06 2.7125126185505e-06 1.68909948130701e-06 1.76116871933321e-06 1.79649556502092e-06 2.78315538983385e-06 2.79511435068346e-06 2.18511130860832e-06 3.46624280791158e-06 4.35000993264262e-06 1.33598303326318e-05 9.92860940541942e-06 3.43414318122343e-05 2.58048800881256e-06 1.15589464525862e-05 1.54165699370629e-05 -9999 -9999 -9999 -9999 -9999 -9999 -9999 -9999 -9999 -9999 -9999 -9999 -9999 -9999 -9999 -9999 -9999 -9999
0 0 0 0 0 0 0 0 0 0 0 0 0 0 0 0 0 0 0 0 0 0 0 0 0 0 0 0 0 0 0 0 1.69659491009823e-06 1.69659491009823e-06 1.69659491009823e-06 8.43370015774459e-07 9.12206254724443e-07 1.06978532374551e-06 1.18418159154197e-06 1.69659491009823e-06 7.77388872246647e-07 8.8505387390696e-07 6.52969184942083e-07 6.66520857306586e-07 1.67132391313058e-06 2.0934075395003e-06 2.49949957064716e-06 2.35748777634462e-06 1.71538706691221e-06 1.74052171709289e-06 5.02579195838371e-06 1.79186034600447e-06 2.19439906652852e-06 0.000293319607415375 4.5568268102571e-06 7.6841081522972e-05 9.29445584513531e-06 1.23996714477452e-05 1.40056065398563e-05 1.81111581388003e-05 -9999 -9999 -9999 -9999 -9999 -9999 -9999 -9999 -9999 -9999 -9999 -9999 -9999 -9999 -9999 -9999 -9999 -9999
0 0 0 0 0 0 0 0 0 0 0 0 0 0 0 0 0 0 0 0 0 0 0 0 0 0 0 0 0 0 0 0 1.69659491009823e-06 1.69659491009823e-06 1.69659491009823e-06 1.69659491009823e-06 1.46823686407656e-06 5.32069963178884e-07 1.18392278445699e-06 7.02006228895441e-07 8.71441223069248e-07 6.10314416524938e-07 6.97712292326988e-07 8.25704876898067e-07 2.36943467418553e-06 2.27166741646985e-06 3.13697938123967e-06 1.4905888489256e-06 1.68687629658293e-06 2.43944285924825e-06 2.05620385645962e-06 6.18212688851425e-06 3.18383488557336e-06 3.51406818791878e-06 2.17788953456653e-06 3.60114146637034e-06 1.72057528560871e-05 7.14224531646162e-05 9.97626627174196e-06 1.89787447352998e-05 1.82690495091951e-05 -9999 -9999 -9999 -9999 -9999 -9999 -9999 -9999 -9999 -9999 -9999 -9999 -9999 -9999 -9999 -9999 -9999
0 0 0 0 0 0 0 0 0 0 0 0 0 0 0 0 0 0 0 0 0 0 0 0 0 0 0 0 0 0 0 0 1.69659491009823e-06 1.69659491009823e-06 5.26871425832768e-07 5.26871425832768e-07 3.62860691360409e-07 5.17381327626837e-07 3.33090064304038e-07 4.05312407521811e-07 3.62958916318279e-07 3.62524089222263e-07 3.57502352911707e-07 1.60952749452976e-07 3.00103153584365e-07 2.64203633096205e-07 5.89215753629207e-06 2.77073351675147e-06 5.76546761581531e-06 3.77858888144666e-06 4.26873899039289e-06 3.69883303329719e-06 4.4916336280687e-06 2.86394479112922e-06 5.07353225799716e-06 5.83618952372328e-06 1.50636845281571e-05 1.21066950635649e-05 5.40523632781347e-05 7.72668625755565e-06 1.24345411461202e-05 -9999 -9999 -9999 -9999 -9999 -9999 -9999 -9999 -9999 -9999 -9999 -9999 -9999 -9999 -9999 -9999 -9999
0 0 0 0 0 0 0 0 0 0 0 0 0 0 0 0 0 0 0 0 0 0 0 0 0 0 0 0 0 0 0 0 5.26871425832768e-07 5.26871425832768e-07 5.26871425832768e-07 5.26871425832768e-07 1.43975064065564e-07 5.06601855578001e-07 5.26871425832768e-07 3.62718791586407e-07 5.26871425832768e-07 3.62909526284786e-07 2.5557639516344e-07 3.38707664851597e-07 1.88977320411436e-07 1.55562028125239e-07 3.56006846429056e-06 4.49454694437795e-06 3.40881085492627e-06 4.45901499655127e-06 4.54172541221624e-06 6.10417645063099e-06 4.55120666643499e-06 1.68435367337706e-06 4.64025625778847e-05 8.41365061322684e-06 1.11141518615629e-05 8.22666296545453e-06 9.43363644794091e-06 1.5250579005953e-05 9.66809066747376e-06 1.81746006137169e-05 -9999 -9999 1.67176639719024e-05 -9999 -9999 -9999 -9999 -9999 -9999 -9999 -9999 -9999 -9999 -9999 -9999 -9999
0 0 0 0 0 0 0 0 0 0 0 0 0 0 0 0 0 0 0 0 0 0 0 0 0 0 0 0 0 0 0 0 5.26871425832768e-07 5.26871425832768e-07 5.26871425832768e-07 5.26871425832768e-07 1.85954477911521e-07 2.52075517558972e-07 4.34056700106197e-07 3.62728993792296e-07 5.26871425832768e-07 3.62796323519409e-07 3.07430523642029e-07 1.72425267944325e-07 1.51002382340317e-07 1.73130708296717e-07 1.76020949995784e-07 4.41853548227098e-06 3.94299333889226e-06 3.60057450729511e-06 3.71668039760457e-06 3.07695350623093e-06 3.05049412382028e-06 2.32445880320765e-06 3.56066995312652e-06 0.000360793588220025 4.65975072922798e-06 1.93671740482107e-05 1.34825123497665e-05 0.000386378440412988 1.46224587886176e-05 3.46546800483686e-05 1.52764143038565e-05 1.11799063852357e-05 1.68767438277202e-05 -9999 -9999 -9999 -9999 -9999 -9999 -9999 -9999 -9999 -9999 -9999 -9999 -9999
0 0 0 0 0 0 0 0 0 0 0 0 0 0 0 0 0 0 0 0 0 0 0 0 0 0 0 0 0 0 0 0 5.26871425832768e-07 5.26871425832768e-07 5.26871425832768e-07 5.26871425832768e-07 5.26871425832768e-07 4.04603733850971e-07 5.26871425832768e-07 5.26871425832768e-07 3.62678761761454e-07 4.05084289025922e-07 1.73426960741012e-07 2.11014545242235e-07 2.50078882328228e-07 1.42528618177826e-07 2.09338069831548e-07 5.02748423461921e-06 3.54172189536669e-06 3.43028482334045e-06 5.7361986119749e-06 3.9030184940517e-06 3.48408437544072e-06 4.40400286241575e-06 2.02396948228499e-06 5.20602817711507e-06 1.11141518615629e-05 6.07999700190741e-06 5.06841708590976e-05 1.31844186136852e-05 1.21051381165836e-05 9.0868154584771e-05 1.87528384189819e-05 1.28402714232552e-05 1.39532987968769e-05 -9999 -9999 -9999 -9999 -9999 -9999 -9999 -9999 -9999 -9999 -9999 -9999 -9999
0 0 0 0 0 0 0 0 0 0 0 0 0 0 0 0 0 0 0 0 0 0 0 0 0 0 0 0 0 0 0 0 0 5.26871425832768e-07 5.26871425832768e-07 5.26871425832768e-07 5.26871425832768e-07 3.46686816471478e-07 3.79400011435558e-07 3.62093151379278e-07 5.26871425832768e-07 3.38824035991986e-05 3.37371850120795e-07 4.58680055465311e-07 4.58677327512735e-07 5.26871425832768e-07 2.75957652921888e-07 5.82770395104813e-06 9.88571701311451e-06 7.12869683079503e-06 4.34234669635177e-06 4.34604921940491e-06 6.81364851358852e-06 3.02666399457718e-06 2.15986399137784e-06 3.60535030654747e-06 7.85336483833707e-06 6.60561956446629e-06 9.3062109601152e-06 1.39701079537261e-05 8.93199537589031e-06 1.21980283029464e-05 1.93671740482107e-05 1.12149353487434e-05 -9999 -9999 -9999 -9999 -9999 -9999 -9999 -9999 -9999 -9999 -9999 -9999 -9999 -9999
0 0 0 0 0 0 0 0 0 0 0 0 0 0 0 0 0 0 0 0 0 0 0 0 0 0 0 0 0 0 0 0 0 5.26871425832768e-07 5.26871425832768e-07 5.26871425832768e-07 5.26871425832768e-07 5.26871425832768e-07 3.62251460098271e-07 5.26871425832768e-07 5.26871425832768e-07 5.26871425832768e-07 4.86280997213312e-07 2.99763488212746e-07 1.16855824857245e-07 1.94890931075304e-07 4.26381183304359e-07 3.03527360696775e-07 1.02824507653139e-05 8.15056472820962e-06 1.04932230039775e-05 3.91950688163222e-06 4.14563797098294e-06 3.78112746176002e-06 5.33891165396016e-06 3.52181077415687e-06 4.74193544819987e-06 0.00080606803085904 1.93671740482107e-05 1.93671740482107e-05 1.3073726405035e-05 0.000140359170468793 0.000143722084994966 1.47665110910326e-05 -9999 -9999 -9999 -9999 -9999 -9999 -9999 -9999 -9999 -9999 -9999 -9999 -9999 -9999
0 0 0 0 0 0 0 0 0 0 0 0 0 0 0 0 0 0 0 0 0 0 0 0 0 0 0 0 0 0 0 0 0 5.26871425832768e-07 5.26871425832768e-07 5.26871425832768e-07 5.26871425832768e-07 5.26871425832768e-07 5.26871425832768e-07 5.26871425832768e-07 5.26871425832768e-07 5.26871425832768e-07 4.0915807392419e-07 2.22803409872481e-07 1.60670777177681e-07 1.43296792682432e-07 4.67473520287047e-07 4.26327973612854e-07 6.25209075724421e-06 8.28079021199151e-06 4.81645878909277e-06 4.77825254788371e-06 3.47007185426397e-06 1.19133644666864e-05 3.66116407814708e-06 3.41031567174069e-06 6.49266367577892e-06 1.11141518615629e-05 1.11141518615629e-05 1.93671740482107e-05 7.63219627908086e-06 3.25873416158253e-06 1.09656196956729e-05 1.80827839856763e-05 1.27479789085913e-05 1.26124055627243e-05 1.63321051497142e-05 1.69581549779358e-05 -9999 -9999 -9999 -9999 -9999 -9999 -9999 -9999 -9999 -9999
0 0 0 0 0 0 0 0 0 0 0 0 0 0 0 0 0 0 0 0 0 0 0 0 0 0 0 0 0 0 0 0 0 5.26871425832768e-07 5.26871425832768e-07 5.26871425832768e-07 5.26871425832768e-07 5.26871425832768e-07 5.26871425832768e-07 3.67722770606223e-07 5.17306806930513e-07 3.62359346209148e-07 5.09954840093029e-07 3.44747208038534e-07 1.25765563561373e-07 1.04421665021386e-07 1.70598272435821e-07 1.49536856629458e-07 9.88283306537917e-06 0.000250335735767867 7.15688586263372e-06 4.23107925759718e-06 4.72425852534723e-06 4.74482575202617e-06 2.05767575034998e-06 2.81648026390174e-06 6.34094650699435e-06 6.92402316061275e-06 7.65818658341351e-06 1.11141518615629e-05 1.43086635235827e-05 5.6900434063188e-05 1.46700094733528e-05 1.93671740482107e-05 1.94702991452921e-05 1.93671740482107e-05 1.93671740482107e-05 1.40639446089064e-05 -9999 -9999 -9999 -9999 -9999 -9999 -9999 -9999 -9999 -9999
0 0 0 0 0 0 0 0 0 0 0 0 0 0 0 0 0 0 0 0 0 0 0 0 0 0 0 0 0 0 0 0 0 0 5.26871425832768e-07 5.26871425832768e-07 5.26871425832768e-07 5.26871425832768e-07 5.26871425832768e-07 5.26871425832768e-07 3.61858256570663e-07 5.26871425832768e-07 5.26871425832768e-07 3.73304667574182e-07 1.51683766652723e-07 1.43254229928464e-07 2.42415960760289e-07 8.33941943816399e-06 6.32620008389564e-06 6.83186268769241e-06 5.01778575293184e-06 6.91493513830789e-06 5.09268823460182e-06 8.62968228598728e-06 2.78176886946354e-06 1.95314460572002e-06 4.98560251990524e-06 6.32647089008608e-06 1.11141518615629e-05 1.93671740482107e-05 1.93671740482107e-05 1.93671740482107e-05 1.34101154404967e-05 9.43638807512313e-06 1.25177758480563e-05 1.94702824014278e-05 1.93671740482107e-05 1.89532402613898e-05 -9999 -9999 -9999 -9999 -9999 -9999 -9999 -9999 -9999 -9999
0 0 0 0 0 0 0 0 0 0 0 0 0 0 0 0 0 0 0 0 0 0 0 0 0 0 0 0 0 0 0 0 0 0 5.26871425832768e-07 5.26871425832768e-07 5.26871425832768e-07 5.26871425832768e-07 5.26871425832768e-07 4.18132974843337e-07 4.41715859969106e-07 3.62019149797201e-07 3.73373575841992e-07 4.79694603592575e-07 1.26072268396685e-07 1.81311772068674e-07 1.84829275811047e-07 2.26380645220556e-07 1.09392173942634e-05 1.11141518615629e-05 6.56838367871495e-06 4.7329598386782e-06 4.04053857659808e-06 5.13290507280345e-06 5.04946915660802e-06 2.12415568771238e-06 2.51374087583865e-06 5.81675649074652e-06 4.02318423619549e-06 7.6539060644252e-06 1.93671740482107e-05 1.93671740482107e-05 8.22269673296011e-06 3.57047555965408e-06 9.03849593525402e-06 1.25665495390343e-05 1.03534027658971e-05 1.93671740482107e-05 -9999 -9999 -9999 -9999 -9999 -9999 -9999 -9999 -9999 -9999
0 0 0 0 0 0 0 0 0 0 0 0 0 0 0 0 0 0 0 0 0 0 0 0 0 0 0 0 0 0 0 0 0 0 0 5.26871425832768e-07 5.26871425832768e-07 5.26871425832768e-07 5.26871425832768e-07 5.26871425832768e-07 5.26871425832768e-07 3.61835027833432e-07 5.26871425832768e-07 2.11772442609398e-07 1.71445669470867e-05 1.24619245434388e-07 1.71628754864658e-07 1.90578923291154e-07 1.11141518615629e-05 1.11141518615629e-05 6.71010490074645e-06 5.49243181869888e-06 3.42480408868165e-06 3.77056675682425e-06 3.75299520482008e-06 5.596388574747e-06 4.32957213554253e-06 8.84953594775733e-06 3.75885134465102e-06 1.11141518615629e-05 1.34608730564873e-05 1.93671740482107e-05 1.92248502133049e-05 3.85261284342263e-06 1.12605490731239e-05 1.79432456251646e-05 1.3998793403302e-05 1.93671740482107e-05 -9999 -9999 -9999 -9999 -9999 -9999 -9999 -9999 -9999 -9999
0 0 0 0 0 0 0 0 0 0 0 0 0 0 0 0 0 0 0 0 0 0 0 0 0 0 0 0 0 0 0 0 0 0 0 5.26871425832768e-07 5.26871425832768e-07 5.26871425832768e-07 5.26871425832768e-07 4.74475688475514e-07 1.26706514987557e-07 5.26871425832768e-07 3.6161132476817e-07 3.23250562581717e-07 3.05419743808576e-07 2.33316350790465e-07 4.11498820399039e-07 2.52156506357141e-07 3.62047130903108e-07 7.65087133750988e-06 6.93572867448971e-06 9.73016974906429e-06 4.5178066036004e-06 4.04756143816218e-06 7.63843095252908e-06 3.51668596709468e-06 5.68409690261702e-06 6.92228933126703e-06 6.39902438243788e-06 7.65147675077475e-06 8.55147424207591e-06 1.70342659217097e-05 1.70429721201811e-05 1.12577795106135e-05 1.89319126036843e-05 1.12442947383954e-05 1.62850696469861e-05 1.93671740482107e-05 1.73726825599141e-05 -9999 -9999 -9999 -9999 -9999 -9999 -9999 -9999 -9999
0 0 0 0 0 0 0 0 0 0 0 0 0 0 0 0 0 0 0 0 0 0 0 0 0 0 0 0 0 0 0 0 0 0 0 5.26871425832768e-07 5.26871425832768e-07 5.26871425832768e-07 5.26871425832768e-07 5.26871425832768e-07 5.26871425832768e-07 3.29958972698101e-07 2.93075745744264e-07 5.26871425832768e-07 5.26871425832768e-07 2.01418102819087e-07 3.33386984294464e-07 2.23640464241514e-07 4.1142276941912e-07 1.11141518615629e-05 1.11141518615629e-05 8.27171946628621e-06 1.00747010996193e-05 6.56211841372234e-06 5.32451845789286e-06 6.23464498422397e-06 4.68457219341286e-06 1.11141518615629e-05 1.11141518615629e-05 1.11141518615629e-05 7.64915985010282e-06 1.67229550303922e-05 1.52743868446102e-05 1.93671740482107e-05 1.93671740482107e-05 1.34352444433785e-05 1.93671740482107e-05 1.93671740482107e-05 1.92610624893058e-05 1.72887710400083e-05 -9999 -9999 -9999 -9999 -9999 -9999 -9999 -9999
0 0 0 0 0 0 0 0 0 0 0 0 0 0 0 0 0 0 0 0 0 0 0 0 0 0 0 0 0 0 0 0 0 0 0 5.26871425832768e-07 5.26871425832768e-07 5.26871425832768e-07 4.97265894615197e-07 3.38201616186015e-07 3.61248205572247e-07 5.26871425832768e-07 5.26871425832768e-07 5.26871425832768e-07 4.11373506026899e-07 4.49770272574515e-07 3.61919059781779e-07 5.26871425832768e-07 5.26871425832768e-07 3.61914331510302e-07 1.11141518615629e-05 1.11141518615629e-05 7.64775507515553e-06 1.11141518615629e-05 1.11141518615629e-05 6.64475069076106e-06 7.42252981348579e-06 6.23915462312272e-06 1.11141518615629e-05 7.63216218340263e-06 1.11141518615629e-05 1.11141518615629e-05 1.93671740482107e-05 1.90090709591154e-05 1.93671740482107e-05 1.67215016099863e-05 1.50174500935648e-05 1.93538426676233e-05 1.93671740482107e-05 1.84591922413851e-05 1.71218670324497e-05 1.5751893871927e-05 -9999 -9999 -9999 -9999 -9999 -9999
0 0 0 0 0 0 0 0 0 0 0 0 0 0 0 0 0 0 0 0 0 0 0 0 0 0 0 0 0 0 0 0 0 0 0 0 5.26871425832768e-07 5.26871425832768e-07 1.7999286111445e-07 1.61760056266122e-07 1.4998868296297e-07 2.18264316138843e-07 5.26871425832768e-07 5.26871425832768e-07 5.26871425832768e-07 5.26871425832768e-07 2.75022500036732e-07 3.61500955150459e-07 3.61795261269949e-07 5.26871425832768e-07 1.11141518615629e-05 7.5329019965833e-06 7.8838279480139e-06 5.80492246803134e-06 5.8087523361602e-06 5.55413364603214e-06 6.08081741973875e-06 8.4048152571529e-06 5.3707981612049e-06 1.11141518615629e-05 1.11141518615629e-05 1.11141518615629e-05 5.80892526238536e-06 1.93671740482107e-05 1.93671740482107e-05 1.93671740482107e-05 1.94698503559263e-05 1.93671740482107e-05 1.93671740482107e-05 1.93671740482107e-05 1.93671740482107e-05 1.9157971516395e-05 1.9157971516395e-05 1.85566301938773e-05 -9999 -9999 -9999 -9999
0 0 0 0 0 0 0 0 0 0 0 0 0 0 0 0 0 0 0 0 0 0 0 0 0 0 0 0 0 0 0 0 0 0 0 0 5.26871425832768e-07 5.26871425832768e-07 1.95477171091495e-07 1.34951901988524e-07 5.16887068424763e-07 5.26871425832768e-07 3.78815920303777e-07 4.95998316905426e-07 5.26871425832768e-07 2.74875441662776e-07 2.87855206844391e-07 1.90026946981974e-07 3.22757003923068e-07 3.06486110150995e-07 5.31980673228831e-06 1.11141518615629e-05 7.53096808011004e-06 5.94215121211734e-06 8.17735281951907e-06 4.59989141582408e-06 6.08240198885355e-06 2.66230593367217e-06 6.38743867533696e-06 1.11141518615629e-05 1.11141518615629e-05 1.11141518615629e-05 1.93671740482107e-05 1.34456916714553e-05 1.93671740482107e-05 1.93671740482107e-05 1.93671740482107e-05 1.93671740482107e-05 1.93671740482107e-05 1.93671740482107e-05 1.93671740482107e-05 1.93671740482107e-05 1.93671740482107e-05 1.5613225838163e-05 1.9157971516395e-05 -9999 -9999 -9999
0 0 0 0 0 0 0 0 0 0 0 0 0 0 0 0 0 0 0 0 0 0 0 0 0 0 0 0 0 0 0 0 0 0 0 0 5.26871425832768e-07 5.26871425832768e-07 5.26871425832768e-07 5.26871425832768e-07 2.08915339077467e-07 3.24064327970088e-07 3.4103067637162e-07 1.91527371602442e-07 3.6168379214768e-07 5.26871425832768e-07 3.61443462205931e-07 5.26871425832768e-07 5.26871425832768e-07 3.61655723016317e-07 1.11141518615629e-05 7.64296947024479e-06 1.11141518615629e-05 1.11141518615629e-05 7.16743814741207e-06 8.74035743138845e-06 6.30820071104043e-06 4.63433445471399e-06 6.07774538510525e-06 6.72924360918346e-06 7.64099401587525e-06 5.15328963429383e-06 1.11141518615629e-05 1.93671740482107e-05 1.31112049083701e-05 1.71429945160584e-05 1.38586858261175e-05 1.93671740482107e-05 1.93671740482107e-05 1.93671740482107e-05 1.93671740482107e-05 1.93671740482107e-05 1.93671740482107e-05 1.93671740482107e-05 1.6257923172739e-05 -9999 -9999 -9999
0 0 0 0 0 0 0 0 0 0 0 0 0 0 0 0 0 0 0 0 0 0 0 0 0 0 0 0 0 0 0 0 0 0 0 0 5.26871425832768e-07 5.26871425832768e-07 5.26871425832768e-07 4.57843571155972e-07 4.01475102402091e-07 4.32441593374598e-07 3.09003238435607e-07 5.26871425832768e-07 5.26871425832768e-07 2.73831031080342e-07 2.32055936137471e-07 2.62651182534955e-07 5.26871425832768e-07 5.26871425832768e-07 5.26871425832768e-07 1.11141518615629e-05 5.42834789655125e-06 6.22836376140035e-06 9.87512568611868e-06 5.60774394513663e-06 4.51049136968832e-06 6.91069371368484e-06 6.15496515967898e-06 5.52408178124126e-06 1.11141518615629e-05 7.6352471456945e-06 1.11141518615629e-05 5.87049233844533e-06 1.57323086425961e-05 1.48663933456807e-05 1.64072279263642e-05 1.34015620559725e-05 1.93671740482107e-05 1.93671740482107e-05 1.93671740482107e-05 1.93671740482107e-05 1.93671740482107e-05 1.93671740482107e-05 1.93671740482107e-05 1.61089261100764e-05 1.93671740482107e-05 -9999
0 0 0 0 0 0 0 0 0 0 0 0 0 0 0 0 0 0 0 0 0 0 0 0 0 0 0 0 0 0 0 0 0 0 0 0 0 5.26871425832768e-07 5.26871425832768e-07 5.26871425832768e-07 1.87527148487288e-07 5.26871425832768e-07 2.65200552549146e-07 3.78061616959047e-07 4.18207652537388e-07 4.41268027756892e-07 3.61501991241815e-07 5.26871425832768e-07 4.7628945537738e-07 3.90985126420942e-07 5.26871425832768e-07 5.86823890582306e-06 7.52221263738564e-06 1.11141518615629e-05 9.49983211788002e-06 6.36472869517878e-06 1.11141518615629e-05 1.11141518615629e-05 1.11141518615629e-05 1.11141518615629e-05 1.07085650746031e-05 7.87743439352849e-06 1.11141518615629e-05 1.11141518615629e-05 1.93671740482107e-05 1.71399469252589e-05 1.69219872360941e-05 1.93671740482107e-05 6.87691621040719e-06 1.93671740482107e-05 1.93671740482107e-05 1.93671740482107e-05 1.93671740482107e-05 1.93671740482107e-05 1.93671740482107e-05 1.73726825599141e-05 -9999 -9999
0 0 0 0 0 0 0 0 0 0 0 0 0 0 0 0 0 0 0 0 0 0 0 0 0 0 0 0 0 0 0 0 0 0 0 0 0 5.26871425832768e-07 5.26871425832768e-07 5.26871425832768e-07 3.60890294359044e-07 4.33145182822944e-07 3.78454730728327e-07 3.16483410630423e-07 5.26871425832768e-07 1.71612295196745e-07 3.52632310103887e-07 3.61469518349341e-07 5.26871425832768e-07 3.45844202120972e-07 2.84364666174808e-07 1.85409898683276e-07 5.25627365503437e-06 7.15454976511169e-06 3.36426416780862e-06 4.29765180075623e-06 3.76802903759899e-06 7.63523198450703e-06 9.62263887190635e-06 9.74066893786521e-05 7.87582642388663e-06 1.11141518615629e-05 3.71320936377015e-06 9.34554019690272e-06 8.56724652426729e-06 9.22436252896746e-06 1.20415345192501e-05 6.57729392454871e-06 6.64954465033633e-06 1.552100018155e-05 1.03183402398926e-05 1.93671740482107e-05 1.93671740482107e-05 1.93671740482107e-05 1.93671740482107e-05 1.93671740482107e-05 1.93671740482107e-05 -9999
0 0 0 0 0 0 0 0 0 0 0 0 0 0 0 0 0 0 0 0 0 0 0 0 0 0 0 0 0 0 0 0 0 0 0 0 0 0 5.26871425832768e-07 5.26871425832768e-07 5.26871425832768e-07 5.26871425832768e-07 1.70682115373907e-07 1.60619275660805e-07 2.13331350554097e-07 1.94182522141913e-07 2.2320863501566e-07 3.72613136868104e-07 5.26871425832768e-07 5.26871425832768e-07 3.18169906802859e-07 1.70820197579661e-07 6.63329208837497e-06 5.41962765729742e-06 5.54110742653698e-06 5.72848274728758e-06 5.36561706907312e-06 8.53857039161948e-06 4.91467707156143e-06 7.83361284481825e-06 1.11141518615629e-05 6.22536776151757e-06 4.1704116652082e-06 4.71342289649708e-06 1.85648484238074e-05 1.41116548922103e-05 1.42922469056636e-05 1.93671740482107e-05 1.93671740482107e-05 1.93671740482107e-05 1.93671740482107e-05 1.93671740482107e-05 1.93671740482107e-05 1.93671740482107e-05 1.93671740482107e-05 1.93671740482107e-05 -9999 1.93671740482107e-05
0 0 0 0 0 0 0 0 0 0 0 0 0 0 0 0 0 0 0 0 0 0 0 0 0 0 0 0 0 0 0 0 0 0 0 0 0 0 5.26871425832768e-07 5.26871425832768e-07 5.26871425832768e-07 5.06340366960207e-07 2.33827725420424e-07 1.60260227721631e-07 2.91002315558396e-07 3.81480937760784e-07 5.26871425832768e-07 3.61298684788668e-07 5.26871425832768e-07 4.57980945379431e-07 2.65264108694079e-07 6.46306801119941e-06 5.92923966116594e-06 6.54452867500623e-06 6.46230024098263e-06 1.11141518615629e-05 7.63422369006299e-06 1.08598971711705e-05 3.43975946377462e-06 7.44630218111364e-06 6.43452925841258e-06 1.11141518615629e-05 5.93126616284493e-06 1.07076882054094e-05 9.34038313415474e-06 1.45248043273394e-05 1.5816820319784e-05 1.93671740482107e-05 1.93671740482107e-05 1.93671740482107e-05 1.93671740482107e-05 1.93671740482107e-05 1.93671740482107e-05 1.93671740482107e-05 1.93671740482107e-05 1.93671740482107e-05 -9999 -9999
0 0 0 0 0 0 0 0 0 0 0 0 0 0 0 0 0 0 0 0 0 0 0 0 0 0 0 0 0 0 0 0 0 0 0 0 0 0 0 4.25356195148549e-07 4.17838250380451e-07 3.2212035579309e-07 9.45439265822556e-08 1.28853112827979e-07 1.41136495877243e-07 2.88569461878615e-07 3.01102076464415e-07 4.17951351193616e-07 3.61248152904664e-07 2.3407915708487e-07 2.87478400476685e-07 3.13755251912029e-07 4.66445826238602e-06 1.11141518615629e-05 1.11141518615629e-05 5.79329766088114e-06 1.11141518615629e-05 1.10148714764217e-05 6.35215806326217e-06 2.19040928069642e-06 3.08184859056711e-06 3.87880889322844e-06 1.11141518615629e-05 9.32396290078116e-06 1.15103714131598e-05 1.06962814801524e-05 1.26600141828101e-05 1.23649247910467e-05 6.92941626712404e-06 9.85225361262304e-06 1.93671740482107e-05 1.93671740482107e-05 1.93671740482107e-05 1.93671740482107e-05 1.93671740482107e-05 1.93671740482107e-05 1.9157971516395e-05 1.47665110910326e-05
0 0 0 0 0 0 0 0 0 0 0 0 0 0 0 0 0 0 0 0 0 0 0 0 0 0 0 0 0 0 0 0 0 0 0 0 0 0 0 0 2.6488922082359e-07 5.17209784302127e-07 2.69485051493178e-07 2.4903410612844e-07 2.80670447016553e-07 4.1061384776345e-07 1.58736345119651e-07 2.74093989447028e-07 5.26871425832768e-07 2.74216805591443e-07 3.61101646839405e-07 5.26871425832768e-07 7.61962113687472e-06 1.11141518615629e-05 8.83354219983107e-06 9.32322031518537e-06 1.11141518615629e-05 1.11141518615629e-05 1.11141518615629e-05 1.00671600976468e-05 6.14388611277608e-06 1.11141518615629e-05 7.6310228361564e-06 8.12270115513666e-06 7.26800340393366e-06 1.60975211910481e-05 1.93671740482107e-05 1.2421835656782e-05 9.07609897969158e-06 1.34229180330301e-05 1.93671740482107e-05 1.93671740482107e-05 1.93671740482107e-05 1.93671740482107e-05 1.93671740482107e-05 1.93671740482107e-05 1.92610624893058e-05 1.27943747813006e-05
