NCOLS 78 
NROWS 66 
XLLCORNER -87.5 
YLLCORNER 25 
CELLSIZE 0.0833333333333333 
NODATA_value -9999 
-9999.000000000000000 -9999 -9999 -9999 0.978604834507972 0.983900508347065 -9999 -9999 -9999 -9999 -9999 0.657698444081602 0.733537113462676 0.900282116611544 0.882641416462255 0.973271126850026 -9999 -9999 -9999 -9999 -9999 -9999 -9999 -9999 -9999 -9999 -9999 -9999 -9999 -9999 -9999 -9999 -9999 -9999 -9999 -9999 -9999 -9999 -9999 -9999 -9999 -9999 -9999 -9999 -9999 -9999 -9999 -9999 -9999 -9999 -9999 -9999 -9999 -9999 -9999 -9999 -9999 -9999 -9999 -9999 -9999 -9999 -9999 -9999 -9999 -9999 -9999 -9999 -9999 -9999 -9999 -9999 0.89587522304362 0.89587522304362 0.89587522304362 0.835963567502578 0.656788522893854 0.511175862560183
-9999 -9999 -9999 0.909369567614769 0.761507245367934 0.759668925070091 0.796709322001341 0.857696136569083 0.981495631147245 0.875674125385595 0.855284691347392 0.809443296310376 0.833996818667414 0.835323670486179 0.85124411828031 -9999 -9999 -9999 -9999 -9999 -9999 -9999 -9999 -9999 -9999 -9999 -9999 -9999 -9999 -9999 -9999 -9999 -9999 -9999 -9999 -9999 -9999 -9999 -9999 -9999 -9999 -9999 -9999 -9999 -9999 -9999 -9999 -9999 -9999 -9999 -9999 -9999 -9999 -9999 -9999 -9999 -9999 -9999 -9999 -9999 -9999 -9999 -9999 -9999 -9999 -9999 -9999 -9999 -9999 -9999 -9999 -9999 -9999 0.89587522304362 0.89587522304362 0.833163957430567 0.7670931597311 0.685344545628369
0.796709322001341 0.809363480594607 0.906042467513168 0.909094831362242 0.975716186706291 0.999387962496767 0.995152026643028 0.916604914973081 0.999277576139481 0.99881914106855 0.993574147258662 0.998209694684137 0.941099523261167 0.985688161963195 0.913769598454951 0.9155258025093 0.896306062956621 -9999 -9999 -9999 -9999 -9999 -9999 -9999 -9999 -9999 -9999 -9999 -9999 -9999 -9999 -9999 -9999 -9999 -9999 -9999 -9999 -9999 -9999 -9999 -9999 -9999 -9999 -9999 -9999 -9999 -9999 -9999 -9999 -9999 -9999 -9999 -9999 -9999 -9999 -9999 -9999 -9999 -9999 -9999 -9999 -9999 -9999 -9999 -9999 -9999 -9999 -9999 -9999 -9999 -9999 -9999 -9999 0.815993015655564 0.838203255560187 0.838203255560187 0.653988912821843 0.519159691753778
0.998575162926028 0.998496747859059 0.998696452742179 0.995212902723238 0.997039481230969 0.999162707525789 0.997971914390123 0.965900046865685 0.996809259526485 0.999246881136404 0.999366325924954 0.988419475263296 0.992832477551833 0.997474655547948 0.926076906772319 0.92535115474875 0.929201723757325 0.875838127154518 0.765925438401398 0.926340791649181 0.8038178602006 0.681959415558392 -9999 -9999 -9999 -9999 -9999 -9999 -9999 -9999 -9999 -9999 -9999 -9999 -9999 -9999 -9999 -9999 -9999 -9999 -9999 -9999 -9999 -9999 -9999 -9999 -9999 -9999 -9999 -9999 -9999 -9999 -9999 -9999 -9999 -9999 -9999 -9999 -9999 -9999 -9999 -9999 -9999 -9999 -9999 -9999 -9999 -9999 -9999 -9999 -9999 -9999 -9999 0.399071690264885 0.810319139242955 0.859592276510354 0.894879806129127 0.57156839230183
0.992832249235481 0.996713686185887 0.999253419657015 0.999349391018321 0.998531423870572 0.98869693469293 0.848972926091704 0.833113519697298 0.689472290193564 0.622392843752001 0.997855166275548 0.998681745703089 0.999018075778871 0.990676176525343 0.975981650825169 0.943893881978785 0.905311354792522 0.939443668787386 0.887576206539144 0.963718808663836 0.96587041230307 0.680966711195683 0.659472741337302 0.737918658124858 -9999 -9999 -9999 -9999 -9999 -9999 -9999 -9999 -9999 -9999 -9999 -9999 -9999 -9999 -9999 -9999 -9999 0.706803160517315 -9999 -9999 -9999 -9999 -9999 -9999 -9999 -9999 -9999 -9999 -9999 -9999 -9999 -9999 -9999 -9999 -9999 -9999 -9999 -9999 -9999 -9999 -9999 -9999 -9999 -9999 -9999 -9999 -9999 -9999 -9999 -9999 0.89587522304362 0.768213003759904 0.822925383452925 0.89587522304362
0.999227912741353 0.999059167545066 0.999332942519868 0.998800569761233 0.999409990983578 0.805294894982441 0.592765435713864 0.990974977432811 0.855904412881016 0.655782606487416 0.980596026519042 0.793489198260184 0.978515940563909 0.993433403009453 0.997840247435647 0.994199141791716 0.957818577216121 0.971322315612582 0.97877017919243 0.983039315727594 0.997920529436958 0.998522154730471 0.888134361990639 0.728935806310434 -9999 -9999 -9999 -9999 -9999 -9999 -9999 -9999 -9999 -9999 -9999 -9999 -9999 -9999 0.6082625541536 0.584581022106837 0.508588302262637 0.493260375174799 0.524899419649063 0.759747439628379 -9999 -9999 -9999 -9999 -9999 -9999 -9999 -9999 -9999 -9999 -9999 -9999 -9999 -9999 -9999 -9999 -9999 -9999 -9999 -9999 -9999 -9999 -9999 -9999 -9999 -9999 -9999 -9999 -9999 -9999 0.89587522304362 0.731258150809355 0.682544935556358 0.646611116867366
0.95533222919983 0.997890801724296 0.996114325870073 0.891999062960372 0.854203544134352 0.663039115804894 0.807596625765812 0.991407812078463 0.991038885528134 0.992514293689862 0.994794034369612 0.288463810860555 0.277624792390416 0.985295535417237 0.989914954206641 0.985111400350356 0.992373693231668 0.982817784562687 0.991661735894551 0.992564827295203 0.998461566929018 0.999122474529581 0.997959224084752 0.935002563710801 -9999 -9999 -9999 -9999 -9999 -9999 -9999 -9999 -9999 -9999 -9999 -9999 -9999 -9999 0.803841153656592 0.779467649874776 0.782884960765618 0.504305033217385 0.482270092007272 0.476502046261985 0.545720076214271 -9999 -9999 -9999 -9999 -9999 -9999 -9999 -9999 -9999 -9999 -9999 -9999 -9999 -9999 -9999 -9999 -9999 -9999 -9999 -9999 -9999 -9999 -9999 -9999 -9999 -9999 -9999 -9999 -9999 0.89587522304362 0.814686530955292 0.708861270233265 0.803152137458606
0.966429501823371 0.995135001255615 0.816331072277402 0.345109671762469 0.809069258694786 0.975541066214296 0.975541066214296 0.991313087757408 0.975541066214296 0.99227756678683 0.990802829652954 0.99467175011291 0.849796162429925 0.996896697691939 0.994964204852902 0.998321895711759 0.999340798493387 0.981779132457777 0.990380636998368 0.997169875281075 0.998380862158382 0.99932748108128 0.998451080284109 0.997928393080904 0.998696001428241 0.932955116174936 -9999 -9999 -9999 -9999 -9999 -9999 -9999 -9999 -9999 -9999 0.684637552101958 0.891403141668241 0.811937328174129 0.615274264959627 0.747145783246388 0.669332008251017 0.61872501682033 0.559150614915835 0.478325434343128 0.472829581679423 -9999 -9999 -9999 -9999 -9999 -9999 -9999 -9999 -9999 -9999 -9999 -9999 -9999 -9999 -9999 -9999 -9999 -9999 -9999 -9999 -9999 -9999 -9999 -9999 -9999 -9999 -9999 -9999 0.89587522304362 0.886916470813184 0.605275697568846 0.863399746208289
0.994325532200067 0.877284263439156 0.68955688931091 0.711474111348171 0.975541066214296 0.975541066214296 0.975541066214296 0.993906359483685 0.975541066214296 0.987936885878651 0.990248967725011 0.991864031203903 0.994766287264987 0.995621896770558 0.993727475447741 0.994759411893769 0.997374717160592 0.998830979149984 0.992511334553179 0.997658908138257 0.999057782112788 0.999032372832571 0.999245104994134 0.998335699161167 0.998655707906026 0.861502354964691 -9999 -9999 -9999 -9999 -9999 -9999 0.789747884500264 0.759747439628379 0.744077648686044 0.870253938624424 0.900045287995209 0.89587522304362 0.958707313265067 0.840988937426321 0.702350378451139 0.873379036330556 0.974454775474268 0.946763068232812 0.620876268295689 0.64303435329745 0.481387893691827 -9999 -9999 -9999 -9999 -9999 -9999 -9999 -9999 -9999 -9999 -9999 -9999 -9999 -9999 -9999 -9999 -9999 -9999 -9999 -9999 -9999 -9999 -9999 -9999 -9999 -9999 -9999 -9999 0.874038264481932 0.776051911961536 0.89587522304362
0.456996360059744 0.289240780586791 0.828609537353012 0.98993585403141 0.897964495950246 0.975541066214296 0.975541066214296 0.975541066214296 0.975541066214296 0.990911242987544 0.975541066214296 0.975541066214296 0.989968146107894 0.989390476473371 0.992513618329854 0.991255574790346 0.99042470157221 0.996448850409667 0.998485104151599 0.998381342129006 0.998838792275045 0.999266921801463 0.998863090188274 0.999195539823733 0.995144912805666 0.750208411495918 0.772759940696833 -9999 -9999 -9999 0.772781477776863 0.814778864846493 0.741000434085326 0.90140014479135 0.978675513777004 0.794699685424855 0.981850488897278 0.832623835490538 0.82296980185242 0.688173699440107 0.76500022458736 0.759615319250754 0.81619863220408 0.930239691503169 0.894110177380625 0.796732205283274 0.575232704779974 0.559150614915835 -9999 -9999 -9999 -9999 -9999 -9999 -9999 -9999 -9999 -9999 -9999 -9999 -9999 -9999 -9999 -9999 -9999 -9999 -9999 -9999 -9999 -9999 -9999 -9999 -9999 -9999 -9999 0.880517362077158 0.885124720367097 0.884766370277879
0.126489965052558 0.159071750201935 0.652979748143099 0.975541066214296 0.897964495950246 0.975541066214296 0.975541066214296 0.897964495950246 0.975541066214296 0.975541066214296 0.975541066214296 0.975541066214296 0.975541066214296 0.975541066214296 0.988990134927096 0.954388769226272 0.97846078315268 0.898769042543271 0.511488475910389 0.998470378789008 0.999332111551412 0.99832709560076 0.998579288444706 0.99871910538591 0.998465560725158 0.989351680432038 0.989351680432038 0.989351680432038 0.968088955222235 0.845335033134346 0.762993664657647 0.913222338493294 0.951133643712243 0.910728229182056 0.944686149248651 0.915754836258207 0.926780133420208 0.928865336596447 0.885780648261879 0.857071979549255 0.767526537404141 0.824682188471392 0.830299616761039 0.681002277953128 0.77534846023666 0.889468727771451 0.865705770507917 0.869923114732593 0.588399052915173 -9999 -9999 -9999 -9999 -9999 -9999 -9999 -9999 -9999 -9999 -9999 -9999 -9999 -9999 -9999 -9999 -9999 -9999 -9999 -9999 -9999 -9999 -9999 -9999 -9999 -9999 -9999 0.722299398578919 0.870790716798399
0.542490479968219 0.783437953429853 0.88774237025501 0.92047841659286 0.834137290224204 1 1 0.897964495950246 0.897964495950246 0.975541066214296 0.975541066214296 0.975541066214296 0.975541066214296 0.991320610608478 0.975541066214296 0.947950208523365 0.516210666512024 0.704767407529611 0.5342858809219 0.998013662342239 0.999523165744058 0.999004550734244 0.998340885300341 0.998574954150019 0.989351680432038 0.989351680432038 0.994669095407114 0.989351680432038 0.996222255778362 0.989351680432038 0.988413676412024 0.99520076376193 0.931396940070916 0.991945695781772 0.991721965283445 0.986379963133142 0.908277839615887 0.908663891750603 0.91184325906276 0.819253068522245 0.873785359979921 0.746195416210583 0.955261723852827 0.837593255792081 0.946886473587817 0.88395285878545 0.971854926332852 0.89587522304362 0.535840531373551 -9999 -9999 -9999 -9999 -9999 -9999 -9999 -9999 -9999 -9999 -9999 -9999 -9999 -9999 -9999 -9999 -9999 -9999 -9999 -9999 -9999 -9999 -9999 -9999 -9999 -9999 -9999 0.89587522304362 0.89587522304362
0.763 0.768 0.7 0.834137290224204 0.834137290224204 0.951538461538462 0.972142857142857 1 0.834137290224204 1 1 0.897964495950246 0.975541066214296 0.975541066214296 0.975541066214296 0.711232819089948 0.650862890282738 0.580625054013885 0.998988769870688 0.972469908778184 0.998964656105172 0.997695221822183 0.997695221832412 0.989351680432038 0.997577417996433 0.99224243977701 0.998832365774761 0.991049147165293 0.997888645359144 0.989351680432038 0.992454700124189 0.978074187401098 0.992522817542103 0.992251813361162 0.98743837742602 0.994620269463206 0.877347219570175 0.89528581539823 0.93971804384932 0.947679536563521 0.928887674427895 0.941444153272566 0.885752209427888 0.93748764524552 0.785743443252254 0.882320447907177 0.859367183413494 0.89587522304362 0.723104033104422 0.522556554810138 0.737938280655711 -9999 -9999 -9999 -9999 -9999 -9999 -9999 -9999 -9999 -9999 -9999 -9999 -9999 -9999 -9999 -9999 -9999 -9999 -9999 -9999 -9999 -9999 -9999 -9999 -9999 0.89587522304362 0.89587522304362
0.752941176470588 0.7 0.7025 0.834137290224204 0.834137290224204 0.39 0.763846153846154 1 0.834137290224204 1 1 0.834137290224204 0.975541066214296 0.975541066214296 0.975541066214296 0.991848494534361 0.708912258314299 0.352209868186944 0.981711923435819 0.992950617199899 0.941156126731011 0.997783041964616 0.99681409433722 0.999135702011861 0.998808286767222 0.998930169405451 0.998504896518142 0.98918721009348 0.998337557583412 0.998703756340386 0.995301900768058 0.998160833969172 0.99820659171061 0.996999689427976 0.92085393635816 0.985909668014248 0.904362952603261 0.92718636127935 0.942653051658291 0.947556083741597 0.940843859923553 0.940600271580893 0.692478950013215 0.893598227443282 0.911307404009103 0.678330633839059 0.869319010773775 0.587489699784812 0.782884960765618 0.789747884500264 0.882669502369911 0.829788150464876 -9999 -9999 -9999 -9999 -9999 -9999 -9999 -9999 -9999 -9999 -9999 -9999 -9999 -9999 -9999 -9999 -9999 -9999 -9999 -9999 -9999 -9999 -9999 -9999 -9999 0.89587522304362
0.834137290224204 0.834137290224204 0.834137290224204 1 0.834137290224204 1 1 1 0.834137290224204 1 1 0.834137290224204 1 0.975541066214296 0.897964495950246 0.975541066214296 0.975541066214296 0.997102400641945 0.996006202908501 0.98447616687325 0.951575313251259 0.897721686394646 0.935289597447049 0.990001485252364 0.961554244276163 0.934473162404763 0.934714518805899 0.925497299930635 0.934499323617216 0.998014523618452 0.993273441329713 0.91471766375315 0.991061445722055 0.997021033757409 0.900971251394068 0.992034605312705 0.909251629246834 0.960068091710282 0.996555652693197 0.943753855382725 0.94480425368038 0.913871907827087 0.918079086349694 0.889672665333337 0.594507252145453 0.883819435792229 0.943560944424155 0.733145018706805 0.950125552629504 0.638477109546781 0.84938178423943 0.796732205283274 -9999 -9999 -9999 -9999 -9999 -9999 -9999 -9999 -9999 -9999 -9999 -9999 -9999 -9999 -9999 -9999 -9999 -9999 0.858076421396293 0.858076421396293 -9999 -9999 -9999 -9999 -9999 0.89587522304362
0.834137290224204 0.834137290224204 0.834137290224204 1 1 1 1 1 0.834137290224204 0.834137290224204 1 1 1 1 0.975541066214296 0.975541066214296 0.975541066214296 0.975541066214296 0.991197851362266 0.98781476269093 0.996544584870646 0.889628863474169 0.992545526192463 0.979915272472051 0.998340414447581 0.999178940198501 0.934975932899824 0.935050924464131 0.934124767759265 0.998316737162626 0.99334893009553 0.928242901634738 0.994750535910486 0.967454143497246 0.911003020118131 0.977301288143986 0.988260804430526 0.996946594690546 0.926656578002161 0.90267678484984 0.88994435191747 0.952399851820743 0.924398825942572 0.942461091971286 0.947715135590425 0.9539496981535 0.938034868357435 0.89587522304362 0.89587522304362 0.89587522304362 0.874105340548795 0.89587522304362 0.750228701477105 -9999 -9999 -9999 -9999 -9999 -9999 -9999 -9999 -9999 -9999 -9999 -9999 -9999 -9999 -9999 -9999 -9999 -9999 0.858076421396293 -9999 -9999 -9999 -9999 -9999 -9999
1 1 1 1 1 0.834137290224204 0.834137290224204 0.834137290224204 0.834137290224204 0.834137290224204 0.834137290224204 0.834137290224204 1 0.834137290224204 0.92047841659286 0.975541066214296 0.897964495950246 0.897964495950246 0.975541066214296 0.98832845811715 0.964518829287872 0.994987182461805 0.916744190510107 0.994015477483504 0.998332292376778 0.998999235801651 0.999341737589575 0.997680309204704 0.935003870687904 0.933999479622054 0.925852945351622 0.927749333113373 0.985591142059926 0.994695176155966 0.922027213848304 0.991255067219517 0.98256434360055 0.927068135152445 0.927417139833398 0.918484045043566 0.921829179609766 0.937877001920842 0.952731364565125 0.933722974343279 0.987433545535014 0.985952246966448 0.990904951594805 0.855598682155062 0.929749948307847 0.867103041963603 0.89587522304362 0.89587522304362 0.753393923895906 0.6082625541536 0.620876268295689 0.494602187302766 -9999 -9999 -9999 -9999 -9999 -9999 -9999 -9999 -9999 -9999 -9999 -9999 -9999 -9999 -9999 -9999 0.858076421396293 -9999 -9999 -9999 -9999 -9999
1 1 1 1 1 0.834137290224204 1 1 1 0.834137290224204 0.834137290224204 1 1 0.834137290224204 0.834137290224204 1 0.897964495950246 0.897964495950246 0.975541066214296 0.975541066214296 0.975541066214296 0.975541066214296 0.975541066214296 0.992279853046065 0.999082047819723 0.909783426289988 0.96815293561099 0.999220162111219 0.998430466274411 0.998477216823628 0.924808875147877 0.997283500392971 0.995234409559363 0.972555261437247 0.968774613280229 0.964138456591465 0.965218180891265 0.92313718670262 0.996808633349604 0.911107698215831 0.91835376139941 0.927437932536589 0.94812923911739 0.949665918727967 0.974030984942511 0.953513494737265 0.890066081649162 0.934920724456988 0.962403495053178 0.944245860146056 0.924578468724867 0.89587522304362 0.891403141668241 0.724609239776149 0.664395812230555 0.459837532256595 0.475030749659157 -9999 -9999 -9999 -9999 -9999 -9999 -9999 -9999 -9999 -9999 -9999 -9999 -9999 -9999 -9999 -9999 -9999 -9999 -9999 -9999 -9999
1 0.834137290224204 0.834137290224204 1 1 1 1 0.834137290224204 1 0.834137290224204 0.834137290224204 1 1 1 1 0.834137290224204 0.897964495950246 0.897964495950246 0.897964495950246 0.975541066214296 0.975541066214296 0.975541066214296 0.975541066214296 0.991335780097628 0.946053775403521 0.506607036346797 0.606697825170926 0.951377517916203 0.992828469590018 0.998327201413532 0.926589328146809 0.996408891907584 0.99572375727957 0.979138242997272 0.989617961212769 0.962822710893876 0.964551712255341 0.97676567279484 0.987022477061429 0.925693241358189 0.996341729765068 0.995842772263225 0.99445315594444 0.947839105919656 0.978261278204212 0.990021778958263 0.947877132999733 0.96466676630782 0.874997049372083 0.885229281674311 0.92187087751812 0.89587522304362 0.89587522304362 0.89587522304362 0.845360794982185 0.562642714255565 0.514396187429446 -9999 -9999 -9999 -9999 -9999 -9999 -9999 -9999 -9999 -9999 -9999 -9999 -9999 -9999 -9999 -9999 -9999 -9999 -9999 -9999 -9999
1 0.834137290224204 1 1 1 1 1 0.834137290224204 0.834137290224204 0.834137290224204 0.834137290224204 1 1 1 1 0.834137290224204 0.897964495950246 0.975541066214296 0.975541066214296 0.897964495950246 0.975541066214296 0.975541066214296 0.975541066214296 0.975541066214296 0.994888088917518 0.993570019524748 0.962526582482314 0.87840292762957 0.939807443945945 0.998621014588827 0.937593506692652 0.993970052821511 0.993815397794811 0.907226420371982 0.996258295237273 0.996492712405398 0.978115402914742 0.995237890248211 0.995923001050692 0.906686640075417 0.99614474080144 0.982497521574038 0.961872810954839 0.913347539726006 0.946225328809243 0.872389004170391 0.773865712952801 0.964087567673722 0.89587522304362 0.9901376154732 0.988348410642023 0.975089387984016 0.89587522304362 0.861603348083361 0.494602187302766 0.474354745660175 0.452644511017303 0.476297791764906 -9999 -9999 -9999 -9999 -9999 -9999 -9999 -9999 -9999 -9999 -9999 -9999 -9999 -9999 -9999 -9999 -9999 -9999 -9999 -9999
0.777058823529412 0.834137290224204 0.834137290224204 1 0.834137290224204 0.834137290224204 1 1 0.834137290224204 0.834137290224204 1 1 1 0.834137290224204 1 0.834137290224204 0.92047841659286 0.975541066214296 0.975541066214296 0.897964495950246 0.975541066214296 0.975541066214296 0.975541066214296 0.989425387335128 0.988773708240868 0.914479744905717 0.993813495375522 0.994350342493465 0.977930688923979 0.982587330155498 0.996553872085748 0.976898370171136 0.983941972781417 0.985361846008516 0.993378471317264 0.995658773131244 0.996316090766685 0.997380145507317 0.997403038901506 0.996189635042896 0.972323092174745 0.720154566553451 0.926267543192463 0.994136624811662 0.990449263356615 0.903360551702716 0.840486782677436 0.992318041778771 0.936730796345152 0.848003381049018 0.970667436654323 0.89587522304362 0.92214205161801 0.845360794982185 0.497629573579988 0.476184383680379 0.452751497524531 0.473792881441581 -9999 -9999 -9999 -9999 -9999 -9999 -9999 -9999 -9999 -9999 -9999 -9999 -9999 -9999 -9999 -9999 -9999 -9999 -9999 0.858076421396293
0.5 0.834137290224204 1 1 0.834137290224204 1 1 0.834137290224204 0.834137290224204 0.834137290224204 1 1 1 0.834137290224204 1 0.834137290224204 1 1 0.897964495950246 0.975541066214296 0.897964495950246 0.975541066214296 0.975541066214296 0.911262872097287 0.990487296651563 0.911167719200273 0.975541066214296 0.991941631211037 0.992766543376925 0.993581315025163 0.995872038058178 0.995733614699649 0.995711630729845 0.992117120770519 0.996084726426551 0.785621579484449 0.89279750189872 0.948419425546212 0.907926032177036 0.936015294869754 0.890457546854188 0.903218703161828 0.921005119508437 0.935358354434287 0.903322576828423 0.857150667734234 0.914477812146018 0.956308839382622 0.842278243226037 0.901864761874167 0.708866327338842 0.89587522304362 0.809353597410742 0.845360794982185 0.503695399337906 0.477070358224762 0.452794298634424 0.472539127129575 -9999 -9999 -9999 -9999 -9999 -9999 -9999 -9999 -9999 -9999 -9999 -9999 -9999 -9999 -9999 -9999 -9999 -9999 -9999 -9999
0 0.834137290224204 0.834137290224204 0.834137290224204 0.834137290224204 1 1 1 1 1 0.834137290224204 1 1 0.834137290224204 0.834137290224204 0.834137290224204 1 1 0.897964495950246 0.975541066214296 0.897964495950246 0.897964495950246 0.897964495950246 0.975541066214296 0.897964495950246 0.897964495950246 0.975541066214296 0.897964495950246 0.992125664621076 0.995893220672334 0.997103601602048 0.928350669634016 0.903322576828423 0.924217804136389 0.996623136803783 0.997151473667271 0.766864448889429 0.487142344883201 0.452682429510485 0.67633564199721 0.995817637990866 0.924208535397019 0.92647160554091 0.995417606883711 0.99439914480319 0.918360193006051 0.991759087751539 0.972046554998847 0.955800879138464 0.87347834246753 0.602077224965032 0.881949954506808 0.905381982454455 0.845360794982185 0.503923833563005 0.476479338156479 0.452751497524531 0.472539127129575 -9999 -9999 -9999 -9999 -9999 -9999 -9999 -9999 -9999 -9999 -9999 -9999 -9999 -9999 -9999 -9999 -9999 -9999 -9999 -9999
0.166666666666667 1 1 0.834137290224204 0.834137290224204 0.834137290224204 0.834137290224204 1 1 1 0.834137290224204 0.834137290224204 0.834137290224204 0.834137290224204 0.834137290224204 0.834137290224204 0.834137290224204 1 1 0.897964495950246 0.975541066214296 0.897964495950246 0.897964495950246 0.975541066214296 0.975541066214296 0.897964495950246 0.897964495950246 0.897964495950246 0.989429596544979 0.99434995227914 0.996210069135187 0.903322576828423 0.970721825729259 0.944734108837681 0.996719548900501 0.993877602036277 0.976631420627744 0.63847697237261 0.545235190837827 0.933457229402168 0.993771282377142 0.926543735104467 0.928279673705496 0.995864239216343 0.868609253510048 0.92594185352325 0.992959234447133 0.990779004599436 0.944861530045158 0.808406497883952 0.89587522304362 0.969018477925921 0.811393712157395 0.84938178423943 0.507169639836801 0.476979335602982 0.452772903446673 0.452601738219219 -9999 -9999 -9999 -9999 -9999 -9999 -9999 -9999 -9999 -9999 -9999 -9999 -9999 -9999 -9999 -9999 -9999 -9999 -9999 -9999
0.047 0.679333333333333 1 1 1 1 1 0.834137290224204 0.834137290224204 0.834137290224204 0.834137290224204 0.834137290224204 0.834137290224204 0.834137290224204 0.834137290224204 0.834137290224204 1 1 1 1 1 0.897964495950246 0.897964495950246 0.975541066214296 0.975541066214296 0.897964495950246 0.975541066214296 0.975541066214296 0.993758782925236 0.990652937402339 0.99510737680845 0.95701146011158 0.957656891268956 0.893859326382661 0.921354986256223 0.99331635320687 0.960089238738097 0.596454346029782 0.621871128326899 0.603842229707558 0.98332045817774 0.993051973297625 0.996413734247572 0.995907417040833 0.997471547814817 0.897235859551399 0.975492580964877 0.943936148253587 0.981851018586937 0.988334225250615 0.89587522304362 0.809282880523371 0.89587522304362 0.89587522304362 0.519095754842735 0.479886317855503 0.45290135596898 0.475030749659157 -9999 -9999 -9999 -9999 -9999 -9999 -9999 -9999 -9999 -9999 -9999 -9999 -9999 -9999 -9999 -9999 -9999 -9999 -9999 -9999
0.00142857142857133 0.00124999999999997 0 1 1 1 1 0.834137290224204 0.834137290224204 0.834137290224204 0.834137290224204 1 0.834137290224204 0.834137290224204 0.834137290224204 0.834137290224204 1 1 1 0.834137290224204 0.834137290224204 0.834137290224204 0.897964495950246 0.897964495950246 0.897964495950246 0.897964495950246 0.975541066214296 0.975541066214296 0.909671531881902 0.99210508234594 0.998206540389206 0.957327413559969 0.977045052263469 0.918743246675819 0.904379592564327 0.993211407507976 0.993317182766405 0.88081171172915 0.435742791106017 0.145852310558832 0.108868281756348 0.497089934090505 0.996608119123887 0.990947079583661 0.997270525804224 0.917274430150514 0.995938152466485 0.977436405396849 0.949532775860504 0.854758874906337 0.92751856661554 0.816355378915915 0.824257105210587 0.89587522304362 0.532077103732845 0.480162817081355 0.452858534618117 -9999 -9999 -9999 -9999 -9999 -9999 -9999 -9999 -9999 -9999 -9999 -9999 -9999 -9999 -9999 -9999 -9999 -9999 -9999 -9999 -9999
0.834137290224204 0 0 0 0 0 0 0.834137290224204 0.834137290224204 0.834137290224204 1 1 0.834137290224204 0.834137290224204 0.834137290224204 0.834137290224204 1 1 0.834137290224204 0.834137290224204 0.834137290224204 0.834137290224204 0.834137290224204 0.92047841659286 0.897964495950246 0.897964495950246 0.897964495950246 0.897964495950246 0.897964495950246 0.912635504208544 0.995965467130839 0.99666669544818 0.96559510447457 0.968257419253858 0.904379592564327 0.99489072644536 0.994880705365998 0.994354887563427 0.498068626085204 0.11713376697133 0.0960008089363801 0.647084136922572 0.970793532359301 0.9946036563945 0.997229410248013 0.926410527760094 0.894278464305381 0.887050826722358 0.960173634705334 0.988244403600637 0.935434861365201 0.991802700997524 0.893075612971609 0.788199536145068 0.700610360327744 0.497357322975651 0.430899984208523 -9999 -9999 -9999 -9999 -9999 -9999 -9999 -9999 -9999 -9999 -9999 -9999 -9999 -9999 -9999 -9999 -9999 -9999 -9999 -9999 -9999
0.834137290224204 0.834137290224204 0 0 0 0 0 0 0 0.834137290224204 0.834137290224204 1 1 0.834137290224204 0.834137290224204 0.834137290224204 0.834137290224204 0.834137290224204 0.834137290224204 0.834137290224204 0.834137290224204 1 1 0.834137290224204 0.92047841659286 0.897964495950246 0.975541066214296 0.975541066214296 0.897964495950246 0.897964495950246 0.97918862045049 0.97918862045049 0.99621381117084 0.995110830457077 0.99494643849933 0.97918862045049 0.995446632436253 0.983262783352602 0.981704130783626 0 0.0667976318490578 0.0314605310876697 0.117079964164048 0.972598507628274 0.926720503363259 0.957015237974026 0.925503287695981 0.994973835308953 0.969110700963266 0.89587522304362 0.89587522304362 0.89587522304362 0.964995750586172 0.922438591294879 0.89587522304362 0.507143914769049 0.449203398078619 -9999 -9999 -9999 -9999 -9999 -9999 -9999 -9999 -9999 -9999 -9999 -9999 -9999 -9999 -9999 -9999 -9999 -9999 -9999 -9999 -9999
1 0.834137290224204 0.834137290224204 0.834137290224204 0.834137290224204 0.834137290224204 0.834137290224204 0.834137290224204 0.834137290224204 0.834137290224204 0.834137290224204 0.834137290224204 0.834137290224204 0.834137290224204 0.834137290224204 0.834137290224204 1 1 0.834137290224204 0.834137290224204 0.834137290224204 1 1 0.834137290224204 0.834137290224204 0.834137290224204 0.834137290224204 0.92047841659286 0.897964495950246 0.897964495950246 0.97918862045049 0.99621442084646 0.998093277383133 0.997545320713452 0.997373818665198 0.919381158008452 0.920902889300342 0.904379592564327 0.903322576828423 0.927368315197784 0.997976804053866 0.701780327521753 0.786558347621855 0.910250932653567 0.92772386257169 0.919174325356761 0.922767732165432 0.926873185183479 0.925475162488618 0.987730194559584 0.89587522304362 0.966774200152274 0.847821191638648 0.89587522304362 0.89587522304362 0.74403274334461 -9999 -9999 -9999 -9999 -9999 -9999 -9999 -9999 -9999 -9999 -9999 -9999 -9999 -9999 -9999 -9999 -9999 -9999 -9999 -9999 -9999 -9999
1 0.834137290224204 0.834137290224204 0.834137290224204 1 0.834137290224204 0.834137290224204 0.834137290224204 0.834137290224204 0.834137290224204 0.834137290224204 0 0 0 0.834137290224204 0.834137290224204 1 1 0.834137290224204 0.834137290224204 0.834137290224204 0.834137290224204 0.834137290224204 0.834137290224204 0.834137290224204 0.834137290224204 0.834137290224204 0.834137290224204 0.897964495950246 0.904379592564327 0.904379592564327 0.904379592564327 0.920876571950486 0.99584129303695 0.913279199630141 0.904379592564327 0.995975461784112 0.994554947903178 0.924344664704365 0.926756188319736 0.926813208439037 0.928019836940648 0.996858806826626 0.980065384615843 0.849159111532905 0.992941516284442 0.992817170345753 0.993520761021099 0.970721825729259 0.955142219611791 0.89587522304362 0.913719925238436 0.948857956864939 0.876939508779345 0.913514093126104 0.887054165905059 -9999 -9999 -9999 -9999 -9999 -9999 -9999 -9999 -9999 -9999 -9999 -9999 -9999 -9999 -9999 -9999 -9999 -9999 -9999 -9999 -9999 -9999
0.834137290224204 0.834137290224204 0.834137290224204 0.834137290224204 1 0.834137290224204 0.834137290224204 0.834137290224204 0.834137290224204 0.834137290224204 0.834137290224204 0 0 0.834137290224204 0.834137290224204 0.00181818181818183 0.000769230769230855 0.5 0.766666666666667 0.834137290224204 0.834137290224204 0.834137290224204 0.834137290224204 0.834137290224204 0.834137290224204 0.834137290224204 0.834137290224204 0.830155666879764 0.830155666879764 0.904379592564327 0.97918862045049 0.97918862045049 0.99621585661748 0.97918862045049 0.920605809345969 0.919687607564735 0.996537490407687 0.996877814372351 0.996012942201865 0.992516355387343 0.922132842506603 0.917901819892273 0.970721825729259 0.948064790102443 0.975563091691344 0.968857987823824 0.997984993998637 0.993323365315262 0.993869152709661 0.984437006575748 0.969562728841608 0.967702952734472 0.872166029642765 0.798924651268043 0.776001688029435 0.865705770507917 -9999 -9999 0.747145783246388 0.74403274334461 -9999 -9999 -9999 -9999 -9999 -9999 -9999 -9999 -9999 -9999 -9999 -9999 -9999 -9999 -9999 -9999 -9999 -9999
0.834137290224204 0.834137290224204 0.834137290224204 0.834137290224204 0.834137290224204 0.834137290224204 0.834137290224204 0.834137290224204 0.834137290224204 0.834137290224204 0.834137290224204 0.834137290224204 0.834137290224204 1 1 0.0033333333333333 0.547692307692308 0.3675 0.306153846153846 0 0 0.834137290224204 0.834137290224204 0.834137290224204 0.834137290224204 0.834137290224204 0.834137290224204 0.830155666879764 0.830155666879764 1 0.97918862045049 0.97918862045049 0.97918862045049 0.904379592564327 0.97918862045049 0.997855104824896 0.994785637142616 0.99631219953994 0.996217449353298 0.93321496545177 0.951266384565233 0.928207349551932 0.99026118685182 0.975594676069528 0.961272251734424 0.952885716405448 0.997207964173734 0.995430095355021 0.995430021987983 0.997526467092087 0.998654870798868 0.890530999663787 0.61174720216503 0.750829465330284 0.853635999388147 0.782162711679458 -9999 -9999 0.661976836649624 0.688561295819899 0.739551874232458 -9999 -9999 -9999 -9999 -9999 -9999 -9999 -9999 -9999 -9999 -9999 -9999 -9999 -9999 -9999 -9999 -9999
0.834137290224204 0.834137290224204 0.834137290224204 0.834137290224204 1 1 0.834137290224204 0.834137290224204 0.834137290224204 0.834137290224204 0.834137290224204 0.834137290224204 0.834137290224204 1 0.878251354483013 0.878251354483013 1 0.25 0.878251354483013 0 0.0107142857142857 0.02 0.834137290224204 0.834137290224204 0.834137290224204 0.834137290224204 0.830155666879764 0.830155666879764 0.830155666879764 0.830155666879764 0.923601003602609 0.904379592564327 0.904379592564327 0.904379592564327 0.97918862045049 0.992826069040117 0.99792222061216 0.997441419370472 0.997716762851641 0.991609747028701 0.891973218969447 0.970721825729259 0.987711536698438 0.996632454118378 0.898602923547746 0.913639167110476 0.993466218682628 0.986990307067768 0.9962641799802 0.995109503069746 0.894026363023297 0.8578628617696 0.731237208358205 0.798717831878718 0.915933588175229 0.929306597060644 0.687225298182081 -9999 -9999 0.733313017281318 0.741000434085326 -9999 -9999 -9999 -9999 -9999 -9999 -9999 -9999 -9999 -9999 -9999 -9999 -9999 -9999 -9999 -9999 -9999
0.834137290224204 0.834137290224204 0.834137290224204 0.834137290224204 1 1 0.834137290224204 0.834137290224204 0.834137290224204 1 1 0.834137290224204 0.834137290224204 0.878251354483013 0.878251354483013 0.878251354483013 0.878251354483013 0.878251354483013 0.878251354483013 0.593 0.593529411764706 0.0635294117647059 0.548 0 0.830155666879764 0.830155666879764 0.830155666879764 1 0.830155666879764 0.830155666879764 0.830155666879764 0.904379592564327 0.904379592564327 0.904379592564327 0.97918862045049 0.985581563054302 0.995360996746593 0.995904007352118 0.992104950650635 0.859809034613266 0.887695465064144 0.919939344563258 0.995584334157961 0.996682145714881 0.997616488075994 0.928169337763321 0.99532108246588 0.907885251053285 0.994091554444328 0.923659438232669 0.927248322133846 0.970721825729259 0.863994747130735 0.832603801883054 0.921724111044097 0.949720715358368 0.882669502369911 0.529944810268836 0.640920493531742 0.723104033104422 -9999 -9999 -9999 -9999 -9999 -9999 -9999 -9999 -9999 -9999 -9999 -9999 -9999 -9999 -9999 -9999 -9999 -9999
0.834137290224204 0.834137290224204 0.834137290224204 0.834137290224204 0.834137290224204 0.834137290224204 0.834137290224204 0.834137290224204 0.834137290224204 1 1 0.878251354483013 0.834137290224204 0.834137290224204 0.878251354483013 0.878251354483013 0.878251354483013 0.878251354483013 0.878251354483013 0.878251354483013 0.878251354483013 0.148 0.0493749999999999 0.66375 1 0.830155666879764 0.830155666879764 1 1 0.830155666879764 0.830155666879764 0.904379592564327 0.904379592564327 0.904379592564327 0.996032422014883 0.986486401784271 0.997359709155858 0.996967462828331 0.995640578415863 0.94663292487144 0.996869252366858 0.927834037247958 0.9964308354053 0.99228040008569 0.994737756628698 0.927324616242134 0.918943354987195 0.996786394182941 0.991893253367491 0.994852249310677 0.983194601971513 0.896775614106634 0.936875216986471 0.904146371390435 0.924044086757759 0.891292295231683 0.874105340548795 0.61872501682033 0.786270539633557 0.7260440661309 -9999 -9999 -9999 -9999 -9999 -9999 -9999 -9999 -9999 -9999 -9999 -9999 -9999 -9999 -9999 -9999 -9999 -9999
0.834137290224204 0.834137290224204 0.834137290224204 0.834137290224204 0.834137290224204 0.834137290224204 0.834137290224204 0.834137290224204 0.834137290224204 0.834137290224204 0.834137290224204 0.878251354483013 0.878251354483013 0.834137290224204 0.878251354483013 0.878251354483013 0.878251354483013 0.878251354483013 0.878251354483013 0.878251354483013 0.878251354483013 0.878251354483013 0 0.109230769230769 0 0.830155666879764 0.830155666879764 0.830155666879764 0.830155666879764 0.830155666879764 0.830155666879764 0.904379592564327 0.904379592564327 0.904379592564327 0.996520086650591 0.988953569272915 0.989340890826179 0.919669466148963 0.920915725133959 0.908053344328132 0.995924459783463 0.997521876513531 0.99801733875444 0.976690942220688 0.994128747056752 0.922331285062232 0.909876110783209 0.988259284447567 0.995029660223677 0.995780181839197 0.989955722883683 0.995635612443369 0.970434458203176 0.898927921594418 0.894314304629461 0.937893909843042 0.983716944865526 0.689880278545418 0.566178687482003 -9999 -9999 -9999 -9999 -9999 -9999 -9999 -9999 -9999 -9999 -9999 -9999 -9999 -9999 -9999 -9999 -9999 -9999 -9999
0.834137290224204 0.834137290224204 0.834137290224204 0.834137290224204 0.834137290224204 0.834137290224204 0.834137290224204 0.834137290224204 0.834137290224204 0.834137290224204 0.834137290224204 0.834137290224204 0.878251354483013 0.878251354483013 0.878251354483013 0.878251354483013 0.878251354483013 0.878251354483013 0.878251354483013 0.878251354483013 0.862987483521086 0.862987483521086 0 0.00187499999999996 0.076923076923077 1 0.830155666879764 0.830155666879764 0.830155666879764 0.830155666879764 0.830155666879764 0.830155666879764 0.904379592564327 0.904379592564327 0.918214259394336 0.994619808117024 0.957891607063841 0.986394734881686 0.997996383082354 0.959815796503006 0.997576900229506 0.72580287620882 0.867532225365123 0.988706790112931 0.92590741716036 0.926659552032101 0.927836276660275 0.996424761276847 0.991275780923664 0.918869090488499 0.995887880640031 0.970721825729259 0.924890188862879 0.94226086985264 0.83779999629234 0.874425817051595 0.91841224098947 0.689880278545418 -9999 -9999 -9999 -9999 -9999 -9999 -9999 -9999 -9999 -9999 -9999 -9999 -9999 -9999 -9999 -9999 -9999 -9999 -9999 -9999
0.834137290224204 0.834137290224204 0.834137290224204 0.834137290224204 0.834137290224204 0.834137290224204 0.834137290224204 0.834137290224204 0.834137290224204 0.834137290224204 0.834137290224204 1 1 0.878251354483013 0.878251354483013 0.878251354483013 0.878251354483013 0.878251354483013 0.878251354483013 0.862987483521086 0.862987483521086 0.862987483521086 0.862987483521086 0 0.0570000000000001 1 0.830155666879764 0.830155666879764 0.830155666879764 0.830155666879764 0.830155666879764 0 0 0.904379592564327 0.916645120584827 0.993585670858361 0.979873349425523 0.914619716380362 0.99772912811155 0.948484967629139 0.84840069500872 0.818065556142644 0.941072644102617 0.995399099255011 0.992122497808986 0.993580556147423 0.923223354345914 0.996454605430571 0.998007038248354 0.996780186723997 0.99665485861351 0.997403630756487 0.970721825729259 0.89587522304362 0.89587522304362 0.907237986628818 0.855375266992598 0.730192151106892 0.581346335701736 -9999 -9999 -9999 -9999 -9999 -9999 -9999 -9999 -9999 -9999 -9999 -9999 -9999 -9999 -9999 -9999 -9999 -9999 -9999
0.834137290224204 0.834137290224204 0.834137290224204 0.834137290224204 0.834137290224204 0.834137290224204 0.834137290224204 0.834137290224204 0.834137290224204 0.834137290224204 0.834137290224204 1 0.878251354483013 0.878251354483013 0.878251354483013 0.878251354483013 0.878251354483013 0.878251354483013 0.862987483521086 0.862987483521086 0.862987483521086 0.862987483521086 0.9 0.225 0 0 0.830155666879764 0.830155666879764 0.830155666879764 0.830155666879764 0.830155666879764 0 0.00163198103408419 0.904379592564327 0.909915628471848 0.914898203959723 0.996350403463224 0.916905482328549 0.995247116053151 0.919619074062569 0.807336138999801 0.819462982955437 0.792387708723378 0.776030330425125 0.997066234788626 0.997362215179064 0.923793372579155 0.968176692381722 0.981140877050142 0.967372869053166 0.987970939342457 0.996359711406286 0.996247844753819 0.970721825729259 0.970758252224383 0.89587522304362 0.98511634080752 0.616001388191119 0.720731509797861 0.677668429949362 -9999 -9999 -9999 -9999 -9999 -9999 -9999 -9999 -9999 -9999 -9999 -9999 -9999 -9999 -9999 -9999 -9999 -9999
0.834137290224204 0.834137290224204 0.834137290224204 0.834137290224204 0.834137290224204 0.834137290224204 0.834137290224204 0.834137290224204 0.834137290224204 0.834137290224204 0.834137290224204 0.834137290224204 0.878251354483013 0.878251354483013 0.878251354483013 0.862987483521086 0.862987483521086 0.862987483521086 0.862987483521086 0.862987483521086 0.862987483521086 0.862987483521086 0.9 0.45 0 0 0.830155666879764 0.830155666879764 0.830155666879764 0.830155666879764 0.830155666879764 0.002 0.0097918862045049 0.904379592564327 0.904379592564327 0.904379592564327 0.99549450768706 0.918286366940116 0.97918862045049 0.918888263347546 0.900975716568508 0.772977264375198 0.639768509615346 0.796866456195523 0.927023786336414 0.90701376297148 0.97562121393818 0.957058345579648 0.982220316273511 0.988971008802806 0.964585672250639 0.993203419248337 0.994661443443556 0.995328968440283 0.9886910199021 0.96529300067272 0.966454424050334 0.95863484102625 0.880996968170656 0.762138509305329 -9999 -9999 -9999 -9999 -9999 -9999 -9999 -9999 -9999 -9999 -9999 -9999 -9999 -9999 -9999 -9999 -9999 -9999
0.834137290224204 0.834137290224204 0.834137290224204 0.834137290224204 0.834137290224204 0.834137290224204 0.834137290224204 0.834137290224204 0.834137290224204 0.834137290224204 0.834137290224204 0.834137290224204 0.878251354483013 0.862987483521086 0.862987483521086 0.862987483521086 0.862987483521086 0.862987483521086 0.862987483521086 0.862987483521086 0.862987483521086 0.862987483521086 0.862987483521086 0.862987483521086 0.862987483521086 0 0 0.830155666879764 0.830155666879764 0.830155666879764 0.830155666879764 0.830155666879764 0.904379592564327 0.904379592564327 0.904379592564327 0.985424443141924 0.997014764440185 0.994211403056867 0.996225222792707 0.97918862045049 0.996348422109138 0.996948376032237 0.919540125061209 0.8740245820571 0.994536562896902 0.701441826088121 0.795080872063669 0.97246763376324 0.991341882842336 0.993774754940682 0.99553382871151 0.992515334366023 0.990189620346539 0.995842455811313 0.996249383000368 0.992390602881842 0.986144281167264 0.794312450669909 0.99016425628613 0.986520861265787 -9999 -9999 -9999 -9999 -9999 -9999 -9999 -9999 -9999 -9999 -9999 -9999 -9999 -9999 -9999 -9999 -9999 -9999
1 0.834137290224204 0.834137290224204 0.834137290224204 0.834137290224204 0.834137290224204 0.834137290224204 0.834137290224204 0.834137290224204 0.834137290224204 0.834137290224204 0.830155666879764 0.862987483521086 0.862987483521086 0.862987483521086 0.862987483521086 0.862987483521086 1 1 0.862987483521086 0.862987483521086 0.862987483521086 0.862987483521086 0.862987483521086 1 0.666666666666667 0 0.830155666879764 0.830155666879764 0.830155666879764 1 1 0.97918862045049 0.97918862045049 0.904379592564327 0.904379592564327 0.995248830197469 0.996724766151026 0.996226072581999 0.997051640583382 0.9964286230941 0.997517768769963 0.915263550042649 0.985868211928582 0.996805294011969 0.99704957746357 0.914907673754897 0.994604623071496 0.981131191483004 0.90926153498828 0.977588131475911 0.970721825729259 0.968749929573058 0.997141991619842 0.998160207751483 0.997069223339504 0.988104376486651 0.993265219697398 0.974278193823255 0.970782988372696 0.927991803629203 -9999 -9999 -9999 -9999 -9999 -9999 -9999 -9999 -9999 -9999 -9999 -9999 -9999 -9999 -9999 -9999 -9999
1 0.834137290224204 0.834137290224204 0.834137290224204 0.834137290224204 0.834137290224204 0.834137290224204 0.834137290224204 0.834137290224204 0.834137290224204 0.830155666879764 0.862987483521086 0.862987483521086 0.862987483521086 0.862987483521086 0.862987483521086 0.862987483521086 1 1 0.862987483521086 0.862987483521086 0.862987483521086 0.862987483521086 0.862987483521086 1 1 0.862987483521086 0.830155666879764 0.830155666879764 0.830155666879764 1 0.830155666879764 0.97918862045049 0.97918862045049 0.866417941443991 0.866417941443991 0.870181783182858 0.869384719267845 0.870582439473399 0.997449685386423 0.997720168422937 0.86930333327082 0.870236528888306 0.985373649536922 0.997838701848898 0.954467930254115 0.905854244520492 0.993633351279248 0.999103082946877 0.993820614591308 0.972932406651586 0.99447355680016 0.997430335396395 0.999243566337003 0.994603524167062 0.999872767892305 0.998999613409998 0.990713524955349 0.980769430319434 0.983586795897708 0.994689693385748 -9999 -9999 -9999 -9999 -9999 -9999 -9999 -9999 -9999 -9999 -9999 -9999 -9999 -9999 -9999 -9999 -9999
0.834137290224204 0.834137290224204 0.834137290224204 0.834137290224204 0.834137290224204 0.834137290224204 0.834137290224204 0.834137290224204 0.830155666879764 1 1 0.862987483521086 0.862987483521086 0.862987483521086 0.862987483521086 0.862987483521086 0.862987483521086 0.862987483521086 0.862987483521086 0.862987483521086 0.862987483521086 0.862987483521086 0.862987483521086 0.862987483521086 0.862987483521086 0.862987483521086 0.862987483521086 0.0554545454545454 0.352142857142857 0.115555555555556 0.830155666879764 1 0.866417941443991 0.866417941443991 0.993135836497111 0.866417941443991 0.867618583226049 0.869484043205891 0.866417941443991 0.997345426296777 0.993135836497111 0.870417615078857 0.869981527424652 0.996394221737418 0.996729117003218 0.997625549778896 0.999419760728693 0.983788689979034 0.866358753792965 0.762172160012757 0.903290357640534 0.998531532921991 0.993335662072972 0.998892845253368 0.993499475111588 0.998563344271148 0.993532688707121 0.992724757251042 0.992018241511304 0.926894594590482 0.94882218664185 0.923194192192357 -9999 -9999 0.849187864642016 -9999 -9999 -9999 -9999 -9999 -9999 -9999 -9999 -9999 -9999 -9999 -9999 -9999
0.834137290224204 0.834137290224204 0.834137290224204 0.834137290224204 0.834137290224204 0.834137290224204 0.834137290224204 0.830155666879764 0.830155666879764 1 1 0.862987483521086 0.862987483521086 0.862987483521086 0.862987483521086 0.862987483521086 0.862987483521086 0.862987483521086 0.862987483521086 0.862987483521086 0.862987483521086 0.862987483521086 0.862987483521086 0.862987483521086 0.862987483521086 0.862987483521086 1 0.537272727272727 0.749090909090909 0.00187499999999996 0 1 0.993135836497111 0.993135836497111 0.993135836497111 0.840554057980737 0.869275506078983 0.867490718243324 0.997020609220623 0.997536029006522 0.993135836497111 0.997721201100834 0.865368467039286 0.85216800183726 0.886677348948773 0.375053515673113 0.932911453431589 0.742509810551768 0.73114154360635 0.508549789641678 0.625632710789344 0.990423854441561 0.902040143313943 0.388975758981598 0.812727166484136 0.979541238597121 0.999152396316104 0.951799378354158 0.897456566196659 0.983593447466255 0.93165184671574 0.976251962665476 0.775978370176706 0.567892789694322 0.857268460309958 -9999 -9999 -9999 -9999 -9999 -9999 -9999 -9999 -9999 -9999 -9999 -9999 -9999
0.834137290224204 0.834137290224204 0.834137290224204 0.834137290224204 0.834137290224204 0.830155666879764 0.830155666879764 0.830155666879764 0.830155666879764 0.862987483521086 1 1 0.862987483521086 0.862987483521086 0.862987483521086 0.862987483521086 0.862987483521086 0.862987483521086 0.862987483521086 0.862987483521086 0.862987483521086 0.862987483521086 0.862987483521086 0.862987483521086 0.855327059565438 0.855327059565438 1 0.997777777777778 1 0.002 0.100952380952381 1 0.993135836497111 0.993135836497111 0.993135836497111 0.646060996794963 0.993135836497111 0.996259522669508 0.993135836497111 0.993135836497111 0.997721947752266 0.997451152826312 0.538747421337136 0.793041712769926 0.532390818511181 0.252021710307349 0.823463924827391 0.696983237907573 0.821028377863244 0.700130632353064 0.689185882619616 0.992484659788367 0.990391402489907 0.542298951073541 0.642436825417365 0.969693541602232 0.978629698376515 0.926069414046983 0.88177772076467 0.977400506239988 0.897232495265795 0.996279002475384 0.938277775959634 0.652232434487505 0.700308461124473 -9999 -9999 -9999 -9999 -9999 -9999 -9999 -9999 -9999 -9999 -9999 -9999 -9999
0.834137290224204 0.834137290224204 0.834137290224204 0.834137290224204 0.830155666879764 0.830155666879764 0.830155666879764 0.830155666879764 0.830155666879764 0.862987483521086 0.862987483521086 1 0.862987483521086 0.862987483521086 0.862987483521086 0.862987483521086 0.862987483521086 0.862987483521086 0.862987483521086 0.862987483521086 0.862987483521086 0.855327059565438 0.855327059565438 0.855327059565438 0.855327059565438 0.855327059565438 0.855327059565438 1 1 0.00166666666666671 0.00631578947368427 1 1 0.866417941443991 0.866417941443991 0.993135836497111 0.993135836497111 0.996685338525981 0.996852362239774 0.996205051060289 0.993135836497111 0.997732352363003 0.997882333649738 0.906529139419245 0.588953131073163 0.993135836497111 0.998269693376561 0.999872969185818 0.999730650396984 0.999840583539584 0.99990701029492 0.997850178137197 0.995756211073042 0.995010197928394 0.986093853681941 0.942686578775029 0.89274507298732 0.849006794985074 0.990101757832535 0.989167216104801 0.960238695348284 0.999334987232259 0.983771967291119 0.569672115488391 -9999 -9999 -9999 -9999 -9999 -9999 -9999 -9999 -9999 -9999 -9999 -9999 -9999 -9999
0.834137290224204 0.834137290224204 0.830155666879764 0.830155666879764 0.830155666879764 0.830155666879764 0.830155666879764 0.830155666879764 0.862987483521086 0.862987483521086 0.862987483521086 0.862987483521086 0.862987483521086 0.862987483521086 0.862987483521086 0.862987483521086 0.862987483521086 0.862987483521086 0.855327059565438 0.855327059565438 0.855327059565438 0.855327059565438 0.855327059565438 0.855327059565438 0.855327059565438 1 1 1 1 0.130666666666667 0.000769230769230855 1 1 0.866417941443991 0.866417941443991 0.993135836497111 0.993135836497111 0.993135836497111 0.996855349884852 0.993135836497111 0.993135836497111 0.993135836497111 0.996900877641319 0.879045207632954 0.695758423562969 0.994983827952472 0.99731335478773 0.998096042768317 0.999687797213553 0.999811365430378 0.999649056008461 0.9028558626295 0.990043330255984 0.930141889362686 0.99988441119245 0.99748523850198 0.999365112632559 0.996708182395838 0.983771967291119 0.983771967291119 0.979335134687614 0.998762512763756 0.996795419443635 0.746995736557565 -9999 -9999 -9999 -9999 -9999 -9999 -9999 -9999 -9999 -9999 -9999 -9999 -9999 -9999
0.830155666879764 0.830155666879764 0.830155666879764 0.830155666879764 0.830155666879764 0.830155666879764 0.830155666879764 0.830155666879764 0.862987483521086 0.862987483521086 0.862987483521086 1 1 0.862987483521086 0.862987483521086 0.855327059565438 0.855327059565438 0.855327059565438 0.855327059565438 0.855327059565438 0.855327059565438 0.855327059565438 0.855327059565438 0.855327059565438 0.855327059565438 1 1 1 1 0.758125 0.000555555555555531 1 1 0.993135836497111 0.866417941443991 0.993135836497111 0.993135836497111 0.866417941443991 0.993135836497111 0.993135836497111 0.993135836497111 0.993135836497111 0.996671489996964 0.981934806447783 0.649632621881311 0.861942215429105 0.997038327895579 0.997313701496448 0.99986277031578 0.999807202402181 0.999896361568393 0.904571649994103 0.978748174229506 0.98277318439735 0.958608718828978 0.999759995138148 0.98750631472408 0.993532688707121 0.993532688707121 0.983771967291119 0.982391302587463 0.983467139780669 0.950227993933507 0.918530289003765 0.652232434487505 0.647544358235847 0.82203330128436 0.841258181547208 -9999 -9999 -9999 -9999 -9999 -9999 -9999 -9999 -9999 -9999
0.830155666879764 0.830155666879764 0.830155666879764 0.830155666879764 0.830155666879764 0.830155666879764 0.830155666879764 0.830155666879764 0.830155666879764 0.862987483521086 0.862987483521086 1 1 0.855327059565438 0.855327059565438 0.855327059565438 0.855327059565438 0.855327059565438 0.855327059565438 0.855327059565438 0.855327059565438 0.855327059565438 0.855327059565438 0.855327059565438 0.855327059565438 0.855327059565438 0.855327059565438 0.855327059565438 0.25 0.525625 0.00157894736842112 0.7 1 0.993135836497111 0.866417941443991 0.993135836497111 0.993135836497111 0.866417941443991 0.993135836497111 0.99719716485315 0.869347266980245 0.997699958776784 0.996375202989291 0.996573710742383 0.81524901838314 0.49188498515176 0.998733458337833 0.999063428170414 0.999730884904289 0.999193500240602 0.193045999259456 0.623008023750618 0.977966393446681 0.985377735020611 0.99891229101355 0.99734355972321 0.939769925762416 0.999208821507697 0.999826073535103 0.993532688707121 0.965895449234009 0.881094920637188 0.964422700748844 0.983771967291119 0.996243507962447 0.983771967291119 0.983771967291119 0.720100143298243 -9999 -9999 -9999 -9999 -9999 -9999 -9999 -9999 -9999 -9999
0.830155666879764 0.830155666879764 0.830155666879764 0.830155666879764 0.830155666879764 0.830155666879764 0.830155666879764 0.830155666879764 0.830155666879764 0.760240484395497 0.760240484395497 0.855327059565438 1 1 1 1 0.855327059565438 0.855327059565438 0.855327059565438 0.855327059565438 0.855327059565438 0.855327059565438 0.855327059565438 0.855327059565438 0.855327059565438 1 1 1 0.786 0.0225 0.827894736842105 0.902857142857143 1 1 0.866417941443991 0.08938222528474 0.08938222528474 0.866417941443991 0.993135836497111 0.993135836497111 0.746499490911101 0.993135836497111 0.993135836497111 0.997024962297993 0.856426090506517 0.86012453298981 0.998480605258715 0.99886795677328 0.999860959001839 0.999900269894259 0.532442376168166 0.771782738538671 0.994977881337836 0.681240703469843 0.831613474434728 0.998534766865152 0.675543619528939 0.906540596810766 0.993532688707121 0.845429034390806 0.983771967291119 0.89707706267359 0.966625163543859 0.980043090707383 0.970693657543825 0.996243876527696 0.983771967291119 0.978381941012823 -9999 -9999 -9999 -9999 -9999 -9999 -9999 -9999 -9999 -9999
0.830155666879764 0.830155666879764 0.862987483521086 0.862987483521086 0.862987483521086 1 1 0.855327059565438 0.760240484395497 0.760240484395497 0.760240484395497 0.855327059565438 1 1 1 1 0.855327059565438 0.855327059565438 0.855327059565438 0.855327059565438 0.855327059565438 0.855327059565438 0.855327059565438 0.855327059565438 0.855327059565438 1 1 0.855327059565438 1 0.00769230769230778 0.0443478260869565 0.5 1 1 0.866417941443991 0.08938222528474 0.08938222528474 0.993135836497111 0.993135836497111 0.982889201160675 0.283736071371044 0.997187560161261 0.99750589708743 0.996907547404022 0.600340798116735 0.889796953625116 0.998842119274822 0.998581333825304 0.999378784576863 0.993532688707121 0.999832199348322 0.962268493786227 0.494215217757675 0.802573672759382 0.93698125025022 0.99897745892782 0.340553937159909 0.659754993047136 0.999517485283545 0.239958286921701 0.983771967291119 0.254886373343608 0.649592040041139 0.62356584000993 0.917147904812707 0.932830662362995 0.999442343276645 0.983771967291119 -9999 -9999 -9999 -9999 -9999 -9999 -9999 -9999 -9999 -9999
1 0.862987483521086 0.862987483521086 0.855327059565438 0.855327059565438 1 1 0.855327059565438 0.855327059565438 0.855327059565438 0.855327059565438 0.855327059565438 0.855327059565438 0.855327059565438 0.855327059565438 0.855327059565438 0.855327059565438 0.855327059565438 0.855327059565438 0.855327059565438 0.855327059565438 0.855327059565438 0.855327059565438 0.855327059565438 0.855327059565438 0.855327059565438 0.855327059565438 0.855327059565438 0.855327059565438 0.855327059565438 0 0.262222222222222 0.760240484395497 1 0.872406280796324 0.866417941443991 0.866417941443991 0.993135836497111 0.922197562461603 0.717264770803469 0.866417941443991 0.869671438453079 0.993135836497111 0.998673051760874 0.659761077516705 0.301995609399752 0.998924913723282 0.998685738185974 0.993532688707121 0.993532688707121 0.999776965976297 0.790416358794444 0.543357800660636 0.98838176774919 0.996775640050707 0.995104904540038 0.99961653975487 0.999787004726029 0.97851356128903 0.901820361562925 0.9200768328034 0.905818705281596 0.918927228542617 0.959902545290127 0.891598872542384 0.998269589863558 0.992493225650225 0.983771967291119 -9999 -9999 -9999 -9999 -9999 -9999 -9999 -9999 -9999 -9999
1 0.855327059565438 0.855327059565438 0.855327059565438 0.855327059565438 0.855327059565438 0.855327059565438 0.855327059565438 0.855327059565438 0.855327059565438 0.855327059565438 0.855327059565438 0.855327059565438 0.855327059565438 0.855327059565438 0.855327059565438 0.855327059565438 0.855327059565438 0.855327059565438 0.855327059565438 0.855327059565438 0.855327059565438 0.855327059565438 0.855327059565438 0.855327059565438 0.855327059565438 0.855327059565438 0.855327059565438 0.855327059565438 0.855327059565438 0.419166666666667 0.816363636363636 1 1 0.760240484395497 0.866417941443991 0.993135836497111 0.993135836497111 0.744851877372833 0.827261827902453 0.995235039577059 0.993135836497111 0.996367336981118 0.997971590038011 0.685513020064972 0.783911775094984 0.870146598181927 0.997891848010996 0.997725959041112 0.999826281927746 0.997193181760683 0.575991054051034 0.240671716056335 0.723906177528618 0.983245358505273 0.998977711140239 0.999800470122821 0.999845978283702 0.999859169270339 0.999826264690742 0.999798060738993 0.919348773824789 0.919811834544208 0.919439177503878 0.863582928895148 0.88471543139694 0.997045385249778 0.983771967291119 0.842749383260677 -9999 -9999 -9999 -9999 -9999 -9999 -9999 -9999 -9999
0.855327059565438 0.855327059565438 0.855327059565438 0.855327059565438 0.855327059565438 0.855327059565438 0.855327059565438 0.855327059565438 0.855327059565438 0.855327059565438 0.855327059565438 0.855327059565438 0.855327059565438 0.855327059565438 0.855327059565438 0.855327059565438 0.855327059565438 0.855327059565438 0.855327059565438 0.855327059565438 0.855327059565438 0.855327059565438 0.855327059565438 0.855327059565438 0.855327059565438 0.855327059565438 0.855327059565438 0.855327059565438 0.855327059565438 0.855327059565438 0.426363636363636 0.0083333333333333 0.760240484395497 0.760240484395497 0.760240484395497 0.866417941443991 0.993135836497111 0.993135836497111 0.866417941443991 0.993135836497111 0.993135836497111 0.991670278480799 0.99028068574533 0.993135836497111 0.966321168911689 0.73102574985442 0.997249419112295 0.996904323291654 0.997410318406278 0.993532688707121 0.993532688707121 0.999807496848983 0.331238342926237 0.338617601784496 0.953802859927976 0.999071476541573 0.999356983216601 0.993532688707121 0.993532688707121 0.993532688707121 0.999826330646887 0.999005108039814 0.99784124079701 0.983771967291119 0.743362692784352 0.611194089997015 0.983771967291119 0.983771967291119 0.978381941012823 0.87819773064135 -9999 -9999 -9999 -9999 -9999 -9999 -9999 -9999
0.855327059565438 0.855327059565438 0.855327059565438 0.855327059565438 0.855327059565438 0.855327059565438 0.855327059565438 0.855327059565438 0.855327059565438 0.855327059565438 0.855327059565438 0.855327059565438 0.855327059565438 0.855327059565438 0.855327059565438 0.855327059565438 0.855327059565438 0.855327059565438 0.855327059565438 0.855327059565438 0.855327059565438 0.855327059565438 0.855327059565438 0.855327059565438 0.855327059565438 0.855327059565438 0.855327059565438 0.855327059565438 0.855327059565438 0.855327059565438 0.00090909090909097 0.00090909090909097 0.760240484395497 0.760240484395497 0.760240484395497 0.866417941443991 0.866417941443991 0.866417941443991 0.992400920080711 0.993319069528836 0.868900671214458 0.993135836497111 0.993135836497111 0.993135836497111 0.674498942786294 0.781523459551245 0.993985296925294 0.993135836497111 0.993135836497111 0.997726802346707 0.993532688707121 0.993532688707121 0.334557285555214 0.519120829849471 0.892689120803349 0.999621526183255 0.999706806840999 0.999863085488572 0.993532688707121 0.997800920004289 0.993532688707121 0.993532688707121 0.983771967291119 0.993931367807643 0.577966030783533 0.790462912895351 0.997979447607983 0.997529342611278 0.983771967291119 0.937650264344587 0.869719700575841 0.800130756525019 -9999 -9999 -9999 -9999 -9999 -9999
0.855327059565438 0.855327059565438 0.855327059565438 0.855327059565438 0.855327059565438 0.855327059565438 0.855327059565438 0.855327059565438 0.855327059565438 0.855327059565438 0.855327059565438 0.855327059565438 0.855327059565438 0.855327059565438 0.855327059565438 0.855327059565438 0.855327059565438 0.855327059565438 0.855327059565438 1 0.855327059565438 0.855327059565438 0.855327059565438 0.855327059565438 0.855327059565438 0.855327059565438 0.855327059565438 0.855327059565438 0.855327059565438 0.855327059565438 0.00090909090909097 0.000833333333333242 0.760240484395497 0.760240484395497 0.760240484395497 0.760240484395497 0.866417941443991 0.597122921693888 0.691391552989511 0.960567177046276 0.584826408473787 0.857308778256722 0.678311776327527 0.993135836497111 0.950572872075806 0.777128792058989 0.761745347322277 0.996769709392084 0.0897928535825488 0.842510234628383 0.993532688707121 0.999829608522158 0.699040475255125 0.413510936865697 0.805192182227027 0.967740427360663 0.799162027571488 0.999803103088052 0.770701132149904 0.694479349406278 0.993532688707121 0.975649100310393 0.31895961916191 0.962691139420595 0.466156562962561 0.800544438383148 0.873637545417633 0.357109224126676 0.983771967291119 0.983771967291119 0.983771967291119 0.973145347951906 0.973145347951906 0.942599707457632 -9999 -9999 -9999 -9999
0.855327059565438 0.855327059565438 0.855327059565438 0.855327059565438 0.855327059565438 0.855327059565438 0.855327059565438 0.855327059565438 0.855327059565438 0.855327059565438 0.855327059565438 0.855327059565438 0.855327059565438 0.855327059565438 0.855327059565438 0.855327059565438 0.855327059565438 0.855327059565438 0.855327059565438 1 1 0.855327059565438 0.855327059565438 0.855327059565438 0.855327059565438 0.855327059565438 0.855327059565438 0.855327059565438 0.855327059565438 0.855327059565438 0.000769230769230855 0.00187499999999996 0.760240484395497 0.760240484395497 0.760240484395497 0.760240484395497 0.866417941443991 0.597536728292428 0.632262668402261 0.94448137733504 0.806604776359881 0.695746827679365 0.774551611494789 0.709238202218267 0.993135836497111 0.672204778388319 0.729587055989458 0.998133788974652 0.721079057245325 0.855019627948762 0.999884852840459 0.993532688707121 0.83260606601728 0.550510061758234 0.44739946517962 0.963265407012308 0.687912102107294 0.999091457467107 0.739478467684507 0.804099122726964 0.993532688707121 0.958466829105694 0.61928445340976 0.974901177086179 0.29636130514645 0.927015892255093 0.810628101047882 0.513114747150263 0.983771967291119 0.983771967291119 0.983771967291119 0.983771967291119 0.983771967291119 0.793086996602339 0.973145347951906 -9999 -9999 -9999
0.855327059565438 0.855327059565438 0.855327059565438 1 0.855327059565438 0.855327059565438 0.855327059565438 0.855327059565438 0.855327059565438 0.855327059565438 0.855327059565438 0.855327059565438 0.855327059565438 0.855327059565438 0.855327059565438 0.855327059565438 0.855327059565438 0.855327059565438 0.855327059565438 0.855327059565438 0.855327059565438 0.855327059565438 1 0.855327059565438 0.855327059565438 0.855327059565438 0.855327059565438 0.855327059565438 0.855327059565438 1 0 0.002 0.00124999999999997 0.760240484395497 0.760240484395497 0.760240484395497 0.973273119767169 0.456842484788671 0.993135836497111 0.993135836497111 0.791445614703319 0.896503085621091 0.997544437770144 0.786165566737884 0.679702381397996 0.341638727755006 0.433773991824774 0.993135836497111 0.993135836497111 0.997728444506982 0.993532688707121 0.999826506746144 0.993532688707121 0.993532688707121 0.98004626966128 0.999791197364011 0.999626206058282 0.999385999482435 0.998969213801821 0.999850918561895 0.999679410303499 0.999671849350509 0.993532688707121 0.983771967291119 0.920097145875039 0.998957152747438 0.0862494495671977 0.759471958748744 0.966779542401546 0.983771967291119 0.983771967291119 0.983771967291119 0.983771967291119 0.983771967291119 0.82583494235655 -9999 -9999 -9999
0.855327059565438 0.855327059565438 0.855327059565438 1 1 0.855327059565438 0.855327059565438 0.855327059565438 0.855327059565438 0.855327059565438 0.855327059565438 0.855327059565438 0.855327059565438 0.855327059565438 0.855327059565438 0.855327059565438 0.855327059565438 0.855327059565438 0.855327059565438 0.855327059565438 0.855327059565438 0.855327059565438 0.855327059565438 0.855327059565438 0.855327059565438 0.855327059565438 0.855327059565438 0.855327059565438 1 1 0.855327059565438 0.00124999999999997 0.000624999999999987 0.8 1 0.760240484395497 0.781266858044394 0.117190028706659 0.993135836497111 0.996409568062426 0.907041650969589 0.868237181735628 0.867375584291186 0.915103735058052 0.819719040431846 0.685899562161972 0.383795093578675 0.998023721944803 0.993135836497111 0.993135836497111 0.993135836497111 0.993532688707121 0.999737677326381 0.999403614191741 0.521526603263046 0.987303542379118 0.99978734488151 0.999791693391033 0.999865129639945 0.99557079410372 0.901820361562925 0.906815992490383 0.993532688707121 0.907565433199708 0.919928690983926 0.994139064822598 0.890141750827885 0.864204233648983 0.638836921259671 0.804725469244136 0.983771967291119 0.905818705281596 0.983771967291119 0.983771967291119 0.983771967291119 0.818266510684931 0.905818705281596 -9999
0.855327059565438 0.855327059565438 0.855327059565438 0.855327059565438 0.855327059565438 0.855327059565438 0.855327059565438 0.855327059565438 0.855327059565438 0.855327059565438 0.855327059565438 0.855327059565438 0.855327059565438 0.855327059565438 0.855327059565438 0.855327059565438 0.855327059565438 0.855327059565438 0.855327059565438 0.855327059565438 0.855327059565438 0.855327059565438 0.855327059565438 0.855327059565438 0.855327059565438 0.855327059565438 0.855327059565438 0.855327059565438 0.855327059565438 0.855327059565438 0.855327059565438 0.855327059565438 0.000624999999999987 0.386153846153846 1 1 1 0.866417941443991 0.794508669197689 0.798232928584553 0.737736761189374 0.993135836497111 0.997118278919744 0.996164708783306 0.997366453524521 0.708023133579579 0.846739701669747 0.993135836497111 0.996975652974318 0.99754158192732 0.993135836497111 0.999872006722401 0.999415057156399 0.993532688707121 0.699525563140751 0.928634888530791 0.993532688707121 0.993532688707121 0.993532688707121 0.993532688707121 0.999578671987596 0.907527024416835 0.993532688707121 0.993532688707121 0.983771967291119 0.998957531585772 0.998923067726735 0.905818705281596 0.346924304372667 0.43974606937913 0.983771967291119 0.905818705281596 0.983771967291119 0.983771967291119 0.983771967291119 0.868929032513801 -9999 -9999
0.855327059565438 0.855327059565438 0.855327059565438 0.855327059565438 0.855327059565438 0.855327059565438 0.855327059565438 0.855327059565438 0.855327059565438 0.855327059565438 1 0.855327059565438 0.855327059565438 0.855327059565438 0.855327059565438 0.855327059565438 0.855327059565438 0.855327059565438 0.855327059565438 0.855327059565438 0.855327059565438 0.855327059565438 0.855327059565438 0.855327059565438 0.855327059565438 0.855327059565438 0.855327059565438 0.855327059565438 0.855327059565438 0.855327059565438 0.855327059565438 0 0 0.018 0.0033333333333333 1 1 0.886182746412807 0.118273449619201 0.127452432350463 0.869053140488715 0.997063788434658 0.997424021351191 0.996781854092002 0.816499534148696 0.466318214171867 0.415743369880124 0.997729626854228 0.993135836497111 0.997828707793655 0.99821677352007 0.998755344626362 0.999877779146875 0.993243413689496 0.575539576597761 0.995905666409982 0.999758739841271 0.99951098507108 0.999749384106963 0.907444192753387 0.999819749115192 0.993532688707121 0.999870906333939 0.999499063767652 0.996592942042332 0.917986489649171 0.920157131676654 0.999030341488973 0.173142512641176 0.849980670743817 0.999444334939379 0.983771967291119 0.983771967291119 0.983771967291119 0.983771967291119 0.983771967291119 0.910691764006636 -9999
0.855327059565438 0.855327059565438 0.855327059565438 0.855327059565438 0.855327059565438 1 1 0.855327059565438 0.855327059565438 0.855327059565438 1 1 0.855327059565438 0.855327059565438 0.855327059565438 0.855327059565438 0.855327059565438 0.855327059565438 0.855327059565438 0.855327059565438 0.855327059565438 0.855327059565438 0.855327059565438 0.855327059565438 0.855327059565438 0.855327059565438 0.855327059565438 0.855327059565438 0.855327059565438 0.855327059565438 0.855327059565438 0.855327059565438 0.227 0.231875 0.0466666666666667 1 1 0.628 0.0450221579212024 0.405199421290821 0.848421757464675 0.993135836497111 0.754391179367313 0.579843328791333 0.415025019302909 0.679760636428046 0.651206707212922 0.997658789663448 0.993135836497111 0.993135836497111 0.581337137919982 0.385740655481757 0.999853340337397 0.999129878351208 0.558762609797484 0.667089366307113 0.96425183974693 0.606752722993919 0.999894133812855 0.907528199160525 0.993532688707121 0.999863421067508 0.850924119398939 0.757721068261079 0.543640645959483 0.870975739126289 0.628498396270421 0.590878037854229 0.726761540836314 0.705241529051821 0.648059783453025 0.55829059143771 0.967123518613885 0.983771967291119 0.983771967291119 0.983771967291119 -9999 0.920810561384488
0.855327059565438 0.855327059565438 0.855327059565438 1 0.855327059565438 1 1 0.855327059565438 1 1 0.855327059565438 0.855327059565438 0.855327059565438 0.855327059565438 0.855327059565438 0.855327059565438 0.855327059565438 0.855327059565438 0.855327059565438 0.855327059565438 0.855327059565438 0.855327059565438 0.855327059565438 0.855327059565438 0.855327059565438 0.855327059565438 0.855327059565438 0.855327059565438 0.855327059565438 0.855327059565438 0.855327059565438 0.855327059565438 0.0359999999999999 0.00099999999999989 0.000666666666666593 0.760240484395497 0.760240484395497 0 0 0.882787410219654 0.993135836497111 0.996718521021999 0.997122481161919 0.997792513056334 0.724539549611581 0.722333859974481 0.755951630839566 0.997730711562769 0.993135836497111 0.997103722402384 0.998336971005431 0.999857586926173 0.999528467993429 0.999603862248467 0.589327835973827 0.745149516530341 0.999826755231482 0.999478235794132 0.99992689346079 0.999832012020658 0.999858293035102 0.993532688707121 0.999870505601864 0.999579076968156 0.989345703027385 0.999186584770387 0.999089256280959 0.983771967291119 0.983771967291119 0.983771967291119 0.983771967291119 0.905818705281596 0.983771967291119 0.983771967291119 0.983771967291119 0.983771967291119 -9999 -9999
0.855327059565438 0.855327059565438 0.855327059565438 1 1 1 0.855327059565438 0.855327059565438 1 1 0.855327059565438 1 1 0.855327059565438 0.855327059565438 0.855327059565438 0.855327059565438 0.855327059565438 0.855327059565438 0.855327059565438 1 1 0.855327059565438 0.855327059565438 0.855327059565438 0.855327059565438 0.855327059565438 0.855327059565438 0.855327059565438 0.855327059565438 0.855327059565438 0.855327059565438 0 0.02375 0.08875 0 0.760240484395497 0 0 0.870010794842299 0.00498534439517471 0 0.998294050668615 0.998209573433773 0.487164890182641 0.777703549792313 0.814890194816484 0.997368113776237 0.997731032408539 0.998532981401137 0.99819716663966 0.997728818977437 0.999129738309257 0.993532688707121 0.694851924164543 0.881348274007253 0.993532688707121 0.999199683912621 0.999750893452655 0.907643515013199 0.999924398757919 0.999917277203315 0.993532688707121 0.999766078441205 0.999364126008196 0.988799853288908 0.999307048129735 0.920139288070532 0.901144488728199 0.999470677610805 0.983771967291119 0.983771967291119 0.983771967291119 0.983771967291119 0.983771967291119 0.983771967291119 0.973145347951906 0.73507585759759
0.855327059565438 0.855327059565438 0.855327059565438 0.855327059565438 1 1 0.855327059565438 0.855327059565438 0.855327059565438 0.855327059565438 0.855327059565438 1 1 0.855327059565438 1 1 0.855327059565438 1 1 0.855327059565438 1 1 0.855327059565438 0.855327059565438 1 0.855327059565438 0.855327059565438 0.855327059565438 0.855327059565438 0.855327059565438 0.855327059565438 0.855327059565438 0.855327059565438 0 0.00624999999999998 0.10625 0.8975 1 0 0.0233333333333333 0.37095569787179 0.996540933273698 0.86887065284458 0.869565184167563 0.412605879405284 0.692720708656783 0.91698081368084 0.997967757029535 0.993135836497111 0.998280648374249 0.997617795081919 0.993135836497111 0.998257056168634 0.993532688707121 0.765626843332281 0.788704380165526 0.993532688707121 0.993532688707121 0.993532688707121 0.999714087269409 0.999865397756535 0.993532688707121 0.999826846084517 0.999812239101134 0.999613365594564 0.999065195470247 0.983771967291119 0.999321519649117 0.999514063123348 0.920079058142324 0.983771967291119 0.983771967291119 0.983771967291119 0.983771967291119 0.983771967291119 0.983771967291119 0.978381941012823 0.596934138109117
