NCOLS 78 
NROWS 66 
XLLCORNER -87.5 
YLLCORNER 25 
CELLSIZE 0.0833333333333333 
NODATA_value -9999 
-9999.000000000000000 -9999 -9999 -9999 0.000997698642734936 0.000981835806666632 -9999 -9999 -9999 -9999 -9999 0.000842757001218179 0.000769037417497689 0.000922877727534066 0.00090479427461915 0.000997698642734936 -9999 -9999 -9999 -9999 -9999 -9999 -9999 -9999 -9999 -9999 -9999 -9999 -9999 -9999 -9999 -9999 -9999 -9999 -9999 -9999 -9999 -9999 -9999 -9999 -9999 -9999 -9999 -9999 -9999 -9999 -9999 -9999 -9999 -9999 -9999 -9999 -9999 -9999 -9999 -9999 -9999 -9999 -9999 -9999 -9999 -9999 -9999 -9999 -9999 -9999 -9999 -9999 -9999 -9999 -9999 -9999 0.0106759375946055 0.0106759375946055 0.0106759375946055 0.0106759375946055 0.0106759375946055 0.0106759375946055
-9999 -9999 -9999 0.000850589033508342 0.000769037417497689 0.000775495205706207 0.000778735374513095 0.000673330242655099 0.000625985514623013 0.00069241399955469 0.000303511890835594 0.000677055145999909 0.000329351193672585 0.000832813114268548 0.000842906678987378 -9999 -9999 -9999 -9999 -9999 -9999 -9999 -9999 -9999 -9999 -9999 -9999 -9999 -9999 -9999 -9999 -9999 -9999 -9999 -9999 -9999 -9999 -9999 -9999 -9999 -9999 -9999 -9999 -9999 -9999 -9999 -9999 -9999 -9999 -9999 -9999 -9999 -9999 -9999 -9999 -9999 -9999 -9999 -9999 -9999 -9999 -9999 -9999 -9999 -9999 -9999 -9999 -9999 -9999 -9999 -9999 -9999 -9999 0.0106759375946055 0.0106759375946055 0.0106759375946055 0.0106759375946055 0.0106759375946055
0.000795536136202137 0.000769787445504212 0.000922277302437925 0.000508652884921532 0.000482995113690672 0.000219508172040758 0.000702886542379182 0.000359642408215726 0.000240195775114794 0.000428570151570226 0.00318441879164618 0.000852736419264115 0.00200489787098278 0.00242397731936594 0.00133606435939696 0.000612823200648022 0.00182199881406615 -9999 -9999 -9999 -9999 -9999 -9999 -9999 -9999 -9999 -9999 -9999 -9999 -9999 -9999 -9999 -9999 -9999 -9999 -9999 -9999 -9999 -9999 -9999 -9999 -9999 -9999 -9999 -9999 -9999 -9999 -9999 -9999 -9999 -9999 -9999 -9999 -9999 -9999 -9999 -9999 -9999 -9999 -9999 -9999 -9999 -9999 -9999 -9999 -9999 -9999 -9999 -9999 -9999 -9999 -9999 -9999 0.0106759375946055 0.0106759375946055 0.0106759375946055 0.0106759375946055 0.0106759375946055
0.000615357504678649 0.000634162401902935 0.000565075224126772 0.0029524200011331 0.000264419048977618 0.000382933805173548 0.000614093143480931 0.000831952257238152 0.000882928215926198 0.000596327284300409 0.000440940002726899 0.0103544807998129 0.00587512056203412 0.000315612345514455 0.000752137235433666 0.00058354598349657 0.00199335466613262 0.00245767831821908 0.00129329581237133 0.0040940444632589 0.000823992375818024 0.000699075483216056 -9999 -9999 -9999 -9999 -9999 -9999 -9999 -9999 -9999 -9999 -9999 -9999 -9999 -9999 -9999 -9999 -9999 -9999 -9999 -9999 -9999 -9999 -9999 -9999 -9999 -9999 -9999 -9999 -9999 -9999 -9999 -9999 -9999 -9999 -9999 -9999 -9999 -9999 -9999 -9999 -9999 -9999 -9999 -9999 -9999 -9999 -9999 -9999 -9999 -9999 -9999 0.0106759375946055 0.0106759375946055 0.0106759375946055 0.0106759375946055 0.0106759375946055
0.000211066059898933 0.000576749072644239 0.000366053358362886 0.000178636439924545 0.000254952349040291 0.000633163484710768 0.00944565397582842 0.00607563785975866 0.00669245445014356 0.000852988569448773 0.000427729286796151 0.000594392746346787 0.000428668143556162 0.000196339285692703 0.000361041448987253 0.000667169628679144 0.000862106065131286 0.00617200279569256 0.00112621131958819 0.000636937291640217 0.00025785546201652 0.000407352659900936 0.000676024430193848 0.000756439211386779 -9999 -9999 -9999 -9999 -9999 -9999 -9999 -9999 -9999 -9999 -9999 -9999 -9999 -9999 -9999 -9999 -9999 0.00879383962220286 -9999 -9999 -9999 -9999 -9999 -9999 -9999 -9999 -9999 -9999 -9999 -9999 -9999 -9999 -9999 -9999 -9999 -9999 -9999 -9999 -9999 -9999 -9999 -9999 -9999 -9999 -9999 -9999 -9999 -9999 -9999 -9999 0.0106759375946055 0.0106759375946055 0.0106759375946055 0.0106759375946055
0.000584071956021484 0.000558632441063987 0.000483818322647506 0.000244267509460737 0.000221551790473848 0.00545808590727179 0.00664882193670158 0.00599991430707328 0.00308113483388724 0.0252369478980039 0.00245037691351924 0.000480762869524465 0.00038630494540939 0.000295291858666484 0.000359029972941828 0.000790399820026999 0.000634417632729413 0.00180678025083544 0.0019271766572222 0.00270642257619283 0.000700574239675627 0.000247738348121936 0.000904032045018824 0.000747230904661246 -9999 -9999 -9999 -9999 -9999 -9999 -9999 -9999 -9999 -9999 -9999 -9999 -9999 -9999 0.00724852401567419 0.00696631668169194 0.00606072903529544 0.00587806967734548 0.0062551048443776 0.00905373431980597 -9999 -9999 -9999 -9999 -9999 -9999 -9999 -9999 -9999 -9999 -9999 -9999 -9999 -9999 -9999 -9999 -9999 -9999 -9999 -9999 -9999 -9999 -9999 -9999 -9999 -9999 -9999 -9999 -9999 -9999 0.0106759375946055 0.0106759375946055 0.0106759375946055 0.0106759375946055
0.00352771642533066 0.000705024585758258 0.00048689562446675 0.000351343691562373 0.000561829647398181 0.00595823980324304 0.00853186800485096 0.00841085174679267 0.00878904493883158 0.00726242233999933 0.00502331963074423 0.00656853492996781 0.00387538145876872 0.0032512508799146 0.000335419024200838 0.00053840503745698 0.000324181483519564 0.000552212227995756 0.000584373450439015 0.000678462408701971 0.000417265427551204 0.000253814750683193 0.000584539994627151 0.000700614368032492 -9999 -9999 -9999 -9999 -9999 -9999 -9999 -9999 -9999 -9999 -9999 -9999 -9999 -9999 0.00957918890005465 0.00928873549913067 0.00928873549913067 0.00599306342738217 0.00563113936236078 0.00563113936236078 0.00678969067615969 -9999 -9999 -9999 -9999 -9999 -9999 -9999 -9999 -9999 -9999 -9999 -9999 -9999 -9999 -9999 -9999 -9999 -9999 -9999 -9999 -9999 -9999 -9999 -9999 -9999 -9999 -9999 -9999 -9999 0.0106759375946055 0.0106759375946055 0.0106759375946055 0.0106759375946055
0.000721019804861281 0.000778677916908771 0.0352246794603708 0.019093165673171 0.00581590572263944 0.0121396157196136 0.0121396157196136 0.00852962919225294 0.0121396157196136 0.00754259436423378 0.0090107979096201 0.00510814810864333 0.00239522346715394 0.00282953500160007 0.0048134825111242 0.00128168209812348 0.000463261224254577 0.000393406291953082 0.00041364314553099 0.000610433220498918 0.0012125677720808 0.000530647821838938 0.000656301768885153 0.000234852231845043 0.00057316629275258 0.000956370766029904 -9999 -9999 -9999 -9999 -9999 -9999 -9999 -9999 -9999 -9999 0.00815866718172209 0.010622644836358 0.00979814596164507 0.00771797994715761 0.00890356329859417 0.00797627455962343 0.00737320276070793 0.00666326840756491 0.00563113936236078 0.00563113936236078 -9999 -9999 -9999 -9999 -9999 -9999 -9999 -9999 -9999 -9999 -9999 -9999 -9999 -9999 -9999 -9999 -9999 -9999 -9999 -9999 -9999 -9999 -9999 -9999 -9999 -9999 -9999 -9999 0.0106759375946055 0.0106759375946055 0.0106759375946055 0.0106759375946055
0.000917934733070521 0.00848658259965034 0.0141576074640199 0.00480997915748609 0.0121396157196136 0.0121396157196136 0.0121396157196136 0.00300883045377936 0.0121396157196136 0.0115565075026201 0.0095490186335708 0.00794887793187807 0.00512096795700661 0.00407401414957302 0.00605663380288443 0.004583551193168 0.000468561254571893 0.000329243130137801 0.000945491996525852 0.000430363948348051 0.000610745576401355 0.000642813714587057 0.000561214690498034 0.000763697748468895 0.000622351722649687 0.000883124657199112 -9999 -9999 -9999 -9999 -9999 -9999 0.00941124267479152 0.00905373431980597 0.00905373431980597 0.00894528392742662 0.00881275824084803 0.0106759375946055 0.0056589730086196 0.00940568178422069 0.00531934681408156 0.00548280275459127 0.00968903165652266 0.0109712319775149 0.00739883872642111 0.00766289149471968 0.00573658806456609 -9999 -9999 -9999 -9999 -9999 -9999 -9999 -9999 -9999 -9999 -9999 -9999 -9999 -9999 -9999 -9999 -9999 -9999 -9999 -9999 -9999 -9999 -9999 -9999 -9999 -9999 -9999 -9999 0.0106759375946055 0.0106759375946055 0.0106759375946055
0.00405567347875698 0.0216091770950538 0.0109792504384526 0.00964991226534052 0.0121396157196136 0.0121396157196136 0.0121396157196136 0.0121396157196136 0.0121396157196136 0.00891671727178106 0.0121396157196136 0.0121396157196136 0.00981409187759876 0.0103337356300107 0.00734788957856087 0.00316785053304777 0.000474159872726641 0.000406851645369498 0.00101923912987572 0.000570016794431416 0.000964658946181104 0.000393668564917999 0.000954457245631104 0.000364632502891542 0.000583209114273086 0.000769037417497689 0.000792154953253804 -9999 -9999 -9999 0.00920905793441178 0.00970953107169602 0.00883033059558709 0.0105867071369665 0.00661953205061165 0.00838312968515899 0.00348789414918081 0.0132555692779276 0.00426696782068855 0.00465379551523557 0.00624160345357068 0.0105968379581761 0.0069967812612053 0.00790616499639412 0.00971680221791293 0.00949447320835489 0.00685491494869492 0.00666326840756491 -9999 -9999 -9999 -9999 -9999 -9999 -9999 -9999 -9999 -9999 -9999 -9999 -9999 -9999 -9999 -9999 -9999 -9999 -9999 -9999 -9999 -9999 -9999 -9999 -9999 -9999 -9999 0.0106759375946055 0.0106759375946055 0.0106759375946055
0.0260756456055125 0.162665817967304 0.0101903453828751 0.0121396157196136 0.0121396157196136 0.0121396157196136 0.0121396157196136 0.0121396157196136 0.0121396157196136 0.0121396157196136 0.0121396157196136 0.0121396157196136 0.0121396157196136 0.0121396157196136 0.0107109267483365 0.00527582838998885 0.000775088306747084 0.00469829434145225 0.00126257546722349 0.00130182783006974 0.000531830035588357 0.000899368340615991 0.00119553062072159 0.00108042808858279 0.000707255641666702 0.00101418279195153 0.00101418279195153 0.00101418279195153 0.000992386407062025 0.000866551561992847 0.00909241883182179 0.00947046885987908 0.0105829514966014 0.00580992381442373 0.0116046062192504 0.0107511178644076 0.00508890991596525 0.00923440961115981 0.00788300208331778 0.00568877900723372 0.0081053254604672 0.00742061887768428 0.00503440518870942 0.00316430120069556 0.00294098356667809 0.00655273643932397 0.0103164152144236 0.0103666723290301 0.00701181527077626 -9999 -9999 -9999 -9999 -9999 -9999 -9999 -9999 -9999 -9999 -9999 -9999 -9999 -9999 -9999 -9999 -9999 -9999 -9999 -9999 -9999 -9999 -9999 -9999 -9999 -9999 -9999 0.0106759375946055 0.0106759375946055
0.0276049375737446 0.0103914302841929 0.0121396157196136 0 0 0 0 0.0121396157196136 0.0121396157196136 0.0121396157196136 0.0121396157196136 0.0121396157196136 0.0121396157196136 0.00852236384004566 0.0121396157196136 0.00852249046467841 0.00828023015802488 0.00658832041279364 0.0167989388721963 0.00162955335616096 0.000399674561283409 0.000837854583327781 0.00137883656346443 0.000658654550019802 0.00101418279195153 0.00101418279195153 0.000772584346833538 0.00101418279195153 0.00101402063933637 0.00101418279195153 0.0102494365800979 0.00456418920529751 0.00367863233344432 0.00445734226436795 0.00550944531126861 0.00612997956125684 0.00924663796314648 0.00443772131159369 0.00421627494436804 0.0139896455845656 0.0108687720574504 0.00295234408740763 0.00501814027311749 0.00368863534399383 0.0086910983102176 0.00659756200071641 0.00668698579709605 0.0106759375946055 0.00638548753940226 -9999 -9999 -9999 -9999 -9999 -9999 -9999 -9999 -9999 -9999 -9999 -9999 -9999 -9999 -9999 -9999 -9999 -9999 -9999 -9999 -9999 -9999 -9999 -9999 -9999 -9999 -9999 0.0106759375946055 0.0106759375946055
0 0 0 0 0 0 0 0 0 0 0 0.0121396157196136 0.0121396157196136 0.0121396157196136 0.0121396157196136 0.0116307040957388 0.00563118991139872 0.0412956956728961 0.000827159509075503 0.00792660938010142 0.000853357186503915 0.00179205675252661 0.00179205674915387 0.00101418279195153 0.00131671018165478 0.00105973212493014 0.000984710328655434 0.001308093461007 0.000924323113684081 0.00101418279195153 0.00669010506980652 0.0067314582667376 0.00351611294277687 0.0015101319091088 0.00242148711072948 0.00209524004388532 0.00265124699601903 0.00467453716142062 0.00628513854218226 0.0056156346668641 0.00603597926923385 0.00595798109149021 0.00520175766565363 0.00771615029296491 0.00727001181773127 0.0111800720898599 0.00534214351360995 0.0106759375946055 0.00861706332897929 0.00650149687102119 0.00879383962220286 -9999 -9999 -9999 -9999 -9999 -9999 -9999 -9999 -9999 -9999 -9999 -9999 -9999 -9999 -9999 -9999 -9999 -9999 -9999 -9999 -9999 -9999 -9999 -9999 -9999 0.0106759375946055 0.0106759375946055
0 0 0 0 0 0 0 0 0 0 0 0 0.0121396157196136 0.0121396157196136 0.0121396157196136 0.00801115291636212 0.00679698665066363 0.00634499493639109 0.00352936334733728 0.00108394002108838 0.00751130317388804 0.00157132331719595 0.00190726991966977 0.0007281156557845 0.00100642105161664 0.000904734938888206 0.00124428631477958 0.00189042304042165 0.000762902728097485 0.000600618943239727 0.00432763806791712 0.00178607940250516 0.00173287432651916 0.00163805409616794 0.00223970794661786 0.00295261084710009 0.00114751872646859 0.00252460768224256 0.00711856746682638 0.00965927697419432 0.00588500004099273 0.00648331884357471 0.00550506621508088 0.00819975939582006 0.0094520257887808 0.0138047737701349 0.00603077279040524 0.00701712393512738 0.00932945880174423 0.00941124267479152 0.0105185680790993 0.00988839325303538 -9999 -9999 -9999 -9999 -9999 -9999 -9999 -9999 -9999 -9999 -9999 -9999 -9999 -9999 -9999 -9999 -9999 -9999 -9999 -9999 -9999 -9999 -9999 -9999 -9999 0.0106759375946055
0 0 0 0 0 0 0 0 0 0 0 0 0 0.0121396157196136 0.0121396157196136 0.0121396157196136 0.0121396157196136 0.00278191297177242 0.00347785340724203 0.0114433936568396 0.0399976866565187 0.00718192502914888 0.00352625002548074 0.00162347868685764 0.0284112981785608 0.00102930110230485 0.000813757226277623 0.00189042304042165 0.00100605590640731 0.00162898152203145 0.00429144125447913 0.0036036866984781 0.00278851760055512 0.00200239694121855 0.00175733959363281 0.00373376286631432 0.00140971712351899 0.00179454252537472 0.00240802525902268 0.0105405914519652 0.00675314644946421 0.00329662206976825 0.0040669628311065 0.00344353123373257 0.00780168842004289 0.00667889258671595 0.00902363216915989 0.00514298884662677 0.01124233793267 0.0076085838761651 0.0101218860498537 0.00949447320835489 -9999 -9999 -9999 -9999 -9999 -9999 -9999 -9999 -9999 -9999 -9999 -9999 -9999 -9999 -9999 -9999 -9999 -9999 0.0106759375946055 0.0106759375946055 -9999 -9999 -9999 -9999 -9999 0.0106759375946055
0 0 0 0 0 0 0 0 0 0 0 0 0 0 0.0121396157196136 0.0121396157196136 0.0121396157196136 0.0121396157196136 0.00864084073491941 0.0116290996907986 0.00322042181648454 0.0141787799489217 0.00733284229385579 0.00790051276743909 0.000784745703423149 0.000688254327065311 0.000578387160047437 0.000510135176746867 0.00131688571820704 0.00140652154382773 0.00351242749742945 0.00241744163735585 0.00266953208545696 0.00254732513028191 0.00135318789676437 0.00190716950066827 0.00224761260039007 0.00202444818359079 0.00396067673884023 0.00372257048829445 0.00399856374241915 0.0044905591863165 0.00311732083150343 0.00510982923658295 0.00779463304385861 0.00747020309352186 0.00790506066289685 0.0106759375946055 0.0106759375946055 0.0106759375946055 0.0104165109456944 0.0106759375946055 0.00894030172130509 -9999 -9999 -9999 -9999 -9999 -9999 -9999 -9999 -9999 -9999 -9999 -9999 -9999 -9999 -9999 -9999 -9999 -9999 0.0106759375946055 -9999 -9999 -9999 -9999 -9999 -9999
0 0 0 0 0 0 0 0 0 0 0 0 0 0 0 0.0121396157196136 0.0121396157196136 0.0121396157196136 0.0121396157196136 0.0112554193101998 0.0083709288523131 0.00475080935268123 0.00374249141505497 0.00589475593644182 0.00137738317924244 0.000820547854536381 0.000550758340733227 0.00041761602815095 0.00053211028249071 0.00129094057406637 0.0035862592062764 0.00218190913060834 0.00351969876178889 0.00183317746256767 0.00166006553186518 0.00193350352134449 0.00179097794610923 0.00254579848377414 0.00269704961349656 0.00194691036404048 0.0015732282258043 0.00274426232806238 0.00503356973346131 0.00611793127730785 0.00604612103543903 0.0071447023277522 0.00680741048723904 0.0260662054481936 0.0185512606652935 0.0250444078749083 0.0106759375946055 0.0106759375946055 0.008978020943968 0.00724852401567419 0.00739883872642111 0.00589405974178011 -9999 -9999 -9999 -9999 -9999 -9999 -9999 -9999 -9999 -9999 -9999 -9999 -9999 -9999 -9999 -9999 0.0106759375946055 -9999 -9999 -9999 -9999 -9999
0 0 0 0 0 0 0 0 0 0 0 0 0 0 0 0 0.0121396157196136 0.0121396157196136 0.0121396157196136 0.0121396157196136 0.0121396157196136 0.0121396157196136 0.0121396157196136 0.00667728179177135 0.000777368927628315 0.000763994162763821 0.0010280599360796 0.000652331217877995 0.00131623406381499 0.00127857337414329 0.00351242737464825 0.00262415002157426 0.00180007615979815 0.00144171151504736 0.00140985064967805 0.00209282267269092 0.00233612218451155 0.00451056640529146 0.00281284962874846 0.00156085116383139 0.00367351578640969 0.00259292641247928 0.00605137742968507 0.00418869014348961 0.00531804275060304 0.00843355372652971 0.00465776827940982 0.0354031431160529 0.0320349000623189 0.0228034565482705 0.0634985735369843 0.0106759375946055 0.010622644836358 0.00901537768831425 0.0079174510546155 0.00572116501003531 0.00566083145111479 -9999 -9999 -9999 -9999 -9999 -9999 -9999 -9999 -9999 -9999 -9999 -9999 -9999 -9999 -9999 -9999 -9999 -9999 -9999 -9999 -9999
0 0 0 0 0 0 0 0 0 0 0 0 0 0 0 0 0.0121396157196136 0.0121396157196136 0.0121396157196136 0.0121396157196136 0.0121396157196136 0.0121396157196136 0.0121396157196136 0.00850771168911373 0.00301094800351749 0.00889904079911198 0.0343032109062828 0.000824510414161773 0.000860641593204082 0.00139830815112778 0.00200192925560697 0.00343378107633069 0.00266926463998202 0.00175633910315564 0.00162686594690143 0.00229274754684238 0.00130768503488373 0.00212897676208865 0.00227912551601466 0.00261618358040434 0.00290460300347967 0.00312430555365479 0.00396410309350396 0.00829261748215294 0.00891769928658705 0.00813636029341211 0.00771837902093415 0.0098242797810867 0.0060059993419044 0.0042107013668173 0.0382114561068022 0.0106759375946055 0.0106759375946055 0.0106759375946055 0.0100739688519284 0.00670488294680673 0.00612994025802224 -9999 -9999 -9999 -9999 -9999 -9999 -9999 -9999 -9999 -9999 -9999 -9999 -9999 -9999 -9999 -9999 -9999 -9999 -9999 -9999 -9999
0 0 0 0 0 0 0 0 0 0 0 0 0 0 0 0 0.0121396157196136 0.0121396157196136 0.0121396157196136 0.0121396157196136 0.0121396157196136 0.0121396157196136 0.0121396157196136 0.0121396157196136 0.00499257967393656 0.00602809871395185 0.00805861745536299 0.012294055525584 0.0286882350550559 0.00116132040999381 0.00162282704853015 0.00230936985762731 0.00302210673638309 0.00224581981121053 0.001956931968965 0.00163945747288497 0.00179057100680133 0.00309367660790448 0.00180400753646361 0.00269291097902898 0.00366750530260492 0.00366704000119956 0.0137051523421391 0.00405188817859225 0.010497248948933 0.00634443900640508 0.00544346863291788 0.0100841851571321 0.0106759375946055 0.0090742988599726 0.00715714712627143 0.0089220441704287 0.0106759375946055 0.0102675275962992 0.00589405974178011 0.00563113936236078 0.00563113936236078 0.00567593049850753 -9999 -9999 -9999 -9999 -9999 -9999 -9999 -9999 -9999 -9999 -9999 -9999 -9999 -9999 -9999 -9999 -9999 -9999 -9999 -9999
0 0 0 0 0 0 0 0 0 0 0 0 0 0 0 0 0 0.0121396157196136 0.0121396157196136 0.0121396157196136 0.0121396157196136 0.0121396157196136 0.0121396157196136 0.0103183898667628 0.0108999869090773 0.00434364216806282 0.00540594348002056 0.00556494500080924 0.0156157102666753 0.00807052501609135 0.00330268700755155 0.00216780095171584 0.00189994686988281 0.00321960246641172 0.00363719316700286 0.00239188512669685 0.00197829945725408 0.00244643642066087 0.00219250129697633 0.00362833422803498 0.00282062769139181 0.00170713646156582 0.00136651116483595 0.00274425506807352 0.00512107143906547 0.00468291418442097 0.00501473023773645 0.00667007975816954 0.00827489795052187 0.00605915648446769 0.0114850747618401 0.0106759375946055 0.00577895699201319 0.0100739688519284 0.00563113936236078 0.00563113936236078 0.00563113936236078 0.00564608006219225 -9999 -9999 -9999 -9999 -9999 -9999 -9999 -9999 -9999 -9999 -9999 -9999 -9999 -9999 -9999 -9999 -9999 -9999 -9999 0.0106759375946055
0 0 0 0 0 0 0 0 0 0 0 0 0 0 0 0 0 0 0.0121396157196136 0.0121396157196136 0.0121396157196136 0.0121396157196136 0.0121396157196136 0.00979513654296668 0.00932247106243993 0.00979418409668114 0.0121396157196136 0.00792070791979347 0.00710990737771458 0.00508693663635555 0.00342945408146052 0.00273947237618701 0.00323768148384059 0.00394223119590079 0.0031943322345374 0.00193283980932681 0.0025679212442154 0.0283799548751123 0.00372436629782143 0.00256555432553508 0.00145608089779856 0.00187315564844963 0.00279861203108266 0.00251905807262079 0.00485122863127334 0.00432087270702171 0.00470556329482586 0.00993088955695654 0.0102476430145984 0.0061638978627464 0.0262450667303149 0.0106759375946055 0.00760968046137373 0.0100739688519284 0.00563113936236078 0.00563113936236078 0.00563113936236078 0.00563113936236078 -9999 -9999 -9999 -9999 -9999 -9999 -9999 -9999 -9999 -9999 -9999 -9999 -9999 -9999 -9999 -9999 -9999 -9999 -9999 -9999
0 0 0 0 0 0 0 0 0 0 0 0 0 0 0 0 0 0 0.0121396157196136 0.0121396157196136 0.0121396157196136 0.0121396157196136 0.0121396157196136 0.0121396157196136 0.0121396157196136 0.0121396157196136 0.0121396157196136 0.0121396157196136 0.00774180671909211 0.00400708658525008 0.00185221758260622 0.00230714997151717 0.00485122863127334 0.00448152935643223 0.00323949356296004 0.00271068914505599 0.00228071441631835 0.140149117548953 0.00355323481559631 0.00369717513837528 0.00262009382047919 0.00196459358680348 0.00255665278851828 0.00226466069491253 0.00134775197300854 0.00281383510092381 0.00762405777814472 0.00568040301967982 0.011041486006554 0.0106759375946055 0.0278950109479107 0.00709804287918389 0.00743261093949787 0.0100739688519284 0.00563113936236078 0.00563113936236078 0.00563113936236078 0.00563113936236078 -9999 -9999 -9999 -9999 -9999 -9999 -9999 -9999 -9999 -9999 -9999 -9999 -9999 -9999 -9999 -9999 -9999 -9999 -9999 -9999
0 0 0 0 0 0 0 0 0 0 0 0 0 0 0 0 0 0 0 0.0121396157196136 0.0121396157196136 0.0121396157196136 0.0121396157196136 0.0121396157196136 0.0121396157196136 0.0121396157196136 0.0121396157196136 0.0121396157196136 0.0103145320377952 0.00275862952252634 0.00264455966394849 0.00485122863127334 0.00485122863127334 0.00399553318120818 0.00315100409480058 0.00358049766664224 0.00360618575039379 0.15382645228727 0.0167976891416085 0.00361210458442333 0.00303167335962821 0.00269527235013763 0.00195573077718136 0.00298588023349695 0.00168285531447242 0.00448969989921245 0.00664173797995754 0.0085405596052234 0.00520825063320739 0.00537801076917881 0.0106759375946055 0.00872943431065921 0.00856338020826295 0.0101218860498537 0.00563113936236078 0.00563113936236078 0.00563113936236078 0.00563113936236078 -9999 -9999 -9999 -9999 -9999 -9999 -9999 -9999 -9999 -9999 -9999 -9999 -9999 -9999 -9999 -9999 -9999 -9999 -9999 -9999
0 0 0 0 0 0 0 0 0 0 0 0 0 0 0 0 0 0 0 0 0 0.0121396157196136 0.0121396157196136 0.0121396157196136 0.0121396157196136 0.0121396157196136 0.0121396157196136 0.0121396157196136 0.00614642167664928 0.00703061980202783 0.00331234043442966 0.00339901837160808 0.00265066166247328 0.0037741971841241 0.00280928245368162 0.00485949635368287 0.00264363124960306 0.0719707234268165 0.0638877929443113 0.0702050511800825 0.00283733422034815 0.00144246967825558 0.00342943078377262 0.00203757149944778 0.0021884819073504 0.00159340128635152 0.00234770918410652 0.00579816459784768 0.00563711182754996 0.00952226994796543 0.0106759375946055 0.00664187225810307 0.0106759375946055 0.0106759375946055 0.00563113936236078 0.00563113936236078 0.00563113936236078 0.00566083145111479 -9999 -9999 -9999 -9999 -9999 -9999 -9999 -9999 -9999 -9999 -9999 -9999 -9999 -9999 -9999 -9999 -9999 -9999 -9999 -9999
0 0 0 0 0 0 0 0 0 0 0 0 0 0 0 0 0 0 0 0 0 0 0.0121396157196136 0.0121396157196136 0.0121396157196136 0.0121396157196136 0.0121396157196136 0.0121396157196136 0.0113223136273142 0.00606861517692972 0.00112245110768818 0.00325234129831508 0.00211303366764818 0.00352995320509698 0.0037741971841241 0.00163874637735169 0.00485944825511276 0.0111985956347986 0.00457734360247633 0.00868811489660049 0.00272966781408339 0.00244216890873064 0.00209334629853153 0.00351336177984716 0.00205446833235104 0.00299228781979232 0.00261890376267789 0.00225463195921379 0.00472737038021433 0.00532613519053969 0.00643775832957873 0.00718077415769301 0.00656790860399392 0.0106759375946055 0.00567593049850753 0.00563113936236078 0.00563113936236078 -9999 -9999 -9999 -9999 -9999 -9999 -9999 -9999 -9999 -9999 -9999 -9999 -9999 -9999 -9999 -9999 -9999 -9999 -9999 -9999 -9999
0 0 0 0 0 0 0 0 0 0 0 0 0 0 0 0 0 0 0 0 0 0 0 0 0.0121396157196136 0.0121396157196136 0.0121396157196136 0.0121396157196136 0.0121396157196136 0.00836874675445229 0.00280901944953842 0.00233263589457581 0.00892726373430793 0.00244303548496034 0.0037741971841241 0.00346145567882501 0.00283351860097521 0.00552222249152632 0.00257469252686318 0.00485122863127334 0.106161911703168 0.00937184874521982 0.00342770997900366 0.00466844469129352 0.00267522003685376 0.00416630941725831 0.00192485008268384 0.00227474100873785 0.00450559834494855 0.00562766423273365 0.00523834290350903 0.00767822098865426 0.0106759375946055 0.00988225609312481 0.00834901143887182 0.00592689205564684 0.00563113936236078 -9999 -9999 -9999 -9999 -9999 -9999 -9999 -9999 -9999 -9999 -9999 -9999 -9999 -9999 -9999 -9999 -9999 -9999 -9999 -9999 -9999
0 0 0 0 0 0 0 0 0 0 0 0 0 0 0 0 0 0 0 0 0 0 0 0 0 0.0121396157196136 0.0121396157196136 0.0121396157196136 0.0121396157196136 0.0121396157196136 0.0037741971841241 0.0037741971841241 0.0026420261006107 0.00208252052465633 0.00194527868856483 0.0037741971841241 0.00264025549669861 0.00319189726843622 0.00251650370113392 0.00249081527001462 0.00290977056020628 0.0524513950350469 0.00345873545016156 0.00298989173704435 0.00218973730779598 0.00281435773890318 0.00393711074067412 0.00335553245239389 0.00422719858479341 0.0106759375946055 0.0106759375946055 0.0106759375946055 0.00812791391539322 0.00786496343683102 0.0106759375946055 0.00604351660397985 0.0062551048443776 -9999 -9999 -9999 -9999 -9999 -9999 -9999 -9999 -9999 -9999 -9999 -9999 -9999 -9999 -9999 -9999 -9999 -9999 -9999 -9999 -9999
0 0 0 0 0 0 0 0 0 0 0 0 0 0 0 0 0 0 0 0 0 0 0 0 0 0 0 0 0.0121396157196136 0.0121396157196136 0.0037741971841241 0.00264161327299268 0.0011617173187595 0.00172326060016232 0.00181072806652064 0.00315544011548248 0.00201518557150095 0.0037741971841241 0.00485122863127334 0.00329558116131472 0.00196306354632578 0.00360334329286095 0.00211244663119976 0.00336325000826506 0.00267114058191388 0.00267944512244194 0.00308811941321964 0.00310181860207545 0.00341916028450493 0.00428774011199116 0.0106759375946055 0.0123928499060198 0.107799098800392 0.0106759375946055 0.0106759375946055 0.00886646592290386 -9999 -9999 -9999 -9999 -9999 -9999 -9999 -9999 -9999 -9999 -9999 -9999 -9999 -9999 -9999 -9999 -9999 -9999 -9999 -9999 -9999 -9999
0 0 0 0 0 0 0 0 0 0 0 0 0 0 0 0 0 0 0 0 0 0 0 0 0 0 0 0 0.0121396157196136 0.0037741971841241 0.0037741971841241 0.0037741971841241 0.00199199762460752 0.00146448668781037 0.00319056538581955 0.0037741971841241 0.00276339222110344 0.00359991191102575 0.00342407387516438 0.00342311405402326 0.00382139751942262 0.00198330362254107 0.00302223539863526 0.0025013437264759 0.00186535257362239 0.00246940413697099 0.00154482450986135 0.00266317971121608 0.00485122863127334 0.00366479708465515 0.0106759375946055 0.00748965454666129 0.00789837350711686 0.0112771050807078 0.0108961445115274 0.0105708190991862 -9999 -9999 -9999 -9999 -9999 -9999 -9999 -9999 -9999 -9999 -9999 -9999 -9999 -9999 -9999 -9999 -9999 -9999 -9999 -9999 -9999 -9999
0 0 0 0 0 0 0 0 0 0 0 0 0 0 0 0 0 0 0 0 0 0 0 0 0 0 0 0 0 0.0037741971841241 0.0037741971841241 0.0037741971841241 0.00264064102582405 0.0037741971841241 0.0022704025642374 0.000973638938873169 0.00192530845542526 0.00180844853817865 0.00239082614988176 0.00278137228077847 0.00162885170292508 0.00266333345309368 0.00485122863127334 0.00447966472763002 0.0014184980591245 0.00158891080660381 0.00192859295912752 0.00485908837279433 0.00218211495840293 0.00249318062133323 0.00135585090123035 0.00443417244001435 0.0101502408847662 0.0326635229143537 0.0188992234031103 0.0103164152144236 -9999 -9999 0.00890356329859417 0.00886646592290386 -9999 -9999 -9999 -9999 -9999 -9999 -9999 -9999 -9999 -9999 -9999 -9999 -9999 -9999 -9999 -9999 -9999 -9999
0 0 0 0 0 0 0 0 0 0 0 0 0 0 0 0 0 0 0 0 0 0 0 0 0 0 0 0 0 0 0.0037741971841241 0.0037741971841241 0.0037741971841241 0.0037741971841241 0.0037741971841241 0.00128561863701528 0.00151135983360565 0.00172656157938324 0.00263956240909226 0.00215441272670344 0.0032409865903569 0.00196480805028888 0.00136736443429117 0.0020015520803668 0.00133799631586268 0.00178544488120422 0.00202193262080818 0.00424033119207717 0.00424038295415597 0.00239371034386753 0.00116313886079591 0.0107021444377378 0.0368354811153692 0.0460120892156187 0.0106209276286749 0.00953702448153482 -9999 -9999 0.00788862468272728 0.00875829275738227 0.00920905793441178 -9999 -9999 -9999 -9999 -9999 -9999 -9999 -9999 -9999 -9999 -9999 -9999 -9999 -9999 -9999 -9999 -9999
0 0 0 0 0 0 0 0 0 0 0 0 0 0 0 0 0 0 0 0 0 0 0 0 0 0 0 0 0 0 0 0.0037741971841241 0.0037741971841241 0.0037741971841241 0.0037741971841241 0.00249526264506523 0.00143523873741751 0.00175428727451102 0.00159694419183166 0.00211465046486705 0.00525775553726471 0.00485122863127334 0.00258455770677019 0.00323096781900676 0.00196835550454156 0.0018692303909714 0.00179751183330165 0.00191598437699635 0.00150047729835356 0.000745657359723392 0.00370385891645832 0.00577730756585872 0.0780426279603412 0.0556304526885516 0.0274118170865587 0.0100403736683924 0.00818950475257065 -9999 -9999 0.00979814596164507 0.00883033059558709 -9999 -9999 -9999 -9999 -9999 -9999 -9999 -9999 -9999 -9999 -9999 -9999 -9999 -9999 -9999 -9999 -9999
0 0 0 0 0 0 0 0 0 0 0 0 0 0 0 0 0 0 0 0 0 0 0 0 0 0 0 0 0 0 0 0.0037741971841241 0.0037741971841241 0.0037741971841241 0.0037741971841241 0.0125354362917812 0.00205423085845333 0.00284992007271837 0.00191480619674251 0.0239109732191835 0.00256159196511808 0.0017690136256199 0.00192657005433015 0.00318540270836051 0.00208831495493791 0.0016609684303961 0.00186348643241696 0.000935193460299568 0.00168859239415523 0.00209066421464382 0.00257717465705658 0.00485122863127334 0.0066345539787258 0.0119330004330998 0.0187064647723154 0.00746587213431208 0.0105185680790993 0.00656127750248488 0.0079174510546155 0.00861706332897929 -9999 -9999 -9999 -9999 -9999 -9999 -9999 -9999 -9999 -9999 -9999 -9999 -9999 -9999 -9999 -9999 -9999 -9999
0 0 0 0 0 0 0 0 0 0 0 0 0 0 0 0 0 0 0 0 0 0 0 0 0 0 0 0 0 0 0 0.0037741971841241 0.0037741971841241 0.0037741971841241 0.00155086461507165 0.00880580549433872 0.00155422844409208 0.0014159561154689 0.00128095152647098 0.0020512912252656 0.00219294250091701 0.00283251292705497 0.00324387463583048 0.00214772967026324 0.00313491211592914 0.00333825410326997 0.00213716061282013 0.00305767812933594 0.00367767095068436 0.00457486172054927 0.00337595138845431 0.00300165846318351 0.00674938665981566 0.00876324070213498 0.00662839802398855 0.0118370029938123 0.0104165109456944 0.00737320276070793 0.00936980396118835 0.00865209902179611 -9999 -9999 -9999 -9999 -9999 -9999 -9999 -9999 -9999 -9999 -9999 -9999 -9999 -9999 -9999 -9999 -9999 -9999
0 0 0 0 0 0 0 0 0 0 0 0 0 0 0 0 0 0 0 0 0 0 0 0 0 0 0 0 0 0 0 0.0037741971841241 0.0037741971841241 0.0037741971841241 0.00209270762750132 0.00116998599007378 0.00946586863869334 0.00317371337693604 0.00196535422204076 0.0028840055042384 0.00114514293766915 0.00128256189896833 0.00183204960460715 0.00109808922153929 0.00211764053118851 0.0024963735215009 0.00327481187285183 0.00222885309212963 0.0021213351943956 0.00160985838139077 0.00232352853858531 0.00408829791965648 0.00574365523983196 0.00798449656407672 0.00879245947884086 0.0204576748139732 0.00919366076723626 0.00822114353880429 0.00674702032099752 -9999 -9999 -9999 -9999 -9999 -9999 -9999 -9999 -9999 -9999 -9999 -9999 -9999 -9999 -9999 -9999 -9999 -9999 -9999
0 0 0 0 0 0 0 0 0 0 0 0 0 0 0 0 0 0 0 0 0 0 0 0 0 0 0 0 0 0 0 0 0.0037741971841241 0.0037741971841241 0.00178095737246477 0.00192255918937485 0.0368216921813354 0.012403933372126 0.00140480407501641 0.00107724072995191 0.00170122926116995 0.00143660127464134 0.00123185333387253 0.00138658828894752 0.00233434499118303 0.00341737261873216 0.00283025713029482 0.0034195165325491 0.00288521300134251 0.00160638701342877 0.00133387271910387 0.00485122863127334 0.00546121647434502 0.00535312473710948 0.0212144860243442 0.0114163820333233 0.0088292586197217 0.00822114353880429 -9999 -9999 -9999 -9999 -9999 -9999 -9999 -9999 -9999 -9999 -9999 -9999 -9999 -9999 -9999 -9999 -9999 -9999 -9999 -9999
0 0 0 0 0 0 0 0 0 0 0 0 0 0 0 0 0 0 0 0 0 0 0 0 0 0 0 0 0 0 0 0 0.0037741971841241 0.0037741971841241 0.00316116282704953 0.00221708652125574 0.0175442867590874 0.0067330872258337 0.00157913332640415 0.00184110199408195 0.00111322027101058 0.00147977636828334 0.00221966613209638 0.00158950968906292 0.00217387685836636 0.0011306382563477 0.00215139052870748 0.00229053279545312 0.0013335518507292 0.00266431860640423 0.00302756087688829 0.00251041318155161 0.00485122863127334 0.0106759375946055 0.0106759375946055 0.00687070922771648 0.00594398179938118 0.00711144076068809 0.0079174510546155 -9999 -9999 -9999 -9999 -9999 -9999 -9999 -9999 -9999 -9999 -9999 -9999 -9999 -9999 -9999 -9999 -9999 -9999 -9999
0 0 0 0 0 0 0 0 0 0 0 0 0 0 0 0 0 0 0 0 0 0 0 0 0 0 0 0 0 0 0 0 0.0037741971841241 0.0037741971841241 0.00218254095702554 0.00216740059450071 0.00215323180966437 0.00282028780430634 0.00326721200484083 0.00299140161527046 0.00182780608758758 0.00304272744594867 0.00115356748445027 0.00241919031707342 0.00282868382460374 0.00162503505480593 0.00156207811772857 0.00158863741867474 0.00206789452678501 0.00147858312807998 0.0011364681234242 0.00130082033295585 0.00344017983456564 0.00485122863127334 0.0114849907708824 0.0106759375946055 0.00794425714075344 0.0059868933728534 0.0105708190991862 0.00825245611197475 -9999 -9999 -9999 -9999 -9999 -9999 -9999 -9999 -9999 -9999 -9999 -9999 -9999 -9999 -9999 -9999 -9999 -9999
0 0 0 0 0 0 0 0 0 0 0 0 0 0 0 0 0 0 0 0 0 0 0 0 0 0 0 0 0 0 0 0 0.0037741971841241 0.0037741971841241 0.0037741971841241 0.0037741971841241 0.00263316203137212 0.00293663922449343 0.0037741971841241 0.00345818094966642 0.00263152589603896 0.00528279327051737 0.00119738287478522 0.00127161776756349 0.00124992040015115 0.0021285585228363 0.00132546741801911 0.00138202147413147 0.00288000517166457 0.00218399320426915 0.00219337762072001 0.00174102099081248 0.0027200244601785 0.00341353277150721 0.0080848066201117 0.0061132995496303 0.00927563566825873 0.00234547822512503 0.00716907878416885 0.00932945880174423 -9999 -9999 -9999 -9999 -9999 -9999 -9999 -9999 -9999 -9999 -9999 -9999 -9999 -9999 -9999 -9999 -9999 -9999
0 0 0 0 0 0 0 0 0 0 0 0 0 0 0 0 0 0 0 0 0 0 0 0 0 0 0 0 0 0 0 0 0.0037741971841241 0.0037741971841241 0.0037741971841241 0.0018761371496313 0.00202926830525623 0.00237981425764375 0.00263429696840865 0.0037741971841241 0.00172935735875385 0.0019688658847293 0.001519798824929 0.00148272349977806 0.00151261140440583 0.00191345240464637 0.00196140326778266 0.00188123368272936 0.00201294707998964 0.00138989941414946 0.00394383135173628 0.00140610575786311 0.00172198529275757 0.00223218156705897 0.00357582577781512 0.00488852012029007 0.00562461320811421 0.00750375890351533 0.00847560318154156 0.0109601100891839 -9999 -9999 -9999 -9999 -9999 -9999 -9999 -9999 -9999 -9999 -9999 -9999 -9999 -9999 -9999 -9999 -9999 -9999
0 0 0 0 0 0 0 0 0 0 0 0 0 0 0 0 0 0 0 0 0 0 0 0 0 0 0 0 0 0 0 0 0.0037741971841241 0.0037741971841241 0.0037741971841241 0.0037741971841241 0.00326619831583964 0.00118362783292241 0.00263372123346712 0.00156166325654092 0.00193858356562392 0.00135768823693182 0.00174524734603752 0.0018368397799365 0.00185933895221345 0.00178261918757831 0.00246164539557702 0.00141680001334221 0.00238329120709988 0.00477126285390504 0.00177814339768336 0.00485122863127334 0.00249841377129229 0.00275755391516648 0.00170902995949003 0.00282588191765828 0.0104121969464784 0.00496228281262161 0.00749899231443135 0.0114851369558625 0.000706639857999428 -9999 -9999 -9999 -9999 -9999 -9999 -9999 -9999 -9999 -9999 -9999 -9999 -9999 -9999 -9999 -9999 -9999
0 0 0 0 0 0 0 0 0 0 0 0 0 0 0 0 0 0 0 0 0 0 0 0 0 0 0 0 0 0 0 0 0.0037741971841241 0.0037741971841241 0.00175528372419989 0.00175528372419989 0.00122513908986747 0.00172366725364334 0.00110969686321753 0.00135030718550511 0.00120920559956296 0.00120775696354465 0.0011910269387588 0.000536217619001611 0.000999800245828654 0.000880200205041003 8.68579082618614e-05 4.0844141748374e-05 8.49903374403593e-05 0.000735421041058768 0.00427943774192832 5.45255109530297e-05 7.3217179955229e-05 9.42813840791423e-05 7.47903287911798e-05 8.6032868457451e-05 0.000582657564673384 0.000468282341467956 0.000898600971558079 0.00334452909589748 0.000480963302735587 -9999 -9999 -9999 -9999 -9999 -9999 -9999 -9999 -9999 -9999 -9999 -9999 -9999 -9999 -9999 -9999 -9999
0 0 0 0 0 0 0 0 0 0 0 0 0 0 0 0 0 0 0 0 0 0 0 0 0 0 0 0 0 0 0 0 0.00175528372419989 0.00175528372419989 0.00175528372419989 0.00175528372419989 0.000499025204653912 0.00168775520581709 0.00175528372419989 0.00120840561874607 0.00175528372419989 0.00120904105558187 0.000851458372431182 0.00112841202279295 0.000629582092512997 0.000526677315101637 0.000290490673706452 6.62553476835719e-05 5.53618275311778e-05 6.5731561507509e-05 0.00094495770752997 8.99833371557771e-05 6.70905841670266e-05 3.97848411396615e-05 0.00114655595944536 0.000124027928413282 0.00016383675705445 0.00031820418171137 0.00045021573919164 0.00058988657169885 0.000373958054739009 0.000702986610792706 -9999 -9999 0.000646632857896707 -9999 -9999 -9999 -9999 -9999 -9999 -9999 -9999 -9999 -9999 -9999 -9999 -9999
0 0 0 0 0 0 0 0 0 0 0 0 0 0 0 0 0 0 0 0 0 0 0 0 0 0 0 0 0 0 0 0 0.00175528372419989 0.00175528372419989 0.00175528372419989 0.00175528372419989 0.000619511426348983 0.000841453630620516 0.00147800003241463 0.00120843960761901 0.00175528372419989 0.00120866391808331 0.00102421154007009 0.000574438566268998 0.000525472151750101 0.000576788756293046 0.000586417659977389 6.51348418990827e-05 5.81247448998381e-05 5.30770551055976e-05 9.4303784408373e-05 4.7937782908859e-05 0.000295429235826474 9.14384037049719e-05 0.000297508419146698 0.000493871042288004 6.8690661929777e-05 0.000749114895790808 0.000521498428668623 0.000541574996995619 0.0016752324524926 0.00110033241513403 0.000590885871155165 0.000432434509334136 0.000652786005966565 -9999 -9999 -9999 -9999 -9999 -9999 -9999 -9999 -9999 -9999 -9999 -9999 -9999
0 0 0 0 0 0 0 0 0 0 0 0 0 0 0 0 0 0 0 0 0 0 0 0 0 0 0 0 0 0 0 0 0.00175528372419989 0.00175528372419989 0.00175528372419989 0.00175528372419989 0.00175528372419989 0.00134794622360965 0.00175528372419989 0.00175528372419989 0.00120827225850527 0.00134954720372703 0.000577775727816322 0.000702999590929991 0.000833143287706337 0.000480032027006282 0.000697414376287255 7.41115222647815e-05 8.07260029154613e-05 5.05667682275275e-05 8.45588750371857e-05 0.000811361003971599 0.000468954250717198 0.000309439166787823 9.2471297761076e-05 0.000184393918754039 0.00016383675705445 8.96269012787457e-05 0.000489630466183339 0.000638973471575362 0.000468222119353321 0.000753146767050975 0.000725352628269241 0.000496656794905304 0.000539708268647804 -9999 -9999 -9999 -9999 -9999 -9999 -9999 -9999 -9999 -9999 -9999 -9999 -9999
0 0 0 0 0 0 0 0 0 0 0 0 0 0 0 0 0 0 0 0 0 0 0 0 0 0 0 0 0 0 0 0 0 0.00175528372419989 0.00175528372419989 0.00175528372419989 0.00175528372419989 0.00115499474162072 0.00126397946895959 0.00120632128465822 0.00175528372419989 0.00117296636974839 0.00112396172668547 0.00152810267647521 0.0015280935882413 0.00175528372419989 0.000919358980184928 8.59077803062215e-05 0.000145728062452345 0.000105086072723281 6.40117221357036e-05 6.40663020422498e-05 0.000395973992501548 0.000309393020014974 0.000135521922483061 5.86347390015869e-05 0.000115768602328388 9.737524745549e-05 0.000466037641838738 0.000680396791758239 0.00117408175141231 0.000471815076286737 0.000749114895790808 0.000433789416264928 -9999 -9999 -9999 -9999 -9999 -9999 -9999 -9999 -9999 -9999 -9999 -9999 -9999 -9999
0 0 0 0 0 0 0 0 0 0 0 0 0 0 0 0 0 0 0 0 0 0 0 0 0 0 0 0 0 0 0 0 0 0.00175528372419989 0.00175528372419989 0.00175528372419989 0.00175528372419989 0.00175528372419989 0.00120684869363169 0.00175528372419989 0.00175528372419989 0.00175528372419989 0.00162005581996991 0.000998668643184739 0.00454360782073719 0.000649283416290684 0.00142049827465266 0.00101120806701236 0.000151576423369491 0.00012014970731599 0.000154683474675778 0.000232463595865114 0.00017875431968338 0.00126297507744751 7.87023591615776e-05 0.000327484496371169 6.99021693847319e-05 0.000126093551477082 0.000749114895790808 0.000749114895790808 0.000505686744443242 0.000569375167986047 0.000464159431434684 0.000571163009617022 -9999 -9999 -9999 -9999 -9999 -9999 -9999 -9999 -9999 -9999 -9999 -9999 -9999 -9999
0 0 0 0 0 0 0 0 0 0 0 0 0 0 0 0 0 0 0 0 0 0 0 0 0 0 0 0 0 0 0 0 0 0.00175528372419989 0.00175528372419989 0.00175528372419989 0.00175528372419989 0.00175528372419989 0.00175528372419989 0.00175528372419989 0.00175528372419989 0.00175528372419989 0.00136311910756774 0.000742274452305438 0.00520161526272949 0.000621796752273768 0.00155739829761565 0.00142032100539703 9.21637824672432e-05 0.000122069396844658 7.10007383667685e-05 0.00182045198268552 5.92941165090667e-05 0.000424341919952857 5.39702225666287e-05 5.02723974937112e-05 9.57101337587135e-05 0.00016383675705445 0.00016383675705445 0.000749114895790808 0.00029521043731142 0.000284595593301755 0.000167021473264531 0.000699435178685201 0.000493086955684949 0.000487843030442769 0.000631719589900778 0.000655934958165692 -9999 -9999 -9999 -9999 -9999 -9999 -9999 -9999 -9999 -9999
0 0 0 0 0 0 0 0 0 0 0 0 0 0 0 0 0 0 0 0 0 0 0 0 0 0 0 0 0 0 0 0 0 0.00175528372419989 0.00175528372419989 0.00175528372419989 0.00175528372419989 0.00175528372419989 0.00175528372419989 0.00122507648472792 0.00172341898630721 0.00120720811857904 0.00169892574735371 0.00114853289353646 0.00110939982920599 0.000347883069908727 0.000568351890615266 0.000498185321389989 0.000145685549388788 0.000121301693277844 0.000105501614963344 0.000114323958776763 0.00012971316355146 0.000771358009797765 3.97361134418413e-05 4.15185070793726e-05 9.34736294142739e-05 0.000102068922085537 0.000112891426208021 0.00016383675705445 0.000596815201330372 0.000320799171991849 0.000257739937691984 0.000749114895790808 0.00075310373516207 0.000749114895790808 0.000749114895790808 0.000543988006401066 -9999 -9999 -9999 -9999 -9999 -9999 -9999 -9999 -9999 -9999
0 0 0 0 0 0 0 0 0 0 0 0 0 0 0 0 0 0 0 0 0 0 0 0 0 0 0 0 0 0 0 0 0 0 0.00175528372419989 0.00175528372419989 0.00175528372419989 0.00175528372419989 0.00175528372419989 0.00175528372419989 0.0012055387274455 0.00175528372419989 0.00175528372419989 0.00124367269704391 0.00191109723651339 0.000477254612581768 0.000807614096240386 0.000597705843018421 9.32562483519365e-05 6.69454067934725e-05 7.39685542895547e-05 0.000101934953059289 7.50727122896429e-05 0.000127212510478291 4.37088768247213e-05 2.87918396514118e-05 7.34941324356622e-05 9.32602403801709e-05 0.00016383675705445 0.000749114895790808 0.000749114895790808 0.000749114895790808 0.000575754125135565 0.000364995886954947 0.000684502932644376 0.000753103087515793 0.000749114895790808 0.000733104094999389 -9999 -9999 -9999 -9999 -9999 -9999 -9999 -9999 -9999 -9999
0 0 0 0 0 0 0 0 0 0 0 0 0 0 0 0 0 0 0 0 0 0 0 0 0 0 0 0 0 0 0 0 0 0 0.00175528372419989 0.00175528372419989 0.00175528372419989 0.00175528372419989 0.00175528372419989 0.00139301918705067 0.00147158608667995 0.00120607474676261 0.00124390226645121 0.00159811310499845 0.0130752314177647 0.000610654537032344 0.000615762790844075 0.000754192090416452 0.000161258000152763 0.00016383675705445 9.68263430637254e-05 6.97698574661138e-05 5.95626859691064e-05 7.56655597180397e-05 7.44356080220761e-05 3.13127608555657e-05 3.70557428315273e-05 0.000217192899032971 5.93068608834144e-05 0.000112828325905065 0.000749114895790808 0.000749114895790808 0.000318050769353205 0.000316101544648474 0.00034960557094126 0.000574426044485821 0.000400465664982849 0.000749114895790808 -9999 -9999 -9999 -9999 -9999 -9999 -9999 -9999 -9999 -9999
0 0 0 0 0 0 0 0 0 0 0 0 0 0 0 0 0 0 0 0 0 0 0 0 0 0 0 0 0 0 0 0 0 0 0 0.00175528372419989 0.00175528372419989 0.00175528372419989 0.00175528372419989 0.00175528372419989 0.00175528372419989 0.00120546134039736 0.00175528372419989 0.000705524542650596 0.000913982688306957 0.000464557122310425 0.000571784965454262 0.000634917867674759 0.00016383675705445 0.00016383675705445 9.89154944189211e-05 8.0965441963266e-05 5.04859752166025e-05 5.55829574213257e-05 9.58880783411651e-05 8.24978969807045e-05 6.3823408835521e-05 0.000130453433530235 5.54102573213156e-05 0.00016383675705445 0.000520661429068709 0.000749114895790808 0.000743609864210642 0.000323155934473016 0.000435553737703919 0.000694037888190814 0.00054146798264977 0.000749114895790808 -9999 -9999 -9999 -9999 -9999 -9999 -9999 -9999 -9999 -9999
0 0 0 0 0 0 0 0 0 0 0 0 0 0 0 0 0 0 0 0 0 0 0 0 0 0 0 0 0 0 0 0 0 0 0 0.00175528372419989 0.00175528372419989 0.00175528372419989 0.00175528372419989 0.00159803695370561 0.000559877590994845 0.00175528372419989 0.00120471606872337 0.00107691634717393 0.00435386309781296 0.00380366666102835 0.00137091735584679 0.000840064937779111 0.00120616796643134 0.000112783590164314 0.000102241476272051 0.000105856024260885 9.53728612129009e-05 5.96662118951723e-05 0.000311263543088898 5.18404311551903e-05 8.37908294674909e-05 0.00010204336323221 9.43297712852689e-05 0.00011279251472709 0.00012605962427972 0.00116232374928608 0.000659215652835765 0.000435446612083721 0.000732279149344452 0.000434925026244208 0.000629900274618285 0.000749114895790808 0.000671968726727027 -9999 -9999 -9999 -9999 -9999 -9999 -9999 -9999 -9999
0 0 0 0 0 0 0 0 0 0 0 0 0 0 0 0 0 0 0 0 0 0 0 0 0 0 0 0 0 0 0 0 0 0 0 0.00175528372419989 0.00175528372419989 0.00175528372419989 0.00175528372419989 0.00175528372419989 0.00175528372419989 0.00109926556277987 0.0009763882823016 0.00175528372419989 0.00175528372419989 0.00228439103590577 0.00111068605868541 0.000745063117315905 0.00137066399033726 0.00016383675705445 0.00016383675705445 0.000121935682497497 0.000148513928639302 9.67339850762459e-05 7.84901851156686e-05 9.19066095482885e-05 6.90565619325884e-05 0.00016383675705445 0.00016383675705445 0.00016383675705445 0.000112758360659624 0.000646837514018417 0.000636965702178072 0.000749114895790808 0.000749114895790808 0.000519670124101321 0.000749114895790808 0.000749114895790808 0.000745010541216755 0.000668723061183182 -9999 -9999 -9999 -9999 -9999 -9999 -9999 -9999
0 0 0 0 0 0 0 0 0 0 0 0 0 0 0 0 0 0 0 0 0 0 0 0 0 0 0 0 0 0 0 0 0 0 0 0.00175528372419989 0.00175528372419989 0.00175528372419989 0.00165665224687056 0.00112672611055175 0.00128048750482603 0.00175528372419989 0.00175528372419989 0.00175528372419989 0.00137049986826435 0.00149841953913359 0.00120574129467845 0.00175528372419989 0.00175528372419989 0.0012057255423382 0.00016383675705445 0.00016383675705445 0.000112737652487321 0.00016383675705445 0.00016383675705445 9.79520901072623e-05 0.00010941754520983 9.19730873706055e-05 0.00016383675705445 0.000112507793398682 0.00016383675705445 0.00016383675705445 0.000749114895790808 0.000735263605065473 0.000749114895790808 0.000646781296272186 0.000580869234400452 0.000748599243080991 0.000749114895790808 0.000713994506264337 0.000662267277912062 0.00060927723926076 -9999 -9999 -9999 -9999 -9999 -9999
0 0 0 0 0 0 0 0 0 0 0 0 0 0 0 0 0 0 0 0 0 0 0 0 0 0 0 0 0 0 0 0 0 0 0 0 0.00175528372419989 0.00175528372419989 0.000599650169084412 0.00117156556860852 0.0475052574645799 0.0158671056325628 0.00175528372419989 0.00175528372419989 0.00175528372419989 0.00175528372419989 0.000916243497813951 0.00120434836991847 0.00120532885721792 0.00175528372419989 0.00016383675705445 0.000111044571794761 0.000116217667372794 8.55719522246141e-05 8.56284093598048e-05 8.18750055017647e-05 8.96389952827319e-05 0.000123897684009156 7.91724068994386e-05 0.00016383675705445 0.00016383675705445 0.00016383675705445 8.5630958512659e-05 0.000749114895790808 0.000749114895790808 0.000749114895790808 0.000753086376160795 0.000749114895790808 0.000749114895790808 0.000749114895790808 0.000749114895790808 0.000741023021755381 0.000741023021755381 0.000717763369054828 -9999 -9999 -9999 -9999
0 0 0 0 0 0 0 0 0 0 0 0 0 0 0 0 0 0 0 0 0 0 0 0 0 0 0 0 0 0 0 0 0 0 0 0 0.00175528372419989 0.00175528372419989 0.0010713614342844 0.00100015614042986 0.00172202061825869 0.00175528372419989 0.0012620335565286 0.001652429283897 0.00175528372419989 0.00091575356961201 0.000958995942324126 0.000633078946480437 0.00107527204566508 0.00102106520578729 7.84207282778644e-05 0.00016383675705445 0.000111016063402277 8.75948787318054e-05 0.000120544597907956 6.78082593938248e-05 8.96623538501089e-05 4.17156315611666e-05 0.000128681564683233 0.00016383675705445 0.00016383675705445 0.00016383675705445 0.000749114895790808 0.000520074218893497 0.000749114895790808 0.000749114895790808 0.000749114895790808 0.000749114895790808 0.000749114895790808 0.000749114895790808 0.000749114895790808 0.000749114895790808 0.000749114895790808 0.000603913612672595 0.000741023021755381 -9999 -9999 -9999
0 0 0 0 0 0 0 0 0 0 0 0 0 0 0 0 0 0 0 0 0 0 0 0 0 0 0 0 0 0 0 0 0 0 0 0 0.00175528372419989 0.00175528372419989 0.00175528372419989 0.00175528372419989 0.00296343627648859 0.00411309471542324 0.00113615118668057 0.000638077644049836 0.00120495749538945 0.00175528372419989 0.00120415683091135 0.00175528372419989 0.00175528372419989 0.00120486398246197 0.00016383675705445 0.000112667106574427 0.00016383675705445 0.00016383675705445 0.000105657169083815 0.000128844003113529 9.44605687133136e-05 6.83159936649695e-05 0.000105617203985113 9.91976233625947e-05 0.000112637985860436 7.59660541228455e-05 0.00016383675705445 0.000749114895790808 0.000507136398639069 0.000663084480909385 0.000536048675071866 0.000749114895790808 0.000749114895790808 0.000749114895790808 0.000749114895790808 0.000749114895790808 0.000749114895790808 0.000749114895790808 0.000628850259361745 -9999 -9999 -9999
0 0 0 0 0 0 0 0 0 0 0 0 0 0 0 0 0 0 0 0 0 0 0 0 0 0 0 0 0 0 0 0 0 0 0 0 0.00175528372419989 0.00175528372419989 0.00175528372419989 0.00152531591063113 0.00133752311923925 0.00144068866387609 0.00102945107393855 0.00175528372419989 0.00175528372419989 0.00121502255150382 0.00077309944672414 0.000875028181907503 0.00175528372419989 0.00175528372419989 0.00175528372419989 0.00016383675705445 8.00207633125894e-05 9.18140163220507e-05 0.000145571932799852 8.26652896061574e-05 6.64903888246763e-05 0.000101872429057081 9.07320274282379e-05 8.14320027308737e-05 0.00016383675705445 0.00011255326967288 0.00016383675705445 8.65385356457261e-05 0.000608519690069913 0.000575026417081414 0.000634625310211941 0.000518367302219881 0.000749114895790808 0.000749114895790808 0.000749114895790808 0.000749114895790808 0.000749114895790808 0.000749114895790808 0.000749114895790808 0.000623087109880472 0.000749114895790808 -9999
0 0 0 0 0 0 0 0 0 0 0 0 0 0 0 0 0 0 0 0 0 0 0 0 0 0 0 0 0 0 0 0 0 0 0 0 0 0.00175528372419989 0.00175528372419989 0.00175528372419989 0.00249685122476254 0.00175528372419989 0.000883521464088824 0.00125952057837264 0.00139326797742818 0.00147009412383147 0.00120435182167957 0.00175528372419989 0.00158676877894931 0.00130257553391925 0.00175528372419989 8.65053171781658e-05 0.000110886997022727 0.00016383675705445 0.00014003962750751 9.38242091648775e-05 0.00016383675705445 0.00016383675705445 0.00016383675705445 0.00016383675705445 0.000157857891126817 0.000116123418234759 0.00016383675705445 0.00016383675705445 0.000749114895790808 0.000662966601261147 0.000714784769913332 0.000749114895790808 0.000265996492699318 0.000749114895790808 0.000749114895790808 0.000749114895790808 0.000749114895790808 0.000749114895790808 0.000749114895790808 0.000671968726727027 -9999 -9999
0 0 0 0 0 0 0 0 0 0 0 0 0 0 0 0 0 0 0 0 0 0 0 0 0 0 0 0 0 0 0 0 0 0 0 0 0 0.00175528372419989 0.00175528372419989 0.00175528372419989 0.00120231394008299 0.00144303268757266 0.00126083024552699 0.00105437143185513 0.00175528372419989 0.00607497122992698 0.00117480228420819 0.00120424363752526 0.00175528372419989 0.00115218755340989 0.000947367129438152 0.000617697148692218 7.74841697826566e-05 0.000105467177909852 4.95935396595112e-05 6.47934497754916e-05 5.5545548207077e-05 0.000112553046177662 0.000141849955508663 5.69467407065295e-05 0.000116099714713802 0.00016383675705445 5.47374363785928e-05 0.000361481925720516 0.000340034489622394 0.00035679481980297 0.000465761956498908 0.00025440721710915 0.010086424785914 0.000600346359496117 0.000399109459867501 0.000749114895790808 0.000749114895790808 0.000749114895790808 0.000749114895790808 0.000749114895790808 0.000749114895790808 -9999
0 0 0 0 0 0 0 0 0 0 0 0 0 0 0 0 0 0 0 0 0 0 0 0 0 0 0 0 0 0 0 0 0 0 0 0 0 0 0.00175528372419989 0.00175528372419989 0.00175528372419989 0.00175528372419989 0.000568631215204524 0.00053510664374058 0.000710718078698849 0.000818645667658661 0.000743624468767869 0.00124136884731199 0.00175528372419989 0.00175528372419989 0.00105999003088567 0.000569091239104999 9.77831757106715e-05 7.9892215877042e-05 8.1682982431957e-05 8.44451333622485e-05 9.05990543540606e-05 0.000125869405085433 7.24486009732508e-05 0.000115477432781328 0.00016383675705445 9.17698514670943e-05 6.14771807440172e-05 6.94818580497314e-05 0.000718081247049952 0.000545833421938533 0.000552818652050159 0.000749114895790808 0.000749114895790808 0.000749114895790808 0.000749114895790808 0.000749114895790808 0.000749114895790808 0.000749114895790808 0.000749114895790808 0.000749114895790808 -9999 0.000749114895790808
0 0 0 0 0 0 0 0 0 0 0 0 0 0 0 0 0 0 0 0 0 0 0 0 0 0 0 0 0 0 0 0 0 0 0 0 0 0 0.00175528372419989 0.00175528372419989 0.00175528372419989 0.00168688405074515 0.000779002201625231 0.000546460249939354 0.0010349191540149 0.00127091212070505 0.00175528372419989 0.00120367450176671 0.00175528372419989 0.00152577357587305 0.000883733202781235 9.52738559601037e-05 8.74045460224119e-05 9.64746899195323e-05 9.52625380490253e-05 0.00016383675705445 0.000112538182633064 0.000160088719016222 5.07064364975248e-05 0.000109767980192919 9.48531583877461e-05 0.00016383675705445 8.7434419238775e-05 0.000157844964957835 0.000361282452502925 0.00056181388430606 0.000611788569468226 0.000749114895790808 0.000749114895790808 0.000749114895790808 0.000749114895790808 0.000749114895790808 0.000749114895790808 0.000749114895790808 0.000749114895790808 0.000749114895790808 -9999 -9999
0 0 0 0 0 0 0 0 0 0 0 0 0 0 0 0 0 0 0 0 0 0 0 0 0 0 0 0 0 0 0 0 0 0 0 0 0 0 0 0.00141708350410489 0.00139203730603101 0.00107315103844055 0.000327577479925405 0.000429276974741904 0.000470199335088941 0.00106530488307176 0.00104101371709974 0.00139241410387354 0.00120350615368558 0.000779839851736267 0.000957740603636204 0.00104528251117992 6.87600569655788e-05 0.00016383675705445 0.00016383675705445 8.54005877580677e-05 0.00016383675705445 0.000162373237701533 9.36389020363626e-05 3.22894232183729e-05 4.54303742742218e-05 5.71785844044732e-05 0.00016383675705445 0.000137447091202978 0.000445216770408448 0.0058819360481399 0.000489684513685781 0.000478270568708082 0.000268027174843164 0.000381081407124887 0.000749114895790808 0.000749114895790808 0.000749114895790808 0.000749114895790808 0.000749114895790808 0.000749114895790808 0.000741023021755381 0.000571163009617022
0 0 0 0 0 0 0 0 0 0 0 0 0 0 0 0 0 0 0 0 0 0 0 0 0 0 0 0 0 0 0 0 0 0 0 0 0 0 0 0 0.000882484255608914 0.00172309575329032 0.000897795366399856 0.000829662592855558 0.000935059757194795 0.00136796905007911 0.000636637415865393 0.000913150144396127 0.00175528372419989 0.000913559309078038 0.00120301806551219 0.00175528372419989 0.000112322922396486 0.00016383675705445 0.000130217665310939 0.000137436144545296 0.00016383675705445 0.00016383675705445 0.00016383675705445 0.000148402764663544 9.05687081629952e-05 0.00016383675705445 0.000112490997968827 0.000119738962752744 0.000281123595987305 0.000622645971968039 0.000749114895790808 0.000480471859260256 0.000351060042339366 0.000519193343256546 0.000749114895790808 0.000749114895790808 0.000749114895790808 0.000749114895790808 0.000749114895790808 0.000749114895790808 0.000745010541216755 0.000494881530322595
