NCOLS 78 
NROWS 66 
XLLCORNER -87.5 
YLLCORNER 25 
CELLSIZE 0.0833333333333333 
NODATA_value -9999 
-9999.000000000000000 -9999 -9999 -9999 6.10058240169661e-06 6.00358664123932e-06 -9999 -9999 -9999 -9999 -9999 5.15316781071753e-06 4.70239803330979e-06 5.64307836289987e-06 5.53250429785732e-06 6.10058240169661e-06 -9999 -9999 -9999 -9999 -9999 -9999 -9999 -9999 -9999 -9999 -9999 -9999 -9999 -9999 -9999 -9999 -9999 -9999 -9999 -9999 -9999 -9999 -9999 -9999 -9999 -9999 -9999 -9999 -9999 -9999 -9999 -9999 -9999 -9999 -9999 -9999 -9999 -9999 -9999 -9999 -9999 -9999 -9999 -9999 -9999 -9999 -9999 -9999 -9999 -9999 -9999 -9999 -9999 -9999 -9999 -9999 3.22861622387041e-06 3.22861622387041e-06 3.22861622387041e-06 3.22861622387041e-06 3.22861622387041e-06 3.22861622387041e-06
-9999 -9999 -9999 5.20105798146879e-06 4.70239803330979e-06 4.74188517643227e-06 4.76169768890361e-06 4.11718173496917e-06 3.82768508510514e-06 4.233872313179e-06 1.85587032058258e-06 4.13995823161857e-06 2.01386872752372e-06 5.09236437856783e-06 5.15408303854844e-06 -9999 -9999 -9999 -9999 -9999 -9999 -9999 -9999 -9999 -9999 -9999 -9999 -9999 -9999 -9999 -9999 -9999 -9999 -9999 -9999 -9999 -9999 -9999 -9999 -9999 -9999 -9999 -9999 -9999 -9999 -9999 -9999 -9999 -9999 -9999 -9999 -9999 -9999 -9999 -9999 -9999 -9999 -9999 -9999 -9999 -9999 -9999 -9999 -9999 -9999 -9999 -9999 -9999 -9999 -9999 -9999 -9999 -9999 3.22861622387041e-06 3.22861622387041e-06 3.22861622387041e-06 3.22861622387041e-06 3.22861622387041e-06
4.86442854039029e-06 4.67725492895994e-06 5.63940697094026e-06 3.11023660392903e-06 2.81725212415465e-06 1.34221661133021e-06 4.29790829330319e-06 2.19908903599416e-06 1.46871415461722e-06 2.62055836559496e-06 1.31655735569471e-06 2.05474803527183e-06 1.35714058835402e-06 1.46299635508175e-06 2.13272936438258e-06 2.73093361724206e-06 4.17661356429623e-06 -9999 -9999 -9999 -9999 -9999 -9999 -9999 -9999 -9999 -9999 -9999 -9999 -9999 -9999 -9999 -9999 -9999 -9999 -9999 -9999 -9999 -9999 -9999 -9999 -9999 -9999 -9999 -9999 -9999 -9999 -9999 -9999 -9999 -9999 -9999 -9999 -9999 -9999 -9999 -9999 -9999 -9999 -9999 -9999 -9999 -9999 -9999 -9999 -9999 -9999 -9999 -9999 -9999 -9999 -9999 -9999 3.22861622387041e-06 3.22861622387041e-06 3.22861622387041e-06 3.22861622387041e-06 3.22861622387041e-06
2.31791246090143e-05 3.87768392493898e-06 3.45523970894928e-06 1.05880268837529e-06 1.61683110287119e-06 6.04827664026482e-05 1.08501333700502e-05 9.03293866674915e-06 1.49303184657178e-05 1.22279034987562e-05 1.20017208375927e-05 1.20969148226336e-05 7.70229387802808e-06 6.12876343715039e-06 1.22667345480216e-05 7.54932118728129e-06 4.58013098870521e-05 4.27283137164634e-05 3.96741594851143e-06 3.29449128753367e-06 5.03842861133683e-06 4.27460498359972e-06 -9999 -9999 -9999 -9999 -9999 -9999 -9999 -9999 -9999 -9999 -9999 -9999 -9999 -9999 -9999 -9999 -9999 -9999 -9999 -9999 -9999 -9999 -9999 -9999 -9999 -9999 -9999 -9999 -9999 -9999 -9999 -9999 -9999 -9999 -9999 -9999 -9999 -9999 -9999 -9999 -9999 -9999 -9999 -9999 -9999 -9999 -9999 -9999 -9999 -9999 -9999 3.22861622387041e-06 3.22861622387041e-06 3.22861622387041e-06 3.22861622387041e-06 3.22861622387041e-06
2.27390824911468e-05 1.1826445290969e-05 1.97743143449634e-05 2.97904229563618e-05 4.06086666002007e-05 5.0848818197947e-05 2.24385416752013e-05 4.79970918120881e-05 1.39920492094104e-05 1.5764018247186e-05 7.93543607954817e-06 4.34874037726299e-05 4.04192924769551e-05 1.67437901118033e-05 9.99503771211741e-06 2.00198144662949e-05 1.08061085356628e-05 6.58865278564015e-05 9.90105587006314e-06 1.34327746838351e-05 1.5766970369401e-06 2.49082073667427e-06 4.13365576067367e-06 4.62536435680556e-06 -9999 -9999 -9999 -9999 -9999 -9999 -9999 -9999 -9999 -9999 -9999 -9999 -9999 -9999 -9999 -9999 -9999 2.65943230023235e-06 -9999 -9999 -9999 -9999 -9999 -9999 -9999 -9999 -9999 -9999 -9999 -9999 -9999 -9999 -9999 -9999 -9999 -9999 -9999 -9999 -9999 -9999 -9999 -9999 -9999 -9999 -9999 -9999 -9999 -9999 -9999 -9999 3.22861622387041e-06 3.22861622387041e-06 3.22861622387041e-06 3.22861622387041e-06
1.19766036245335e-05 1.14549573035533e-05 1.77441790232593e-05 0.000120581472745078 2.10077039842768e-05 4.75611405932865e-05 5.42995632457782e-05 0.000440826501806806 0.000171373266710396 8.53852477290864e-05 2.19842298118561e-05 6.69182313037077e-06 9.83120939720886e-06 6.85005423787514e-06 7.35148709643435e-06 9.76823560359461e-06 1.09859395480515e-05 7.5206526672895e-05 8.88795808903646e-06 7.04490541790914e-06 1.57983554910413e-06 1.5148343818882e-06 5.52784352727327e-06 4.56905874351413e-06 -9999 -9999 -9999 -9999 -9999 -9999 -9999 -9999 -9999 -9999 -9999 -9999 -9999 -9999 2.19209807370412e-06 2.10675295352932e-06 1.83288520735873e-06 1.77764537841697e-06 1.89166832454815e-06 2.73802963463446e-06 -9999 -9999 -9999 -9999 -9999 -9999 -9999 -9999 -9999 -9999 -9999 -9999 -9999 -9999 -9999 -9999 -9999 -9999 -9999 -9999 -9999 -9999 -9999 -9999 -9999 -9999 -9999 -9999 -9999 -9999 3.22861622387041e-06 3.22861622387041e-06 3.22861622387041e-06 3.22861622387041e-06
1.21589534692257e-05 1.89684806312993e-05 2.08340825985542e-05 2.99669266822335e-05 3.24458949384136e-05 0.00035192595339564 9.53518163166462e-05 8.57756706808329e-05 6.53224805511933e-05 9.89751568558828e-05 3.88736455537459e-05 3.87433121739467e-05 4.10992863084129e-05 5.26636876137623e-05 6.56385401298743e-06 1.08611122174753e-05 8.44565085885126e-06 2.60102294887212e-05 1.19827858750192e-05 6.14749788519061e-06 8.55617630752749e-06 1.55198948358224e-06 3.57426005365193e-06 4.28401473242292e-06 -9999 -9999 -9999 -9999 -9999 -9999 -9999 -9999 -9999 -9999 -9999 -9999 -9999 -9999 2.89693756826224e-06 2.80909867315898e-06 2.80909867315898e-06 1.812421779433e-06 1.7029687316063e-06 1.7029687316063e-06 2.05333773056033e-06 -9999 -9999 -9999 -9999 -9999 -9999 -9999 -9999 -9999 -9999 -9999 -9999 -9999 -9999 -9999 -9999 -9999 -9999 -9999 -9999 -9999 -9999 -9999 -9999 -9999 -9999 -9999 -9999 -9999 3.22861622387041e-06 3.22861622387041e-06 3.22861622387041e-06 3.22861622387041e-06
3.76041593092042e-05 1.59670682111139e-05 0.00181052070716128 8.75320863954843e-05 0.000638175480829744 8.3129494843685e-05 8.3129494843685e-05 5.84090783706046e-05 8.3129494843685e-05 9.1435736670326e-05 6.17040189464163e-05 4.57775910918046e-05 3.31889149505699e-05 4.60978968255413e-05 6.00191490580018e-05 4.10973957635692e-05 1.10253680433442e-05 5.87796966476583e-05 8.48190012370268e-06 1.07730206133141e-05 2.48641343320397e-05 1.08811227124784e-05 4.01305850280368e-06 1.43604023421899e-06 3.50471379737163e-06 5.84787671831002e-06 -9999 -9999 -9999 -9999 -9999 -9999 -9999 -9999 -9999 -9999 2.46734349977629e-06 3.21249943203196e-06 2.96315454593913e-06 2.33407090029178e-06 2.69261492598306e-06 2.41218433707009e-06 2.22980341016011e-06 2.0151051178435e-06 1.7029687316063e-06 1.7029687316063e-06 -9999 -9999 -9999 -9999 -9999 -9999 -9999 -9999 -9999 -9999 -9999 -9999 -9999 -9999 -9999 -9999 -9999 -9999 -9999 -9999 -9999 -9999 -9999 -9999 -9999 -9999 -9999 -9999 3.22861622387041e-06 3.22861622387041e-06 3.22861622387041e-06 3.22861622387041e-06
0.000112146503146805 7.68777086613021e-05 3.84797938306556e-05 3.67770851116478e-05 8.3129494843685e-05 8.3129494843685e-05 8.3129494843685e-05 3.67716198686278e-05 8.3129494843685e-05 7.91364943535987e-05 6.53896394742668e-05 0.000103026449534929 4.97277014684489e-05 3.25500640172465e-05 4.14745342946485e-05 3.13871793044165e-05 8.76611379302124e-06 7.36572876179197e-06 2.31152712765348e-05 1.45332397719769e-05 1.25235557170411e-05 1.31811243197919e-05 1.54290196904416e-05 4.6697478025561e-06 3.80546570300482e-06 5.40000207622274e-06 -9999 -9999 -9999 -9999 -9999 -9999 2.84614728377273e-06 2.73802963463446e-06 2.73802963463446e-06 2.6481684721475e-06 2.01049565389319e-05 3.22861622387041e-06 1.71138618076094e-06 1.16862731691489e-06 1.48811943064973e-06 1.63802003091018e-06 2.93015620620056e-06 3.3179191283723e-06 2.23755623693365e-06 2.31741105475475e-06 1.73485851999343e-06 -9999 -9999 -9999 -9999 -9999 -9999 -9999 -9999 -9999 -9999 -9999 -9999 -9999 -9999 -9999 -9999 -9999 -9999 -9999 -9999 -9999 -9999 -9999 -9999 -9999 -9999 -9999 -9999 3.22861622387041e-06 3.22861622387041e-06 3.22861622387041e-06
4.74901670833272e-05 0.000260514176975043 5.47409628503239e-05 0.000272511124107797 8.3129494843685e-05 8.3129494843685e-05 8.3129494843685e-05 8.3129494843685e-05 8.3129494843685e-05 6.10597748386316e-05 8.3129494843685e-05 8.3129494843685e-05 6.72048044170103e-05 7.07632138126958e-05 5.03167779723084e-05 6.21417046809105e-05 7.95432318883199e-06 1.23589388728883e-05 2.0899861620281e-05 1.48300197283626e-05 2.31278738882915e-05 8.94169016138351e-06 1.95714859952414e-05 2.22960174039018e-06 2.00357409537923e-06 4.70239803330979e-06 4.84375377517765e-06 -9999 -9999 -9999 2.78500259018264e-06 2.93635563775606e-06 2.67046789758847e-06 3.20163115575404e-06 1.8531421243862e-06 8.15793574863134e-07 1.05480867955598e-06 1.77007101082023e-06 6.5659435960265e-06 3.60634942100482e-06 1.04780481526372e-06 8.05789908333388e-07 2.11596604931585e-06 2.30569041912263e-06 2.93110141801263e-06 2.87131785531296e-06 2.07306285002935e-06 2.0151051178435e-06 -9999 -9999 -9999 -9999 -9999 -9999 -9999 -9999 -9999 -9999 -9999 -9999 -9999 -9999 -9999 -9999 -9999 -9999 -9999 -9999 -9999 -9999 -9999 -9999 -9999 -9999 -9999 3.22861622387041e-06 3.22861622387041e-06 3.22861622387041e-06
0.000102208169767409 0.000383756786298878 6.9781308035346e-05 8.3129494843685e-05 8.3129494843685e-05 8.3129494843685e-05 8.3129494843685e-05 8.3129494843685e-05 8.3129494843685e-05 8.3129494843685e-05 8.3129494843685e-05 8.3129494843685e-05 8.3129494843685e-05 8.3129494843685e-05 7.33461380048746e-05 4.36366591241544e-05 3.54663591886082e-05 2.68425660135067e-05 2.58895599439458e-05 2.49128779892083e-05 1.1557706449036e-05 1.84418683639314e-05 2.4514781471289e-05 2.21545630266359e-05 4.32462382551204e-06 6.20137727733364e-06 6.20137727733364e-06 6.20137727733364e-06 6.06809991643334e-06 5.29866332659807e-06 2.74972860177435e-06 2.86405846209849e-06 3.20049537528452e-06 1.71442190260505e-06 2.05079261925988e-06 6.57784422881672e-07 1.46655678818558e-06 2.79266944230927e-06 1.79206981637457e-06 1.51455315451695e-06 1.44929239460055e-06 5.85711971493197e-07 1.52250442883985e-06 9.2483814082421e-07 8.61635896817627e-07 1.98167804853397e-06 3.11988949338764e-06 3.13508824611034e-06 2.12051263333065e-06 -9999 -9999 -9999 -9999 -9999 -9999 -9999 -9999 -9999 -9999 -9999 -9999 -9999 -9999 -9999 -9999 -9999 -9999 -9999 -9999 -9999 -9999 -9999 -9999 -9999 -9999 -9999 3.22861622387041e-06 3.22861622387041e-06
0.000125937958373296 7.11582944781896e-05 8.3129494843685e-05 0 0 0 0 8.3129494843685e-05 8.3129494843685e-05 8.3129494843685e-05 8.3129494843685e-05 8.3129494843685e-05 8.3129494843685e-05 5.83593267909169e-05 8.3129494843685e-05 5.83601938893488e-05 0.000106583221462992 1.54333989098796e-05 1.16689462002312e-05 3.34145723494558e-05 1.02729433553821e-05 1.71805068469105e-05 2.82735351584316e-05 4.0274449463351e-06 6.20137727733364e-06 6.20137727733364e-06 4.72408628040115e-06 6.20137727733364e-06 6.20038577013088e-06 6.20137727733364e-06 3.09963381996125e-06 1.3803017474066e-06 9.74730401156358e-07 1.32503449495364e-06 1.56860014800713e-06 1.57974402298223e-06 2.79636753957385e-06 1.20982455145352e-06 1.23435256673034e-06 1.16727671561022e-06 1.05234676502349e-06 5.82345699536987e-07 1.42635403023544e-06 1.09573124239588e-06 2.62836128058674e-06 1.99523419135265e-06 2.02227772895606e-06 3.22861622387041e-06 1.93109864912042e-06 -9999 -9999 -9999 -9999 -9999 -9999 -9999 -9999 -9999 -9999 -9999 -9999 -9999 -9999 -9999 -9999 -9999 -9999 -9999 -9999 -9999 -9999 -9999 -9999 -9999 -9999 -9999 3.22861622387041e-06 3.22861622387041e-06
0 0 0 0 0 0 0 0 0 0 0 8.3129494843685e-05 8.3129494843685e-05 8.3129494843685e-05 8.3129494843685e-05 7.96445767713245e-05 2.94232378221937e-05 4.91692903512611e-05 1.69612005375869e-05 1.73660149236e-05 2.70257044856561e-05 3.67467624089975e-05 3.67467623398383e-05 6.20137727733364e-06 2.69996115572561e-05 2.70147832847671e-05 2.0191836245013e-05 2.68229226293289e-05 5.65191639969049e-06 6.20137727733364e-06 2.02322105916855e-06 1.77916976330701e-06 3.73488989181183e-05 2.15172470395213e-05 2.91209815786551e-05 3.22115287834696e-05 2.75827896143648e-06 2.08781358337685e-06 1.90075111312158e-06 1.69638477811426e-06 1.41822112075338e-06 1.73193410181861e-06 1.37596856743031e-06 2.33351757641195e-06 2.18067004316356e-06 1.53868253321826e-06 1.61557062931882e-06 3.22861622387041e-06 2.60597162727135e-06 1.96618218224022e-06 2.65943230023235e-06 -9999 -9999 -9999 -9999 -9999 -9999 -9999 -9999 -9999 -9999 -9999 -9999 -9999 -9999 -9999 -9999 -9999 -9999 -9999 -9999 -9999 -9999 -9999 -9999 -9999 3.22861622387041e-06 3.22861622387041e-06
0 0 0 0 0 0 0 0 0 0 0 0 8.3129494843685e-05 8.3129494843685e-05 8.3129494843685e-05 5.4858663604707e-05 5.24914005077671e-05 4.51994984134852e-05 2.36495785715106e-05 9.72419311774665e-05 7.14691014451857e-05 0.00034716106853019 3.21892550134105e-05 1.49302710261053e-05 2.06370223571482e-05 1.8551912374187e-05 4.01290828298979e-05 3.87637982005469e-05 4.66488652773916e-06 3.67257726763027e-06 5.20444927815185e-05 2.14795218805435e-05 2.08396737348259e-05 1.95149752530643e-05 2.35732676197641e-05 1.85266162409396e-05 1.37133282910862e-05 2.89505637970414e-05 2.15279662422578e-06 2.92115779746596e-06 1.77974125845659e-06 1.84539780110734e-06 7.88303569270027e-07 1.49584112936893e-06 2.23468266808787e-06 1.19915213517232e-06 1.81555396324061e-06 1.33704663141919e-06 2.82141421119418e-06 2.84614728377273e-06 3.18102454712977e-06 2.99044712484015e-06 -9999 -9999 -9999 -9999 -9999 -9999 -9999 -9999 -9999 -9999 -9999 -9999 -9999 -9999 -9999 -9999 -9999 -9999 -9999 -9999 -9999 -9999 -9999 -9999 -9999 3.22861622387041e-06
0 0 0 0 0 0 0 0 0 0 0 0 0 8.3129494843685e-05 8.3129494843685e-05 8.3129494843685e-05 8.3129494843685e-05 8.20600510705692e-05 3.61635663435046e-05 2.67469438132076e-05 2.61408203360598e-05 5.46910998100416e-05 1.26006814268378e-05 3.32900090903471e-05 2.03160899715812e-05 2.11061859510801e-05 1.66863819521724e-05 3.87637982005469e-05 2.06295349244913e-05 3.34028466868256e-05 5.16091872485412e-05 4.33382005200971e-05 3.35349171662771e-05 2.40809724652278e-05 2.03552156314594e-05 3.6495918285902e-05 1.69533615121098e-05 2.15813000168343e-05 2.89590883627749e-05 3.18768485385309e-06 2.04228602834193e-06 9.94747129976773e-07 1.11146519145772e-06 8.3724126979988e-06 1.47181483142101e-06 2.01983018089718e-06 5.15060859605965e-06 1.47576946801292e-06 3.39990697041852e-06 2.30098734894051e-06 3.06105999844344e-06 2.87131785531296e-06 -9999 -9999 -9999 -9999 -9999 -9999 -9999 -9999 -9999 -9999 -9999 -9999 -9999 -9999 -9999 -9999 -9999 -9999 3.22861622387041e-06 3.22861622387041e-06 -9999 -9999 -9999 -9999 -9999 3.22861622387041e-06
0 0 0 0 0 0 0 0 0 0 0 0 0 0 8.3129494843685e-05 8.3129494843685e-05 8.3129494843685e-05 8.3129494843685e-05 5.91706312546645e-05 9.0699976553452e-05 6.9189052178149e-05 2.73632555556019e-05 5.02137373814698e-05 2.91342012303631e-05 6.24912085937679e-05 1.59944444060494e-05 1.18600348569945e-05 1.0460503614051e-05 2.70032109968223e-05 2.88412255478535e-05 4.22407106755941e-05 2.90723304191801e-05 3.21039886356452e-05 3.06343188303973e-05 1.6273536885465e-05 2.29357602814587e-05 2.7029953965848e-05 2.43461623231721e-05 4.7631388926133e-05 1.68492130545863e-06 3.01617029291928e-06 1.33971299028881e-06 9.32684704573463e-07 2.46546839226893e-05 2.35725232388344e-06 1.5494828395678e-06 1.67423840561115e-06 3.22861622387041e-06 3.22861622387041e-06 3.22861622387041e-06 3.15016043671765e-06 3.22861622387041e-06 2.70372535694547e-06 -9999 -9999 -9999 -9999 -9999 -9999 -9999 -9999 -9999 -9999 -9999 -9999 -9999 -9999 -9999 -9999 -9999 -9999 3.22861622387041e-06 -9999 -9999 -9999 -9999 -9999 -9999
0 0 0 0 0 0 0 0 0 0 0 0 0 0 0 8.3129494843685e-05 8.3129494843685e-05 8.3129494843685e-05 8.3129494843685e-05 9.37182437203512e-05 0.000152399545089627 0.00019247117879493 7.82921569724061e-05 4.03660292501267e-05 4.96909554986817e-05 1.94977117344665e-05 1.12934960699003e-05 8.17865991545298e-06 3.43280130145847e-05 2.64711965692322e-05 4.18757353709376e-05 2.62397992197461e-05 4.23281554340347e-05 2.20459266048939e-05 1.9964069830726e-05 2.32524551453736e-05 1.74233968229957e-05 3.06159592675349e-05 3.2399318972863e-05 2.34136868188555e-05 1.89197580196351e-05 1.527077810987e-06 1.52225177052816e-06 1.85018430497582e-06 5.96542902073028e-06 2.11817910140509e-06 2.05869655446012e-06 1.14288824396707e-06 1.79839312578711e-06 1.46407623087047e-06 3.22861622387041e-06 3.22861622387041e-06 2.71513240135371e-06 2.19209807370412e-06 2.23755623693365e-06 1.78248109246989e-06 -9999 -9999 -9999 -9999 -9999 -9999 -9999 -9999 -9999 -9999 -9999 -9999 -9999 -9999 -9999 -9999 3.22861622387041e-06 -9999 -9999 -9999 -9999 -9999
0 0 0 0 0 0 0 0 0 0 0 0 0 0 0 0 8.3129494843685e-05 8.3129494843685e-05 8.3129494843685e-05 8.3129494843685e-05 8.3129494843685e-05 8.3129494843685e-05 8.3129494843685e-05 4.57245991223646e-05 1.59402269193875e-05 1.56659725990046e-05 2.10807353952733e-05 2.3751439163281e-05 2.69898485912602e-05 2.62176027270744e-05 4.22407091990184e-05 3.15582206071995e-05 2.16478479102316e-05 1.71638354106446e-05 1.6954967307491e-05 2.45189728859299e-05 1.61546173526772e-05 2.34526815638069e-05 3.38275359217725e-05 1.65839102306766e-05 4.41779702526305e-05 3.11827231943721e-05 1.83005709551139e-06 2.05917280472661e-05 1.59097494164746e-06 2.51940046286283e-06 3.28720575101326e-05 1.17104482873309e-06 1.13763729702193e-06 1.46638258977222e-06 2.54937456670284e-06 3.22861622387041e-06 3.21249943203196e-06 2.72642982509738e-06 2.39439493722295e-06 1.73019428103189e-06 1.71194821079699e-06 -9999 -9999 -9999 -9999 -9999 -9999 -9999 -9999 -9999 -9999 -9999 -9999 -9999 -9999 -9999 -9999 -9999 -9999 -9999 -9999 -9999
0 0 0 0 0 0 0 0 0 0 0 0 0 0 0 0 8.3129494843685e-05 8.3129494843685e-05 8.3129494843685e-05 8.3129494843685e-05 8.3129494843685e-05 8.3129494843685e-05 8.3129494843685e-05 5.82589919917373e-05 2.05502212246837e-05 7.21703280282507e-05 0.000102388154730438 1.22789591682728e-05 2.10736378271636e-05 2.86728070032447e-05 2.40753480437642e-05 4.12949030477542e-05 3.21007723167499e-05 2.37959952734601e-05 1.84601217823372e-05 2.31456012647948e-05 1.5726316131437e-05 2.56032306740179e-05 2.74089306002175e-05 3.14624156014538e-05 3.49309687352232e-05 3.75731277159934e-05 4.54767077176234e-05 7.43379442037964e-06 2.69688993038148e-06 2.46059745233422e-06 2.33307654251751e-06 2.7970928997172e-06 1.81590394847985e-06 1.12793529168655e-06 1.74856362266322e-06 3.22861622387041e-06 3.22861622387041e-06 3.22861622387041e-06 3.04656888314298e-06 2.02769018359106e-06 1.85381605999715e-06 -9999 -9999 -9999 -9999 -9999 -9999 -9999 -9999 -9999 -9999 -9999 -9999 -9999 -9999 -9999 -9999 -9999 -9999 -9999 -9999 -9999
0 0 0 0 0 0 0 0 0 0 0 0 0 0 0 0 8.3129494843685e-05 8.3129494843685e-05 8.3129494843685e-05 8.3129494843685e-05 8.3129494843685e-05 8.3129494843685e-05 8.3129494843685e-05 8.3129494843685e-05 3.41881189526158e-05 0.000350744366047163 4.04138438146103e-05 3.7670185825617e-05 2.45220374940671e-05 2.3813288907617e-05 1.95162370991737e-05 2.77726512704857e-05 3.63440772445115e-05 2.61949173724954e-05 2.35342073746339e-05 1.97162358020931e-05 2.15335382432108e-05 3.72047817681599e-05 2.16951269343265e-05 1.84100452258878e-05 4.41056877336023e-05 4.23796206650998e-05 3.37086926588955e-05 3.17117559139981e-05 2.39395482440763e-05 1.82990657416852e-06 1.37640637280215e-06 2.6007416321722e-06 3.22861622387041e-06 2.74424876128541e-06 1.26798644495981e-06 2.63028384575773e-06 3.22861622387041e-06 3.10510490368541e-06 1.78248109246989e-06 1.7029687316063e-06 1.7029687316063e-06 1.71651446354483e-06 -9999 -9999 -9999 -9999 -9999 -9999 -9999 -9999 -9999 -9999 -9999 -9999 -9999 -9999 -9999 -9999 -9999 -9999 -9999 -9999
0 0 0 0 0 0 0 0 0 0 0 0 0 0 0 0 0 8.3129494843685e-05 8.3129494843685e-05 8.3129494843685e-05 8.3129494843685e-05 8.3129494843685e-05 8.3129494843685e-05 7.06581293045653e-05 7.46407815933086e-05 4.11053270424153e-05 3.70187459823419e-05 3.8107554426351e-05 5.51341883243812e-05 5.52652310589244e-05 3.97183561625477e-05 2.55817154361059e-05 5.83271894823354e-05 3.87191753776146e-05 4.37411517678456e-05 2.87649859477527e-05 2.37911743558296e-05 2.94210238096018e-05 2.63671813892871e-05 4.36346135181283e-05 3.39210754735425e-05 1.58268579257117e-05 1.60560111740735e-05 3.19009907761912e-05 2.17357984705742e-06 1.0706802049144e-06 1.32830485754438e-06 2.01716500596795e-06 2.50249399991123e-06 1.65574703770978e-06 3.47331542357257e-06 3.22861622387041e-06 1.74767172776385e-06 3.04656888314298e-06 1.7029687316063e-06 1.7029687316063e-06 1.7029687316063e-06 1.70748709689688e-06 -9999 -9999 -9999 -9999 -9999 -9999 -9999 -9999 -9999 -9999 -9999 -9999 -9999 -9999 -9999 -9999 -9999 -9999 -9999 3.22861622387041e-06
0 0 0 0 0 0 0 0 0 0 0 0 0 0 0 0 0 0 8.3129494843685e-05 8.3129494843685e-05 8.3129494843685e-05 8.3129494843685e-05 8.3129494843685e-05 6.70750023352185e-05 6.38382901085907e-05 6.70684801865434e-05 8.3129494843685e-05 5.42393155915946e-05 4.86871267053266e-05 3.77184689059175e-05 6.09291717442986e-05 3.2945095701188e-05 3.89365949670783e-05 4.74095614739992e-05 3.84152737158466e-05 2.32444732959742e-05 2.56363800212648e-05 2.44527208720593e-05 4.47895022321009e-05 3.08535444693896e-05 1.87799910397377e-05 2.25267072001975e-05 3.85063555342224e-05 2.89035464746231e-05 5.83412312950929e-05 1.30671799076629e-06 1.42305608865685e-06 1.83243160080993e-06 3.09909141002124e-06 1.85914885351486e-06 2.58776665939532e-06 3.22861622387041e-06 2.00997501071252e-06 3.04656888314298e-06 1.7029687316063e-06 1.7029687316063e-06 1.7029687316063e-06 1.7029687316063e-06 -9999 -9999 -9999 -9999 -9999 -9999 -9999 -9999 -9999 -9999 -9999 -9999 -9999 -9999 -9999 -9999 -9999 -9999 -9999 -9999
0 0 0 0 0 0 0 0 0 0 0 0 0 0 0 0 0 0 8.3129494843685e-05 8.3129494843685e-05 8.3129494843685e-05 8.3129494843685e-05 8.3129494843685e-05 8.3129494843685e-05 8.3129494843685e-05 8.3129494843685e-05 8.3129494843685e-05 8.3129494843685e-05 5.30142383910697e-05 2.74396728298866e-05 0.000773622364675053 2.77459547573251e-05 5.83412312950929e-05 8.22700079105159e-05 3.89583871634615e-05 3.58950979223651e-05 3.54586564635732e-05 1.36135836161917e-05 4.27314624765622e-05 4.44624993544786e-05 2.96646917513603e-05 2.36263465526409e-05 3.0746493932412e-05 2.72349756008342e-05 1.62081640677221e-05 3.18922011187938e-05 2.30298626742347e-06 1.71786704305277e-06 3.33916534641526e-06 3.22861622387041e-06 2.56863934461234e-06 5.92281329392908e-06 2.2477696270073e-06 3.04656888314298e-06 1.7029687316063e-06 1.7029687316063e-06 1.7029687316063e-06 1.7029687316063e-06 -9999 -9999 -9999 -9999 -9999 -9999 -9999 -9999 -9999 -9999 -9999 -9999 -9999 -9999 -9999 -9999 -9999 -9999 -9999 -9999
0 0 0 0 0 0 0 0 0 0 0 0 0 0 0 0 0 0 0 8.3129494843685e-05 8.3129494843685e-05 8.3129494843685e-05 8.3129494843685e-05 8.3129494843685e-05 8.3129494843685e-05 8.3129494843685e-05 8.3129494843685e-05 8.3129494843685e-05 7.06317117160125e-05 7.99027383577721e-05 0.00109125000252547 5.83412312950929e-05 5.83412312950929e-05 7.67229006152178e-05 3.78942063298082e-05 6.3993800336189e-05 4.33682543017086e-05 2.97752913863515e-05 3.84721233237087e-05 2.86020645830763e-05 5.15889077888651e-05 3.24135429464133e-05 2.35197617541519e-05 3.59084146640534e-05 1.8593440374601e-05 5.3993460249833e-05 2.00859388758723e-06 2.23837274506361e-06 1.57507875475533e-06 1.62184487481962e-06 3.22861622387041e-06 2.63995485088323e-06 2.58973678204517e-06 3.06105999844344e-06 1.7029687316063e-06 1.7029687316063e-06 1.7029687316063e-06 1.7029687316063e-06 -9999 -9999 -9999 -9999 -9999 -9999 -9999 -9999 -9999 -9999 -9999 -9999 -9999 -9999 -9999 -9999 -9999 -9999 -9999 -9999
0 0 0 0 0 0 0 0 0 0 0 0 0 0 0 0 0 0 0 0 0 8.3129494843685e-05 8.3129494843685e-05 8.3129494843685e-05 8.3129494843685e-05 8.3129494843685e-05 8.3129494843685e-05 8.3129494843685e-05 4.20893824711935e-05 6.13541674339232e-05 0.00136680278260003 0.00108401421949208 0.0009722697288623 0.00155738316017334 0.00108341473638607 5.84406595311212e-05 0.000192893301463482 3.49901520395577e-05 2.98773719935167e-05 2.16279715302103e-05 3.41219894159811e-05 1.73472461373518e-05 4.12425861104126e-05 2.45039842820952e-05 2.6318843914875e-05 1.91623607252113e-05 2.82337228224226e-05 1.75348049043873e-06 1.66932325747563e-06 2.87972414316188e-06 3.22861622387041e-06 2.00863449597364e-06 3.22861622387041e-06 3.22861622387041e-06 1.7029687316063e-06 1.7029687316063e-06 1.7029687316063e-06 1.71194821079699e-06 -9999 -9999 -9999 -9999 -9999 -9999 -9999 -9999 -9999 -9999 -9999 -9999 -9999 -9999 -9999 -9999 -9999 -9999 -9999 -9999
0 0 0 0 0 0 0 0 0 0 0 0 0 0 0 0 0 0 0 0 0 0 8.3129494843685e-05 8.3129494843685e-05 8.3129494843685e-05 8.3129494843685e-05 8.3129494843685e-05 8.3129494843685e-05 7.753278473055e-05 4.15565801843145e-05 0.000463167759380643 0.00134204476396686 0.000871921335937913 0.00145659842600243 0.00155738316017334 0.000676211625247896 5.84400810941897e-05 2.96394495709261e-05 5.50474698528259e-05 3.19528295420548e-05 3.28271853182911e-05 2.93697023981616e-05 2.51747361062425e-05 4.22519464244672e-05 2.46007648113642e-05 3.59854727667558e-05 2.76663062432753e-05 2.65369840123778e-05 1.42965098573794e-06 1.58649661966629e-06 1.75466139168697e-06 2.08733767634953e-06 1.98626641340315e-06 3.22861622387041e-06 1.71651446354483e-06 1.7029687316063e-06 1.7029687316063e-06 -9999 -9999 -9999 -9999 -9999 -9999 -9999 -9999 -9999 -9999 -9999 -9999 -9999 -9999 -9999 -9999 -9999 -9999 -9999 -9999 -9999
0 0 0 0 0 0 0 0 0 0 0 0 0 0 0 0 0 0 0 0 0 0 0 0 8.3129494843685e-05 8.3129494843685e-05 8.3129494843685e-05 8.3129494843685e-05 8.3129494843685e-05 5.73073898087516e-05 0.00115911262021828 0.000962537907746158 0.00090862876377645 0.000716522078775712 0.00155738316017334 0.00142833363518063 6.22316162201121e-05 4.51415400838532e-05 4.16884138285115e-05 5.83412312950929e-05 1.90935889817329e-05 3.62749738766295e-05 4.12218915860621e-05 5.61430582280379e-05 3.21723923562814e-05 5.01043425973084e-05 3.11695655180707e-05 2.73562021941593e-05 1.34036878348117e-06 1.70191778317252e-06 1.50255099238509e-06 2.32204699912801e-06 3.22861622387041e-06 1.27417147578055e-06 2.52490739534127e-06 1.79241023829694e-06 1.7029687316063e-06 -9999 -9999 -9999 -9999 -9999 -9999 -9999 -9999 -9999 -9999 -9999 -9999 -9999 -9999 -9999 -9999 -9999 -9999 -9999 -9999 -9999
0 0 0 0 0 0 0 0 0 0 0 0 0 0 0 0 0 0 0 0 0 0 0 0 0 8.3129494843685e-05 8.3129494843685e-05 8.3129494843685e-05 8.3129494843685e-05 8.3129494843685e-05 0.00155738316017334 0.00155738316017334 0.00109020455400092 0.000897563436182538 0.000823988063150535 0.00155738316017334 0.00111544073897103 3.83859906349403e-05 3.27776568649414e-05 2.04611055827986e-05 3.49931141513914e-05 2.28092442601309e-05 4.03525055448952e-05 3.59566572999068e-05 2.6333941452701e-05 9.42204655506055e-05 4.11285322155111e-05 4.03538793577572e-05 1.21995780620521e-06 3.22861622387041e-06 3.22861622387041e-06 3.22861622387041e-06 2.41715237299151e-06 2.27614700690092e-06 3.22861622387041e-06 1.82767982520796e-06 1.89166832454815e-06 -9999 -9999 -9999 -9999 -9999 -9999 -9999 -9999 -9999 -9999 -9999 -9999 -9999 -9999 -9999 -9999 -9999 -9999 -9999 -9999 -9999
0 0 0 0 0 0 0 0 0 0 0 0 0 0 0 0 0 0 0 0 0 0 0 0 0 0 0 0 8.3129494843685e-05 8.3129494843685e-05 0.00155738316017334 0.0010900342049839 0.000507365641340524 0.000711085539084214 0.000793208896975789 0.00130205950008633 0.000878706668671286 0.00155738316017334 5.83412312950929e-05 3.96329007345809e-05 2.36079461736473e-05 4.33340706989609e-05 5.70410558774132e-05 4.04466912506477e-05 2.88103887496373e-05 2.42603806541154e-05 0.000342591678900509 3.73026979871708e-05 4.111907233301e-05 5.15646770375496e-05 3.22861622387041e-06 2.14235136911191e-06 1.39652619474976e-06 3.22861622387041e-06 3.22861622387041e-06 2.6813959404883e-06 -9999 -9999 -9999 -9999 -9999 -9999 -9999 -9999 -9999 -9999 -9999 -9999 -9999 -9999 -9999 -9999 -9999 -9999 -9999 -9999 -9999 -9999
0 0 0 0 0 0 0 0 0 0 0 0 0 0 0 0 0 0 0 0 0 0 0 0 0 0 0 0 8.3129494843685e-05 0.00155738316017334 0.00155738316017334 0.00155738316017334 0.000931028756531466 0.000681721919654751 0.00131655357706503 0.00155738316017334 0.00119851573337269 0.00148546615739158 4.7198335909502e-05 4.11666206551957e-05 4.59564068190724e-05 4.6702699551386e-05 3.63456245461918e-05 3.008134309608e-05 2.44816508807223e-05 2.86815234813516e-05 1.8578172848657e-05 9.76620894320025e-05 5.83412312950929e-05 4.40731185059254e-05 3.22861622387041e-06 2.2650207502856e-06 2.35185710328788e-06 1.23961687156026e-06 2.41350166439267e-06 3.19682629659406e-06 -9999 -9999 -9999 -9999 -9999 -9999 -9999 -9999 -9999 -9999 -9999 -9999 -9999 -9999 -9999 -9999 -9999 -9999 -9999 -9999 -9999 -9999
0 0 0 0 0 0 0 0 0 0 0 0 0 0 0 0 0 0 0 0 0 0 0 0 0 0 0 0 0 0.00155738316017334 0.00155738316017334 0.00155738316017334 0.00108963301731562 0.00155738316017334 0.000936857972135417 0.00244697313239609 0.000807751904117384 0.000789002097721828 0.00100724569238807 3.30009618411031e-05 2.85610683755407e-05 3.20294434282543e-05 5.83412312950929e-05 6.7107371661132e-05 1.70589616876706e-05 4.57779826035801e-05 2.31934003640256e-05 5.84357531230356e-05 6.1260027786637e-05 2.99831729949752e-05 1.63055623724701e-05 1.34098208727853e-06 4.66610637377627e-06 8.25478386784652e-07 5.29348698297076e-07 3.11988949338764e-06 -9999 -9999 2.69261492598306e-06 2.6813959404883e-06 -9999 -9999 -9999 -9999 -9999 -9999 -9999 -9999 -9999 -9999 -9999 -9999 -9999 -9999 -9999 -9999 -9999 -9999
0 0 0 0 0 0 0 0 0 0 0 0 0 0 0 0 0 0 0 0 0 0 0 0 0 0 0 0 0 0 0.00155738316017334 0.00155738316017334 0.00155738316017334 0.00155738316017334 0.00155738316017334 0.00068876529012107 0.0021380816264915 0.00194419194074857 0.00108918793735492 0.000214140031709155 0.000162790722687792 0.000124631037303534 4.14263071434266e-05 0.000152214250442118 1.60908418194336e-05 3.9630901089887e-05 5.40027054629039e-05 5.09945338898278e-05 5.09951563843835e-05 2.87869361433036e-05 1.3987993241249e-05 1.00723851530175e-06 9.41356691963455e-07 1.17179470012333e-06 1.03090442672792e-06 2.88418620806584e-06 -9999 -9999 2.38567726806005e-06 2.64868222011522e-06 2.78500259018264e-06 -9999 -9999 -9999 -9999 -9999 -9999 -9999 -9999 -9999 -9999 -9999 -9999 -9999 -9999 -9999 -9999 -9999
0 0 0 0 0 0 0 0 0 0 0 0 0 0 0 0 0 0 0 0 0 0 0 0 0 0 0 0 0 0 0 0.00155738316017334 0.00155738316017334 0.00155738316017334 0.00155738316017334 0.0027408435247476 0.000628167016249261 0.000723888373114746 0.000668462296355821 0.000390951894881185 9.83549507961517e-05 5.83412312950929e-05 3.4278075481064e-05 3.88558559414254e-05 2.36715876512475e-05 5.88881745530646e-05 5.19587348543152e-05 3.14798716535956e-05 2.80987262176101e-05 8.72250090487263e-06 1.87357361819046e-05 2.36456013915082e-05 8.15557538120598e-07 1.09990143174071e-05 3.55719197884937e-06 2.98287372231102e-06 2.47666939557365e-06 -9999 -9999 2.96315454593913e-06 2.67046789758847e-06 -9999 -9999 -9999 -9999 -9999 -9999 -9999 -9999 -9999 -9999 -9999 -9999 -9999 -9999 -9999 -9999 -9999
0 0 0 0 0 0 0 0 0 0 0 0 0 0 0 0 0 0 0 0 0 0 0 0 0 0 0 0 0 0 0 0.00155738316017334 0.00155738316017334 0.00155738316017334 0.00155738316017334 0.0013656110914198 0.00220947535997364 0.00117598983639792 0.000978297728063104 0.000440112635610513 0.000369037739169921 0.000113214146315448 0.000212115980260355 3.83078865791771e-05 3.20365405670366e-05 0.0004235431791712 0.000801096130688837 0.000363247720570294 2.77366442794458e-05 2.51424811687125e-05 3.09932914284694e-05 5.83412312950929e-05 1.93749101184617e-06 6.94965811991179e-07 6.27650219337799e-07 1.40793671177117e-06 3.18102454712977e-06 1.98426103619628e-06 2.39439493722295e-06 2.60597162727135e-06 -9999 -9999 -9999 -9999 -9999 -9999 -9999 -9999 -9999 -9999 -9999 -9999 -9999 -9999 -9999 -9999 -9999 -9999
0 0 0 0 0 0 0 0 0 0 0 0 0 0 0 0 0 0 0 0 0 0 0 0 0 0 0 0 0 0 0 0.00155738316017334 0.00155738316017334 0.00155738316017334 0.00220022652184043 0.00353666110077318 0.000981771634969815 0.00160188609622546 0.00188686096966177 0.000727741741359896 0.000904894883744441 3.40640081892573e-05 0.00022202474935022 2.58287545230108e-05 3.77006830117601e-05 4.01460886640476e-05 0.000195635283467975 7.09622471518674e-05 0.00028163537381873 5.50176225587568e-05 4.05994389802869e-05 1.48385967195824e-05 1.25926045189129e-05 2.85395534336803e-05 7.27464886554223e-05 9.00440847934059e-07 3.15016043671765e-06 2.22980341016011e-06 2.83361539120124e-06 2.61656711879053e-06 -9999 -9999 -9999 -9999 -9999 -9999 -9999 -9999 -9999 -9999 -9999 -9999 -9999 -9999 -9999 -9999 -9999 -9999
0 0 0 0 0 0 0 0 0 0 0 0 0 0 0 0 0 0 0 0 0 0 0 0 0 0 0 0 0 0 0 0.00155738316017334 0.00155738316017334 0.00155738316017334 0.00129684830656457 0.0098520883072878 0.00113129419613384 0.00105701935925203 0.000829082757266676 0.000906289975221106 0.000865931100326939 0.00086011042911245 4.936356449232e-05 0.000129225547044529 0.000177068067643207 5.83977315799822e-05 3.93831277483652e-05 2.68043507437386e-05 6.2978267121133e-05 5.03170748382113e-05 0.000100396216648767 4.9166170606006e-05 1.41245228465241e-06 1.2029088761956e-06 2.39475703251558e-06 6.36735877254315e-06 2.78034618007308e-06 2.48623759486596e-06 2.04043336504357e-06 -9999 -9999 -9999 -9999 -9999 -9999 -9999 -9999 -9999 -9999 -9999 -9999 -9999 -9999 -9999 -9999 -9999 -9999 -9999
0 0 0 0 0 0 0 0 0 0 0 0 0 0 0 0 0 0 0 0 0 0 0 0 0 0 0 0 0 0 0 0 0.00155738316017334 0.00155738316017334 0.00402973624866339 0.0028184019837154 0.00503966285372528 0.00102371874739684 0.000584305050761201 0.00067717039896266 0.000701994536503026 0.000692984933790683 0.000528652399539963 3.65231134807258e-05 0.000104465528596657 4.10975737333243e-05 3.4036879811986e-05 4.11233565981154e-05 6.43711720655408e-05 4.23238026780919e-05 1.87207809746005e-05 5.83412312950929e-05 1.46158745866812e-05 1.14057394464059e-06 1.14178726964598e-06 7.28729921421018e-07 2.14475819488224e-06 2.48623759486596e-06 -9999 -9999 -9999 -9999 -9999 -9999 -9999 -9999 -9999 -9999 -9999 -9999 -9999 -9999 -9999 -9999 -9999 -9999 -9999 -9999
0 0 0 0 0 0 0 0 0 0 0 0 0 0 0 0 0 0 0 0 0 0 0 0 0 0 0 0 0 0 0 0 0.00155738316017334 0.00155738316017334 0.00425602095257415 0.00282115529919688 0.000608278217164383 0.000713707212355737 0.000674238759901268 0.000928335024744357 0.000896998076363083 0.00210687541284841 0.00105455160053204 0.00146487753957919 0.000591459908243654 1.75071215295551e-05 2.58727802751384e-05 2.7546115379322e-05 4.70519167496415e-05 5.20003966619606e-05 3.64096691382183e-05 3.01904130279487e-05 5.83412312950929e-05 3.22861622387041e-06 3.22861622387041e-06 1.97878523869309e-06 1.58108117055849e-06 2.12355979874652e-06 2.39439493722295e-06 -9999 -9999 -9999 -9999 -9999 -9999 -9999 -9999 -9999 -9999 -9999 -9999 -9999 -9999 -9999 -9999 -9999 -9999 -9999
0 0 0 0 0 0 0 0 0 0 0 0 0 0 0 0 0 0 0 0 0 0 0 0 0 0 0 0 0 0 0 0 0.00155738316017334 0.00155738316017334 0.0125600599395934 0.00722297732664758 0.000967562739189473 0.0008962895584565 0.00134818100613791 0.00123437072141707 0.000797262666922505 0.00125554979089346 0.000626876353902621 0.00107400449996873 3.40179591223633e-05 1.95427907445752e-05 2.03917591903259e-05 7.12586270649052e-05 0.000283746989019119 1.65174597965047e-05 0.000116024009271233 3.15722619305598e-05 4.06902853813552e-05 5.83412312950929e-05 3.47329002303364e-06 3.22861622387041e-06 1.72397933423441e-06 3.04641863272877e-06 3.19682629659406e-06 2.49570714082887e-06 -9999 -9999 -9999 -9999 -9999 -9999 -9999 -9999 -9999 -9999 -9999 -9999 -9999 -9999 -9999 -9999 -9999 -9999
0 0 0 0 0 0 0 0 0 0 0 0 0 0 0 0 0 0 0 0 0 0 0 0 0 0 0 0 0 0 0 0 0.00155738316017334 0.00155738316017334 0.00155738316017334 0.00155738316017334 0.00135495975117031 0.00273824654106167 0.00155738316017334 0.00142698235229929 0.00103074124852733 0.00155043736440715 0.00138886886795647 0.000892846773566641 0.000137356301195522 4.72563451683534e-05 0.000186141612055558 3.89785647113798e-05 1.69536739005179e-05 0.000201094395843208 8.6504799850339e-05 0.00011261887228373 3.27112136370146e-05 4.10513954489936e-05 2.44500659443132e-06 1.81705267697072e-06 1.14320310969634e-06 4.72259754900251e-07 2.11542359428185e-06 2.82141421119418e-06 -9999 -9999 -9999 -9999 -9999 -9999 -9999 -9999 -9999 -9999 -9999 -9999 -9999 -9999 -9999 -9999 -9999 -9999
0 0 0 0 0 0 0 0 0 0 0 0 0 0 0 0 0 0 0 0 0 0 0 0 0 0 0 0 0 0 0 0 0.00155738316017334 0.00155738316017334 0.00155738316017334 0.0120745262951857 0.000928162106948189 0.00223786147062072 0.00108701520809582 0.00155738316017334 0.00130422505266793 0.000971718511900113 0.00137812076455001 0.000792047657923834 0.000146594763643618 9.01866900541155e-05 4.35111820120309e-05 0.000344797390696662 0.00011657442946524 6.90591000948501e-05 0.000330975418883366 0.000106483731749708 6.11795926083051e-05 2.66918799461783e-05 4.3003143044963e-05 5.87897014768604e-05 1.70099509254245e-06 2.26928618879745e-06 2.56319126039478e-06 3.31455564776113e-06 -9999 -9999 -9999 -9999 -9999 -9999 -9999 -9999 -9999 -9999 -9999 -9999 -9999 -9999 -9999 -9999 -9999 -9999
0 0 0 0 0 0 0 0 0 0 0 0 0 0 0 0 0 0 0 0 0 0 0 0 0 0 0 0 0 0 0 0 0.00155738316017334 0.00155738316017334 0.00155738316017334 0.00155738316017334 0.00134776271792903 0.00208033937360484 0.00108677763706842 0.00135527557771113 0.00156362090835943 0.00100064118196432 0.00506652212787022 0.00429691416019028 0.000237441875950409 3.98063621474003e-05 0.000260103270567396 8.9322803756366e-05 0.00016042848530935 6.03250401834659e-05 3.37297830376091e-05 5.83412312950929e-05 0.000161423708980302 3.31625456150042e-05 2.05529196282551e-05 3.39842631839532e-05 3.14885579740752e-06 1.494107652749e-06 1.82577444585007e-06 3.47333423228403e-06 2.18058870124294e-05 -9999 -9999 -9999 -9999 -9999 -9999 -9999 -9999 -9999 -9999 -9999 -9999 -9999 -9999 -9999 -9999 -9999
0 0 0 0 0 0 0 0 0 0 0 0 0 0 0 0 0 0 0 0 0 0 0 0 0 0 0 0 0 0 0 0 0.00155738316017334 0.00155738316017334 0.00153625067846413 0.00153625067846413 0.00131239452166678 0.00150857946857737 0.000971223361502161 0.00118180912935474 0.00105831490209823 0.00233671352680622 0.0012842954723061 0.00133731774787726 0.00100978669874897 0.000804127163094993 7.11157939919056e-05 8.40611648934527e-05 0.000160702279282071 6.4304006243929e-05 0.000136588002838401 0.000149390750315953 8.57132338383615e-05 4.29916487973302e-05 2.48114676173224e-05 2.46286432646804e-05 1.79799722282512e-05 8.30182207585102e-05 9.44208902293982e-06 9.22255136633941e-06 1.48418339524029e-05 -9999 -9999 -9999 -9999 -9999 -9999 -9999 -9999 -9999 -9999 -9999 -9999 -9999 -9999 -9999 -9999 -9999
0 0 0 0 0 0 0 0 0 0 0 0 0 0 0 0 0 0 0 0 0 0 0 0 0 0 0 0 0 0 0 0 0.00153625067846413 0.00153625067846413 0.00153625067846413 0.00153625067846413 0.0049281854194566 0.00154208788372166 0.00153625067846413 0.00143387241442428 0.00153625067846413 0.00105817089073465 0.00147444318809098 0.00246723891662926 0.00118296182151362 0.00119100162263657 0.000281518745287582 8.404736480155e-05 6.64637036995942e-05 4.31372467116539e-05 9.86833283488422e-05 2.57595445823259e-05 2.00145768267318e-05 3.49483144161335e-05 1.59800624033333e-05 3.55054952661349e-05 4.69015751245325e-05 9.81932218333249e-06 1.22498736021813e-05 1.82030489605143e-05 1.15398063054537e-05 2.16931530717715e-05 -9999 -9999 1.99541575219655e-05 -9999 -9999 -9999 -9999 -9999 -9999 -9999 -9999 -9999 -9999 -9999 -9999 -9999
0 0 0 0 0 0 0 0 0 0 0 0 0 0 0 0 0 0 0 0 0 0 0 0 0 0 0 0 0 0 0 0 0.00153625067846413 0.00153625067846413 0.00153625067846413 0.00153625067846413 0.00296592869545879 0.0047799572259363 0.0014762310173783 0.00124323950048363 0.00153625067846413 0.00105784081433159 0.00116834565082222 0.00187430011890525 0.000858577589898555 0.000876890371591407 0.000576077013496317 0.000283488108674586 6.32964366116302e-05 0.000109017301618324 2.22204623171669e-05 7.17589079303568e-05 1.28730452037554e-05 3.74021205875626e-05 3.64135515844724e-05 2.43878210408345e-05 1.96640869776407e-05 2.31166054278181e-05 1.60926894852805e-05 1.60021344085994e-05 1.7453326404749e-05 8.86347473195978e-06 1.82338859007029e-05 1.33443053686665e-05 2.0144034798294e-05 -9999 -9999 -9999 -9999 -9999 -9999 -9999 -9999 -9999 -9999 -9999 -9999 -9999
0 0 0 0 0 0 0 0 0 0 0 0 0 0 0 0 0 0 0 0 0 0 0 0 0 0 0 0 0 0 0 0 0.00153625067846413 0.00153625067846413 0.00153625067846413 0.00153625067846413 0.00153625067846413 0.00171848685438989 0.00153625067846413 0.00153625067846413 0.00105749802798645 0.0011811439818882 0.000505677994742718 0.00133790779015349 0.00103012073240113 0.00129668069610649 0.000610387536767203 2.12159175485871e-05 4.0049898920473e-05 1.71334987420457e-05 2.76422589950814e-05 2.01523756461681e-05 0.000122691337731378 5.97956150215841e-05 1.43618638050378e-05 2.19693706448112e-05 4.69015751245325e-05 2.56575076257588e-05 1.51092901179736e-05 1.5736885625598e-05 1.44486594065672e-05 2.3241023160773e-05 2.23833361183266e-05 1.53261124900616e-05 1.66546188876561e-05 -9999 -9999 -9999 -9999 -9999 -9999 -9999 -9999 -9999 -9999 -9999 -9999 -9999
0 0 0 0 0 0 0 0 0 0 0 0 0 0 0 0 0 0 0 0 0 0 0 0 0 0 0 0 0 0 0 0 0 0.00153625067846413 0.00153625067846413 0.00153625067846413 0.00153625067846413 0.00188822513666751 0.00179156390244532 0.00257636790968555 0.00153625067846413 0.00104990269917659 0.000983708184256848 0.00133741841340663 0.00133741045924781 0.00153625067846413 0.00080463678753985 2.4592834259256e-05 4.17175961715946e-05 3.00830071528761e-05 1.83246461207763e-05 3.30011820105094e-05 9.22986863455738e-05 2.40628451831167e-05 1.40657986237873e-05 1.52145310194648e-05 4.09341676802869e-05 2.78756279476758e-05 1.11078676867106e-05 1.66746822508236e-05 1.06612049994268e-05 1.45595328763322e-05 2.31166054278181e-05 1.3386115842716e-05 -9999 -9999 -9999 -9999 -9999 -9999 -9999 -9999 -9999 -9999 -9999 -9999 -9999 -9999
0 0 0 0 0 0 0 0 0 0 0 0 0 0 0 0 0 0 0 0 0 0 0 0 0 0 0 0 0 0 0 0 0 0.00153625067846413 0.00153625067846413 0.00153625067846413 0.00153625067846413 0.00153625067846413 0.00184649612563987 0.00153625067846413 0.00153625067846413 0.00153625067846413 0.0014178971856604 0.000888960265214878 0.000937823517580706 0.00151447312676341 0.00124324142479416 0.000885024487835579 4.33918074038136e-05 3.43952762810036e-05 4.42812634872808e-05 1.65402676470307e-05 0.000166162901658133 1.59563083096321e-05 2.25301371746994e-05 0.000171086194248385 2.00109054140775e-05 2.45097232541589e-05 2.31166054278181e-05 2.31166054278181e-05 1.56047637112221e-05 1.75700966202742e-05 1.43232907159709e-05 1.76252668348606e-05 -9999 -9999 -9999 -9999 -9999 -9999 -9999 -9999 -9999 -9999 -9999 -9999 -9999 -9999
0 0 0 0 0 0 0 0 0 0 0 0 0 0 0 0 0 0 0 0 0 0 0 0 0 0 0 0 0 0 0 0 0 0.00153625067846413 0.00153625067846413 0.00153625067846413 0.00153625067846413 0.00153625067846413 0.00153625067846413 0.00153625067846413 0.00153625067846413 0.00153625067846413 0.00189400299746629 0.00224803589906578 0.000763096413009812 0.000584232754784822 0.00136305838102698 0.00124308627607918 2.6383741016748e-05 3.49448261150173e-05 2.03253929354787e-05 2.01641630985453e-05 7.61709319263661e-05 0.000155519151851134 1.54500644037724e-05 1.88025664803303e-05 2.73989555785182e-05 4.69015751245325e-05 4.69015751245325e-05 2.31166054278181e-05 9.10976838913028e-06 3.42332638131777e-06 6.42191328708988e-06 2.15835609982535e-05 1.5215952399585e-05 1.50541324285798e-05 1.94939555771927e-05 2.02412069222329e-05 -9999 -9999 -9999 -9999 -9999 -9999 -9999 -9999 -9999 -9999
0 0 0 0 0 0 0 0 0 0 0 0 0 0 0 0 0 0 0 0 0 0 0 0 0 0 0 0 0 0 0 0 0 0.00153625067846413 0.00153625067846413 0.00153625067846413 0.00153625067846413 0.00153625067846413 0.00153625067846413 0.00156492366707299 0.0015527819248277 0.00108058361514736 0.00178376894595165 0.0020228925853597 0.000586839018514028 0.000553747491937371 0.000504551965682744 0.000436019275650211 4.17054259499664e-05 0.000213050555422768 3.02019644976145e-05 0.000501654070238356 0.000119139069366883 5.76812227130586e-05 0.000108948021105625 1.18855097833416e-05 2.6758711115597e-05 3.78349216160038e-05 3.23174469661372e-05 4.69015751245325e-05 1.70787812434945e-05 5.99043537516675e-06 7.95348280496592e-06 2.31166054278181e-05 2.32396952587353e-05 2.31166054278181e-05 2.31166054278181e-05 1.67866854231537e-05 -9999 -9999 -9999 -9999 -9999 -9999 -9999 -9999 -9999 -9999
0 0 0 0 0 0 0 0 0 0 0 0 0 0 0 0 0 0 0 0 0 0 0 0 0 0 0 0 0 0 0 0 0 0 0.00153625067846413 0.00153625067846413 0.00153625067846413 0.00153625067846413 0.00153625067846413 0.00153625067846413 0.00234242184164782 0.00153625067846413 0.00153625067846413 0.00171788753842883 0.00388923249999732 0.000497431171255592 0.000706835986787284 0.00052312113090297 2.66964814034788e-05 1.91644725055375e-05 2.11749900830351e-05 0.000118950896121643 3.06665194095797e-05 4.78383348480892e-05 2.05840518076431e-05 8.9120666889162e-06 2.10391772616566e-05 2.66976242020516e-05 4.69015751245325e-05 2.31166054278181e-05 2.31166054278181e-05 2.31166054278181e-05 1.6006276734426e-05 1.12632467314736e-05 1.49411826626365e-05 2.32396752733051e-05 2.31166054278181e-05 2.26225352036666e-05 -9999 -9999 -9999 -9999 -9999 -9999 -9999 -9999 -9999 -9999
0 0 0 0 0 0 0 0 0 0 0 0 0 0 0 0 0 0 0 0 0 0 0 0 0 0 0 0 0 0 0 0 0 0 0.00153625067846413 0.00153625067846413 0.00153625067846413 0.00153625067846413 0.00153625067846413 0.00275095508445448 0.00134514251865748 0.00159413778362245 0.00111901272652137 0.00144184944243615 0.00224129311318003 0.000811740614769637 0.000538924842841789 0.000660080244931737 4.61633539663086e-05 4.69015751245325e-05 4.12650396531073e-05 8.57221113284908e-05 1.70510198127918e-05 2.66708093405306e-05 2.13086936311086e-05 1.72301523769696e-05 1.11805723113633e-05 2.90797825760066e-05 1.69777847238469e-05 3.22993832321336e-05 2.31166054278181e-05 2.31166054278181e-05 9.8145880991868e-06 4.26170976192662e-06 1.07883237727968e-05 1.49993988054145e-05 1.23577929324509e-05 2.31166054278181e-05 -9999 -9999 -9999 -9999 -9999 -9999 -9999 -9999 -9999 -9999
0 0 0 0 0 0 0 0 0 0 0 0 0 0 0 0 0 0 0 0 0 0 0 0 0 0 0 0 0 0 0 0 0 0 0 0.00153625067846413 0.00153625067846413 0.00153625067846413 0.00153625067846413 0.00153625067846413 0.00153625067846413 0.00181323412973071 0.00153625067846413 0.000617485676177011 0.000799931376140381 0.000430263266927015 0.000500434789546687 0.000637279920442588 4.69015751245325e-05 4.69015751245325e-05 6.5993912708e-05 6.95169132751213e-05 4.39414714328639e-05 4.22486838606051e-05 4.53667071504792e-05 5.76054488502918e-05 1.82707376416642e-05 3.73449256624268e-05 1.58623033875216e-05 4.69015751245325e-05 1.6066860884617e-05 2.31166054278181e-05 2.29467280917493e-05 4.59846804422009e-06 1.3440560258095e-05 2.14170083967246e-05 1.67089211241726e-05 2.31166054278181e-05 -9999 -9999 -9999 -9999 -9999 -9999 -9999 -9999 -9999 -9999
0 0 0 0 0 0 0 0 0 0 0 0 0 0 0 0 0 0 0 0 0 0 0 0 0 0 0 0 0 0 0 0 0 0 0 0.00153625067846413 0.00153625067846413 0.00153625067846413 0.00153625067846413 0.00161615318556042 0.00150744456342879 0.00153625067846413 0.00241574102987335 0.00094253336152205 0.00199775162119878 0.000729231355338676 0.00119984745998707 0.00126277591846834 0.00105565631995847 3.2286576724343e-05 2.92686840635096e-05 3.00494759229295e-05 4.79505344112182e-05 4.65968382591042e-05 0.000158311894151799 4.24878328591494e-05 2.61285564343821e-05 2.92119702113296e-05 2.70037989884385e-05 3.22891315603825e-05 3.60871091727035e-05 2.03320527344088e-05 2.03424444288468e-05 1.34372545159355e-05 2.25970785703628e-05 1.34211591290776e-05 1.94378141311068e-05 2.31166054278181e-05 2.07359858986435e-05 -9999 -9999 -9999 -9999 -9999 -9999 -9999 -9999 -9999
0 0 0 0 0 0 0 0 0 0 0 0 0 0 0 0 0 0 0 0 0 0 0 0 0 0 0 0 0 0 0 0 0 0 0 0.00153625067846413 0.00153625067846413 0.00153625067846413 0.00153625067846413 0.00153625067846413 0.00153625067846413 0.00275850474174488 0.0025769292727923 0.00153625067846413 0.00153625067846413 0.00392790506073663 0.00121678113546801 0.00206489862799492 0.00119962571068777 4.69015751245325e-05 4.69015751245325e-05 3.49065476870786e-05 4.25151065386427e-05 2.76920536619332e-05 5.63016046293894e-05 3.28601772491668e-05 1.97688332310362e-05 4.69015751245325e-05 4.69015751245325e-05 4.69015751245325e-05 3.22793542699266e-05 1.99604729147585e-05 1.82314659309489e-05 2.31166054278181e-05 2.31166054278181e-05 1.60362706428283e-05 2.31166054278181e-05 2.31166054278181e-05 2.29899509643208e-05 2.06358293403515e-05 -9999 -9999 -9999 -9999 -9999 -9999 -9999 -9999
0 0 0 0 0 0 0 0 0 0 0 0 0 0 0 0 0 0 0 0 0 0 0 0 0 0 0 0 0 0 0 0 0 0 0 0.00153625067846413 0.00153625067846413 0.00153625067846413 0.00224852242234928 0.00273480711256582 0.00245752121292426 0.00153625067846413 0.00153625067846413 0.00153625067846413 0.00119948206858457 0.00131143928578679 0.00105528289043205 0.00153625067846413 0.00153625067846413 0.00105526910374727 4.69015751245325e-05 4.69015751245325e-05 3.22734261380688e-05 4.69015751245325e-05 4.69015751245325e-05 2.80407607875436e-05 3.13229784870268e-05 2.63291507003768e-05 4.69015751245325e-05 3.22076243393291e-05 4.69015751245325e-05 4.69015751245325e-05 2.31166054278181e-05 2.26891745701984e-05 2.31166054278181e-05 1.99587381161782e-05 1.79247869348786e-05 2.31006931287868e-05 2.31166054278181e-05 2.20328408521616e-05 2.04366131781252e-05 1.88014169992882e-05 -9999 -9999 -9999 -9999 -9999 -9999
0 0 0 0 0 0 0 0 0 0 0 0 0 0 0 0 0 0 0 0 0 0 0 0 0 0 0 0 0 0 0 0 0 0 0 0 0.00153625067846413 0.00153625067846413 0.00216120235391257 0.00305403704081535 0.00903010240571063 0.000661580929786549 0.00153625067846413 0.00153625067846413 0.00153625067846413 0.00153625067846413 0.000822496831580549 0.00115840416695817 0.00108410650214116 0.00153625067846413 4.69015751245325e-05 3.17887476524734e-05 3.32696505660904e-05 7.95906538026519e-05 2.45128586929267e-05 2.34383711592039e-05 2.56609697782496e-05 3.5468210179354e-05 2.41768408345235e-05 4.69015751245325e-05 4.69015751245325e-05 4.69015751245325e-05 2.45135884393295e-05 2.31166054278181e-05 2.31166054278181e-05 2.31166054278181e-05 2.32391595849884e-05 2.31166054278181e-05 2.31166054278181e-05 2.31166054278181e-05 2.31166054278181e-05 2.28669018639194e-05 2.28669018639194e-05 2.2149142523012e-05 -9999 -9999 -9999 -9999
0 0 0 0 0 0 0 0 0 0 0 0 0 0 0 0 0 0 0 0 0 0 0 0 0 0 0 0 0 0 0 0 0 0 0 0 0.00153625067846413 0.00153625067846413 0.00410384291532683 0.00238140852315587 0.0015071383085575 0.00153625067846413 0.00110455072347083 0.00144623092751453 0.00153625067846413 0.00100110422165755 0.000927194733428088 0.00121061889021497 0.00137559796151243 0.000893651603738223 2.24495146557523e-05 4.69015751245325e-05 6.76332669623262e-05 3.73032745766655e-05 3.4508321675078e-05 2.36107294718984e-05 4.13734252437026e-05 1.66612957800946e-05 2.6954907456387e-05 4.69015751245325e-05 4.69015751245325e-05 4.69015751245325e-05 2.31166054278181e-05 1.60487404253926e-05 2.31166054278181e-05 2.31166054278181e-05 2.31166054278181e-05 2.31166054278181e-05 2.31166054278181e-05 2.31166054278181e-05 2.31166054278181e-05 2.31166054278181e-05 2.31166054278181e-05 1.86359032173604e-05 2.28669018639194e-05 -9999 -9999 -9999
0 0 0 0 0 0 0 0 0 0 0 0 0 0 0 0 0 0 0 0 0 0 0 0 0 0 0 0 0 0 0 0 0 0 0 0 0.00153625067846413 0.00153625067846413 0.00153625067846413 0.00153625067846413 0.00557933363592051 0.00298239046023166 0.00125740236976144 0.000841746110742897 0.00105459689752223 0.00153625067846413 0.00160208442092595 0.00153625067846413 0.00153625067846413 0.00105451505360361 4.69015751245325e-05 3.22532309480954e-05 4.69015751245325e-05 4.69015751245325e-05 7.7901549886179e-05 3.68841937549235e-05 6.09248480313845e-05 2.14489720339731e-05 2.91419602370642e-05 2.83973197953959e-05 4.95195718324199e-05 2.17468146856253e-05 4.69015751245325e-05 2.31166054278181e-05 1.56494979492409e-05 2.04618308841803e-05 1.65416891071959e-05 2.31166054278181e-05 2.31166054278181e-05 2.31166054278181e-05 2.31166054278181e-05 2.31166054278181e-05 2.31166054278181e-05 2.31166054278181e-05 1.94054121744577e-05 -9999 -9999 -9999
0 0 0 0 0 0 0 0 0 0 0 0 0 0 0 0 0 0 0 0 0 0 0 0 0 0 0 0 0 0 0 0 0 0 0 0 0.00153625067846413 0.00153625067846413 0.00153625067846413 0.0020299153975274 0.00222970762074259 0.00331330573049455 0.00472892274096741 0.00153625067846413 0.00153625067846413 0.0021457845051044 0.000688161137706712 0.000765837807072123 0.00153625067846413 0.00153625067846413 0.00153625067846413 4.69015751245325e-05 2.29075569457257e-05 9.06569214418238e-05 4.1672900910548e-05 4.96810463958547e-05 2.78602104483028e-05 2.91630368571771e-05 2.59738722685555e-05 2.33115526838333e-05 4.69015751245325e-05 3.22206428397501e-05 4.69015751245325e-05 2.47734006930211e-05 1.87780401236776e-05 1.774448601801e-05 1.958362191582e-05 1.59960674382929e-05 2.31166054278181e-05 2.31166054278181e-05 2.31166054278181e-05 2.31166054278181e-05 2.31166054278181e-05 2.31166054278181e-05 2.31166054278181e-05 1.9227569692178e-05 2.31166054278181e-05 -9999
0 0 0 0 0 0 0 0 0 0 0 0 0 0 0 0 0 0 0 0 0 0 0 0 0 0 0 0 0 0 0 0 0 0 0 0 0 0.00153625067846413 0.00153625067846413 0.00153625067846413 0.00151204245408074 0.00153625067846413 0.00193171026922611 0.00184127274322265 0.00121940905968466 0.00128664845688789 0.00105406680279459 0.00153625067846413 0.0013887638674128 0.0011400336709932 0.00153625067846413 2.47638912369027e-05 0.000196264493979317 4.69015751245325e-05 4.00891669735147e-05 4.30950314336957e-05 4.69015751245325e-05 4.69015751245325e-05 4.69015751245325e-05 4.69015751245325e-05 4.51900042017072e-05 3.32426698499957e-05 4.69015751245325e-05 4.69015751245325e-05 2.31166054278181e-05 2.04581932882232e-05 2.01980372055107e-05 2.31166054278181e-05 8.20826818618055e-06 2.31166054278181e-05 2.31166054278181e-05 2.31166054278181e-05 2.31166054278181e-05 2.31166054278181e-05 2.31166054278181e-05 2.07359858986435e-05 -9999 -9999
0 0 0 0 0 0 0 0 0 0 0 0 0 0 0 0 0 0 0 0 0 0 0 0 0 0 0 0 0 0 0 0 0 0 0 0 0 0.00153625067846413 0.00153625067846413 0.00153625067846413 0.00262910239370161 0.00146830676677922 0.00130105493186426 0.00182719470949952 0.00153625067846413 0.00224199317427662 0.00108857186918173 0.00105397211839789 0.00153625067846413 0.0010084118517368 0.000829149940427657 0.000623750104431468 3.07210023649576e-05 3.01921061967029e-05 4.24200654520203e-05 6.45328784942985e-05 5.38453531655456e-05 3.22205788597377e-05 4.0607409865236e-05 1.63021527364394e-05 3.32358842391911e-05 4.69015751245325e-05 1.56696948266723e-05 1.11548109550641e-05 1.02258417780177e-05 1.10101736254594e-05 1.4372742328542e-05 7.85063985370778e-06 2.93511325138706e-05 1.85258229284687e-05 1.2315942398298e-05 2.31166054278181e-05 2.31166054278181e-05 2.31166054278181e-05 2.31166054278181e-05 2.31166054278181e-05 2.31166054278181e-05 -9999
0 0 0 0 0 0 0 0 0 0 0 0 0 0 0 0 0 0 0 0 0 0 0 0 0 0 0 0 0 0 0 0 0 0 0 0 0 0 0.00153625067846413 0.00153625067846413 0.00153625067846413 0.00153625067846413 0.00127863473885459 0.00124688775843398 0.000943325538960888 0.000785584340239002 0.00117123072970217 0.00108646465959603 0.00153625067846413 0.00153625067846413 0.000927719195285995 0.000498077199788064 2.79924056357221e-05 2.28707576504162e-05 4.31208265449015e-05 0.000112752359621371 2.26428336763087e-05 3.60326550929755e-05 2.07398727996362e-05 3.30577434890365e-05 4.69015751245325e-05 2.62709703251795e-05 1.75990825438013e-05 1.98905828197547e-05 2.21589517795476e-05 1.68436322854704e-05 1.70591864137093e-05 2.31166054278181e-05 2.31166054278181e-05 2.31166054278181e-05 2.31166054278181e-05 2.31166054278181e-05 2.31166054278181e-05 2.31166054278181e-05 2.31166054278181e-05 2.31166054278181e-05 -9999 2.31166054278181e-05
0 0 0 0 0 0 0 0 0 0 0 0 0 0 0 0 0 0 0 0 0 0 0 0 0 0 0 0 0 0 0 0 0 0 0 0 0 0 0.00153625067846413 0.00153625067846413 0.00153625067846413 0.00147638625694477 0.00209386929749455 0.00147388321456554 0.00096967579549041 0.00119083098717243 0.00153625067846413 0.00105347400223401 0.00153625067846413 0.00133537994957827 0.000773456572083695 2.72740622620577e-05 2.5021313624594e-05 2.76178251951919e-05 2.727082228181e-05 4.69015751245325e-05 3.22163238704049e-05 4.5828623664921e-05 1.45157398342279e-05 3.14232975667078e-05 2.71536290995038e-05 4.69015751245325e-05 2.50298654351074e-05 4.51863038252074e-05 1.11486554992183e-05 1.733676630961e-05 1.88789130280431e-05 2.31166054278181e-05 2.31166054278181e-05 2.31166054278181e-05 2.31166054278181e-05 2.31166054278181e-05 2.31166054278181e-05 2.31166054278181e-05 2.31166054278181e-05 2.31166054278181e-05 -9999 -9999
0 0 0 0 0 0 0 0 0 0 0 0 0 0 0 0 0 0 0 0 0 0 0 0 0 0 0 0 0 0 0 0 0 0 0 0 0 0 0 0.00126017737954436 0.00151827669875231 0.00163811804789224 0.00114195290425578 0.0012731485112731 0.00240648783568629 0.00143193871069779 0.00336085826940267 0.0012186617367251 0.00105332666146494 0.000682527550848967 0.000838228960847591 0.00121755708807464 7.83139732953647e-05 4.69015751245325e-05 4.69015751245325e-05 7.20811678612693e-05 4.69015751245325e-05 4.64826132010231e-05 2.68060237360387e-05 9.24349844339893e-06 1.30053606423002e-05 1.6368522669608e-05 4.69015751245325e-05 3.93470011833943e-05 2.52967045762217e-05 0.000901870054454571 1.51109579459601e-05 1.47587400633538e-05 8.27093210880759e-06 1.17596226878977e-05 2.31166054278181e-05 2.31166054278181e-05 2.31166054278181e-05 2.31166054278181e-05 2.31166054278181e-05 2.31166054278181e-05 2.28669018639194e-05 1.76252668348606e-05
0 0 0 0 0 0 0 0 0 0 0 0 0 0 0 0 0 0 0 0 0 0 0 0 0 0 0 0 0 0 0 0 0 0 0 0 0 0 0 0 0.00158376097610297 0.0015080792828849 0.00206432855380712 0.00214071775241712 0.000818378343392776 0.00203560545391302 0.00261987383252584 0.00111286495898705 0.00153625067846413 0.000799560828280393 0.00116706419436032 0.00153625067846413 4.47064322717083e-05 4.69015751245325e-05 3.72774322558917e-05 3.9343867481917e-05 4.69015751245325e-05 4.69015751245325e-05 4.69015751245325e-05 4.24832836091982e-05 2.59271188358962e-05 4.69015751245325e-05 3.22028163088894e-05 3.42776923679892e-05 8.67506877970645e-06 1.92139568123404e-05 2.31166054278181e-05 1.48266687154371e-05 1.08332066627313e-05 1.60215578734973e-05 2.31166054278181e-05 2.31166054278181e-05 2.31166054278181e-05 2.31166054278181e-05 2.31166054278181e-05 2.31166054278181e-05 2.29899509643208e-05 1.5271330385048e-05
