NCOLS 78 
NROWS 66 
XLLCORNER -87.5 
YLLCORNER 25 
CELLSIZE 0.0833333333333333 
NODATA_value -9999 
-9999.000000000000000 -9999 -9999 -9999 0.00103430845644095 0.00103990556779907 -9999 -9999 -9999 -9999 -9999 0.000868919504730024 0.000792911374174335 0.000951527494611305 0.000932882659946123 0.00102867114632326 -9999 -9999 -9999 -9999 -9999 -9999 -9999 -9999 -9999 -9999 -9999 -9999 -9999 -9999 -9999 -9999 -9999 -9999 -9999 -9999 -9999 -9999 -9999 -9999 -9999 -9999 -9999 -9999 -9999 -9999 -9999 -9999 -9999 -9999 -9999 -9999 -9999 -9999 -9999 -9999 -9999 -9999 -9999 -9999 -9999 -9999 -9999 -9999 -9999 -9999 -9999 -9999 -9999 -9999 -9999 -9999 0.000300026737677145 0.000300026737677145 0.000300026737677145 0.000300026737677145 0.000300026737677145 0.000300026737677145
-9999 -9999 -9999 0.000961132216648934 0.000820232717692535 0.000802910394051404 0.000842059184681673 0.00326478200474301 0.00133793485413803 0.00181968424640788 0.00169058380540277 0.000883416567079179 0.00172957445121415 0.000963136080675112 0.000937260979514954 -9999 -9999 -9999 -9999 -9999 -9999 -9999 -9999 -9999 -9999 -9999 -9999 -9999 -9999 -9999 -9999 -9999 -9999 -9999 -9999 -9999 -9999 -9999 -9999 -9999 -9999 -9999 -9999 -9999 -9999 -9999 -9999 -9999 -9999 -9999 -9999 -9999 -9999 -9999 -9999 -9999 -9999 -9999 -9999 -9999 -9999 -9999 -9999 -9999 -9999 -9999 -9999 -9999 -9999 -9999 -9999 -9999 -9999 0.000300026737677145 0.000300026737677145 0.000300026737677145 0.000300026737677145 0.000300026737677145
0.000842059184681673 0.000840237306622858 0.000963342968906178 0.00443734451434828 0.000552550326779762 0.000234641098250833 0.000724706914807821 0.000386971233272049 0.000438033041417318 0.000441874660555996 0.000221995946469989 0.000367273401485565 0.00023203692341349 0.000570491085269049 0.000365287863611013 0.000599063888856755 0.000809578861041523 -9999 -9999 -9999 -9999 -9999 -9999 -9999 -9999 -9999 -9999 -9999 -9999 -9999 -9999 -9999 -9999 -9999 -9999 -9999 -9999 -9999 -9999 -9999 -9999 -9999 -9999 -9999 -9999 -9999 -9999 -9999 -9999 -9999 -9999 -9999 -9999 -9999 -9999 -9999 -9999 -9999 -9999 -9999 -9999 -9999 -9999 -9999 -9999 -9999 -9999 -9999 -9999 -9999 -9999 -9999 -9999 0.000300026737677145 0.000300026737677145 0.000300026737677145 0.000300026737677145 0.000300026737677145
0.000666163031319165 0.000653849305770697 0.000590476987211118 0.00162874243628627 0.00161208263483291 5.28652844496733e-05 9.44320139319994e-05 5.45333272148104e-05 9.1331031957175e-05 7.38218521402606e-05 6.3005859605854e-05 9.00965919469393e-05 4.80455439603006e-05 0.00015354007370058 0.000154730553177249 6.84943129967361e-05 0.000217243544478312 0.000275014442234984 0.000225128263708455 0.000628153984958907 0.000849572351297209 0.00072077754532678 -9999 -9999 -9999 -9999 -9999 -9999 -9999 -9999 -9999 -9999 -9999 -9999 -9999 -9999 -9999 -9999 -9999 -9999 -9999 -9999 -9999 -9999 -9999 -9999 -9999 -9999 -9999 -9999 -9999 -9999 -9999 -9999 -9999 -9999 -9999 -9999 -9999 -9999 -9999 -9999 -9999 -9999 -9999 -9999 -9999 -9999 -9999 -9999 -9999 -9999 -9999 0.000300026737677145 0.000300026737677145 0.000300026737677145 0.000300026737677145 0.000300026737677145
0.00686989589640802 0.00262722819032162 5.41004365737321e-05 0.00032396491128531 0.0009480664695577 3.79704311465937e-05 5.11708913065843e-05 1.01857605512631e-05 0.000184085588231077 0.000419971270268656 0.000197042509056981 0.000210092393983922 5.97724157453304e-05 0.00022714865933729 0.00023115026115723 5.95722056241712e-05 5.69476175042032e-05 4.8732193809841e-05 0.000243816249628266 0.00105709602280234 0.00121012633267123 0.000756775693808641 0.000697010896640848 0.000779922070023133 -9999 -9999 -9999 -9999 -9999 -9999 -9999 -9999 -9999 -9999 -9999 -9999 -9999 -9999 -9999 -9999 -9999 0.000247133986137078 -9999 -9999 -9999 -9999 -9999 -9999 -9999 -9999 -9999 -9999 -9999 -9999 -9999 -9999 -9999 -9999 -9999 -9999 -9999 -9999 -9999 -9999 -9999 -9999 -9999 -9999 -9999 -9999 -9999 -9999 -9999 -9999 0.000300026737677145 0.000300026737677145 0.000300026737677145 0.000300026737677145
0.000115166619145758 0.000148404481891556 8.0142894516732e-05 0.000669130891461143 0.000125986786369409 6.9518167337129e-05 1.16973885203722e-05 2.31686935910295e-05 6.18968763709402e-06 9.50935620309014e-06 5.90964548915058e-06 4.50097730600708e-05 5.49268239046892e-05 0.000172506730242244 0.00018571928459707 8.36633695576475e-05 7.00634062209068e-05 4.22295416241051e-05 0.000352588972313263 0.000105663920180652 0.000481568717267242 0.00103777334164192 0.000932096767730634 0.000770427901113486 -9999 -9999 -9999 -9999 -9999 -9999 -9999 -9999 -9999 -9999 -9999 -9999 -9999 -9999 0.000203705856663687 0.000195774961132222 0.000170325158262789 0.000165191867553071 0.000175787717346288 0.000254437827843764 -9999 -9999 -9999 -9999 -9999 -9999 -9999 -9999 -9999 -9999 -9999 -9999 -9999 -9999 -9999 -9999 -9999 -9999 -9999 -9999 -9999 -9999 -9999 -9999 -9999 -9999 -9999 -9999 -9999 -9999 0.000300026737677145 0.000300026737677145 0.000300026737677145 0.000300026737677145
8.8591242194929e-05 0.000100679514755873 6.61445910618129e-05 0.000104425377823837 0.000111857277208933 1.02521945171036e-05 1.71396581967554e-05 1.68965487981817e-05 1.76563005946466e-05 2.62573484230955e-05 1.12588280830551e-05 3.87986297563167e-05 0.000261567165858752 6.33810532987405e-05 6.13448844694089e-05 7.21840458844152e-05 0.00015309445587656 4.072635391113e-05 0.000161116050850045 0.00516950046080137 0.000934303221885014 0.000329372425745482 0.00135613778980338 0.00183045645867358 -9999 -9999 -9999 -9999 -9999 -9999 -9999 -9999 -9999 -9999 -9999 -9999 -9999 -9999 0.000269204720410575 0.000261042084992915 0.000262186535259912 0.000168890700421803 0.000161511244716222 0.000159579538265125 0.000190811226213467 -9999 -9999 -9999 -9999 -9999 -9999 -9999 -9999 -9999 -9999 -9999 -9999 -9999 -9999 -9999 -9999 -9999 -9999 -9999 -9999 -9999 -9999 -9999 -9999 -9999 -9999 -9999 -9999 -9999 0.000300026737677145 0.000300026737677145 0.000300026737677145 0.000300026737677145
0.000121289407078942 0.000124130725682235 6.21525373864227e-05 4.72949137493028e-06 1.98874465773079e-05 2.43872577442401e-05 2.43872577442401e-05 1.71351606491287e-05 2.43872577442401e-05 2.15918962268858e-05 1.81017798403721e-05 4.4301908675037e-05 8.23378387884281e-05 4.44278836856517e-05 1.14392348117075e-05 0.000235764686955555 6.73027602960472e-05 5.98433977126226e-05 6.61638595283996e-05 0.000102762376521238 0.000166861384939584 7.17126075553296e-05 0.000794440485276236 0.00134107194906045 0.000659150365138492 0.000986060289212405 -9999 -9999 -9999 -9999 -9999 -9999 -9999 -9999 -9999 -9999 0.000229283683670327 0.000298529046981868 0.000275358088421413 0.000216899014675151 0.000250217559489012 0.00022415788905981 0.000207209713519225 0.000187258370974279 0.000160190187118262 0.000158349637560653 -9999 -9999 -9999 -9999 -9999 -9999 -9999 -9999 -9999 -9999 -9999 -9999 -9999 -9999 -9999 -9999 -9999 -9999 -9999 -9999 -9999 -9999 -9999 -9999 -9999 -9999 -9999 -9999 0.000300026737677145 0.000300026737677145 0.000300026737677145 0.000300026737677145
0.000113634985222317 3.75288257278027e-05 2.43090213788167e-05 9.66276068100858e-06 2.43872577442401e-05 2.43872577442401e-05 2.43872577442401e-05 6.04443546482965e-06 2.43872577442401e-05 2.32158524288618e-05 1.91830107311547e-05 1.59684902207418e-05 3.30379490792662e-05 1.1698960502426e-05 8.5969239688029e-05 2.20030141028601e-05 5.33199018666098e-05 8.07818923185607e-05 0.000194105599380569 0.000255664034961533 0.000100861716766954 0.000244575355179624 0.000127923646708042 0.000787405940744278 0.000641671976419029 0.000910540332075703 -9999 -9999 -9999 -9999 -9999 -9999 0.000264484914058733 0.000254437827843764 0.000254437827843764 0.000330420936042084 0.000700487228048483 0.000300026737677145 0.000159034576151614 0.000108597435291969 0.000138286989562538 0.000152216854542921 0.000272291640279535 0.000308325419603074 0.000207930163137066 0.000215350859440805 0.000161215798346282 -9999 -9999 -9999 -9999 -9999 -9999 -9999 -9999 -9999 -9999 -9999 -9999 -9999 -9999 -9999 -9999 -9999 -9999 -9999 -9999 -9999 -9999 -9999 -9999 -9999 -9999 -9999 -9999 0.000300026737677145 0.000300026737677145 0.000300026737677145
9.76101375153002e-05 1.55989561956069e-05 1.60590651093092e-05 1.93856958127546e-05 2.43872577442401e-05 2.43872577442401e-05 2.43872577442401e-05 2.43872577442401e-05 2.43872577442401e-05 1.79127813731458e-05 2.43872577442401e-05 2.43872577442401e-05 1.97155160157139e-05 2.07594276532775e-05 1.47611655234737e-05 5.86431787697575e-05 4.80215492689756e-05 6.82276675689041e-05 0.000240210910428676 9.0230236061019e-05 0.000125270381029722 0.000314623222541688 0.000125719573313235 0.00039794631696271 0.000567395347194225 0.000792911374174335 0.00081674656948063 -9999 -9999 -9999 0.000258802899947403 0.000272867737002118 0.000248159494913438 0.000297519086909274 0.000231222752673936 0.000108120489787525 0.000103091516716773 0.00016448800167294 0.00067316940371951 8.42055545840858e-05 9.73697208487402e-05 7.48799177997736e-05 0.000196631109674221 0.000214261691875392 0.000289412315905122 0.000266823948475042 0.000192644229219779 0.000187258370974279 -9999 -9999 -9999 -9999 -9999 -9999 -9999 -9999 -9999 -9999 -9999 -9999 -9999 -9999 -9999 -9999 -9999 -9999 -9999 -9999 -9999 -9999 -9999 -9999 -9999 -9999 -9999 0.000300026737677145 0.000300026737677145 0.000300026737677145
8.53893138236083e-06 1.11961740291104e-05 2.04713711780419e-05 2.43872577442401e-05 2.43872577442401e-05 2.43872577442401e-05 2.43872577442401e-05 2.43872577442401e-05 2.43872577442401e-05 2.43872577442401e-05 2.43872577442401e-05 2.43872577442401e-05 2.43872577442401e-05 2.43872577442401e-05 2.15171663852035e-05 7.57254587485082e-06 0.000101155766484984 0.000162052958589004 0.00019282305352263 0.000110576775730319 6.79093774892456e-05 0.000512993358427924 0.000147999742818413 0.00013375071827732 0.000729211648181191 0.00104566702859119 0.00104566702859119 0.00104566702859119 0.00102319399788873 0.000893452742583529 0.000255524981813697 0.000266149352328386 0.000297413541844342 0.000160396192514618 0.000190574715774458 9.30286578673253e-05 0.000538291097964994 0.000259515360169463 0.00016653229229332 0.000140743405372477 0.000134678896140538 5.44286591655949e-05 0.000141482296194445 0.000300398606382293 0.000141651221424017 0.000256607589474063 0.000289923051149192 0.000291335430905708 0.000197053611661125 -9999 -9999 -9999 -9999 -9999 -9999 -9999 -9999 -9999 -9999 -9999 -9999 -9999 -9999 -9999 -9999 -9999 -9999 -9999 -9999 -9999 -9999 -9999 -9999 -9999 -9999 -9999 0.000300026737677145 0.000300026737677145
1.97136991175901e-05 2.08753303667161e-05 2.43872577442401e-05 0 0 0 0 2.43872577442401e-05 2.43872577442401e-05 2.43872577442401e-05 2.43872577442401e-05 2.43872577442401e-05 2.43872577442401e-05 1.71205652928197e-05 2.43872577442401e-05 1.71208196688747e-05 1.6634143263623e-05 9.3173951893117e-05 6.7224443485243e-05 0.000201729235069812 5.07022911205811e-05 0.000103721528083401 0.000170691953216715 0.000679101786830742 0.00104566702859119 0.00104566702859119 0.000796568414195793 0.00104566702859119 0.00115902850830911 0.00104566702859119 0.00028804074517159 0.000128267778382163 0.000668944718193054 0.000123131939278324 0.000245673350298914 0.000538918710461685 0.000259859014534358 0.0001894820171823 0.000114705108337577 0.000108471927496912 0.000106955324298084 5.41158404460182e-05 0.000132547294813247 0.000101823396536384 0.000244246638736773 0.000191982653512972 0.000189839174723034 0.000300026737677145 0.000179451872769749 -9999 -9999 -9999 -9999 -9999 -9999 -9999 -9999 -9999 -9999 -9999 -9999 -9999 -9999 -9999 -9999 -9999 -9999 -9999 -9999 -9999 -9999 -9999 -9999 -9999 -9999 -9999 0.000300026737677145 0.000300026737677145
0 0 0 0 0 0 0 0 0 0 0 2.43872577442401e-05 2.43872577442401e-05 2.43872577442401e-05 2.43872577442401e-05 2.33649058653069e-05 8.63173878043146e-06 1.4424533183467e-05 0.000102397540047188 0.000105928388710013 0.000105640660260625 0.000221846211124109 0.000221846210706583 0.00104566702859119 0.000163001068206579 0.000131188678255189 0.000121901415878145 0.000161934368267903 0.000953017751252068 0.00104566702859119 0.000639260788804163 0.00462709119454024 0.000221511406362599 4.89545156757368e-07 7.88058222070367e-07 6.81883102527636e-07 7.3323918392862e-05 8.34443983412764e-05 0.000176631756784779 0.00015764053561394 0.000131791525117956 0.000160944039926031 0.000127865107466232 0.000216847595755393 0.000202643880112925 0.000155476656020067 0.0001501306912286 0.000300026737677145 0.00024216602767118 0.00018271209239892 0.000247133986137078 -9999 -9999 -9999 -9999 -9999 -9999 -9999 -9999 -9999 -9999 -9999 -9999 -9999 -9999 -9999 -9999 -9999 -9999 -9999 -9999 -9999 -9999 -9999 -9999 -9999 0.000300026737677145 0.000300026737677145
0 0 0 0 0 0 0 0 0 0 0 0 2.43872577442401e-05 2.43872577442401e-05 2.43872577442401e-05 1.60935943535832e-05 1.36544573701851e-05 4.32155113964328e-06 9.61993113327554e-06 7.01651972049007e-05 9.76230525608654e-05 0.000194520694659591 0.00019433179402723 9.01364866197442e-05 0.000124589077205231 0.000112000927415367 0.00015403541439089 0.000234023385893317 0.000786586239802751 0.000619264525761232 1.40840343376405e-06 5.81268656016382e-07 1.78749313322295e-06 5.28105024898935e-07 6.37928612352711e-07 5.01358521050552e-07 3.71103600424713e-07 7.83446456714006e-07 0.0002000536772607 0.000271455442035542 0.000165386632123168 0.000171487920394293 7.32549587153497e-05 0.000139004546532895 0.000207663130010021 0.000111434025646764 0.00016871461174004 0.000129375780642452 0.000262186535259912 0.000264484914058733 0.000295604169455034 0.000277894315350439 -9999 -9999 -9999 -9999 -9999 -9999 -9999 -9999 -9999 -9999 -9999 -9999 -9999 -9999 -9999 -9999 -9999 -9999 -9999 -9999 -9999 -9999 -9999 -9999 -9999 0.000300026737677145
0 0 0 0 0 0 0 0 0 0 0 0 0 2.43872577442401e-05 2.43872577442401e-05 2.43872577442401e-05 2.43872577442401e-05 5.58858123944127e-06 6.98665504724844e-06 7.84660864197413e-06 5.11257653856329e-06 1.44277595626592e-05 8.47196196749017e-05 0.000200977226314021 0.000122651555935394 0.000127421494509175 0.000100738415326428 0.000234023385893317 0.000124543874350419 0.000201658445327889 1.39662340143757e-06 1.17279787281038e-06 9.07506058061725e-07 6.51667880610956e-07 5.50843212377998e-07 9.87635269076723e-07 4.58783846116717e-07 5.84022927774508e-07 7.83677144477664e-07 0.000296223094083906 0.000189784220854995 9.24392109579552e-05 0.000103285510668408 9.67738367699139e-05 0.000136771846424881 0.000187697458544624 0.000227049029332565 0.000137139340308668 0.00032898295433082 0.000213824648044236 0.000284456182304018 0.000266823948475042 -9999 -9999 -9999 -9999 -9999 -9999 -9999 -9999 -9999 -9999 -9999 -9999 -9999 -9999 -9999 -9999 -9999 -9999 0.000300026737677145 0.000300026737677145 -9999 -9999 -9999 -9999 -9999 0.000300026737677145
0 0 0 0 0 0 0 0 0 0 0 0 0 0 2.43872577442401e-05 2.43872577442401e-05 2.43872577442401e-05 2.43872577442401e-05 1.73585733680964e-05 2.33616827783735e-05 9.08011319052176e-06 8.0274127397355e-06 1.47309370534027e-05 8.54694565284485e-06 9.71469574023795e-05 8.52018857851127e-05 7.16009690197867e-05 6.31517701450359e-05 0.000163022798611588 0.00017411919288978 1.14309812202199e-06 7.86741647416661e-07 8.68782947348105e-07 8.29011438595012e-07 4.40386753795281e-07 6.20676690461793e-07 7.31471822384697e-07 6.58844323046396e-07 1.28897810571686e-06 0.000104615699509199 0.00011562820574307 0.000124495972896461 8.66719144646717e-05 0.000141694780230651 0.000219053202851341 0.000143989328308878 0.00020393328684782 0.000300026737677145 0.000300026737677145 0.000300026737677145 0.000292736049580708 0.000300026737677145 0.000251250022353812 -9999 -9999 -9999 -9999 -9999 -9999 -9999 -9999 -9999 -9999 -9999 -9999 -9999 -9999 -9999 -9999 -9999 -9999 0.000300026737677145 -9999 -9999 -9999 -9999 -9999 -9999
0 0 0 0 0 0 0 0 0 0 0 0 0 0 0 2.43872577442401e-05 2.43872577442401e-05 2.43872577442401e-05 2.43872577442401e-05 2.26109967627605e-05 1.56771688967675e-05 9.39556243892068e-06 7.47173103772486e-06 1.18419672979543e-05 0.000170512032696619 0.000104345886007032 6.87714353343358e-05 6.04966613977107e-05 6.58721605241073e-05 0.000159810940551535 1.13322133305077e-06 7.10089028583888e-07 1.14546451069195e-06 5.96596432617533e-07 5.40258209827045e-07 6.29246936994229e-07 4.71503719257208e-07 8.28514600793433e-07 8.76775037169758e-07 6.33610112239623e-07 5.11997537812522e-07 7.71222261579051e-05 0.000141458817328037 0.000171932717496507 0.000168459978923604 0.000196836762731941 0.00064445155416566 0.000106205571548526 0.000629152108269466 0.000160189377389188 0.000300026737677145 0.000300026737677145 0.00025231004871899 0.000203705856663687 0.000207930163137066 0.000165641237627133 -9999 -9999 -9999 -9999 -9999 -9999 -9999 -9999 -9999 -9999 -9999 -9999 -9999 -9999 -9999 -9999 0.000300026737677145 -9999 -9999 -9999 -9999 -9999
0 0 0 0 0 0 0 0 0 0 0 0 0 0 0 0 2.43872577442401e-05 2.43872577442401e-05 2.43872577442401e-05 2.43872577442401e-05 2.43872577442401e-05 2.43872577442401e-05 2.43872577442401e-05 1.34139824396379e-05 9.623375543035e-05 9.45780372698172e-05 0.000127267845343735 8.07548136409032e-05 0.000162942127585051 0.000158279953075116 1.14309808206359e-06 8.54013631245278e-07 5.85823815372047e-07 4.64479591152767e-07 4.58827301391387e-07 6.63520840713703e-07 4.37168609677266e-07 6.34665369573359e-07 9.15424768342052e-07 4.48785930380206e-07 1.19552332389386e-06 8.4385209796229e-07 0.000170062349333976 0.000115401981002797 0.000147845079244616 0.000234121199102716 0.000121743903713373 0.000108822088249712 0.000105717614983723 0.000176093602986975 0.000236906613028169 0.000300026737677145 0.000298529046981868 0.000253359888326717 0.000222504767341003 0.000160782362997407 0.000159086804111364 -9999 -9999 -9999 -9999 -9999 -9999 -9999 -9999 -9999 -9999 -9999 -9999 -9999 -9999 -9999 -9999 -9999 -9999 -9999 -9999 -9999
0 0 0 0 0 0 0 0 0 0 0 0 0 0 0 0 2.43872577442401e-05 2.43872577442401e-05 2.43872577442401e-05 2.43872577442401e-05 2.43872577442401e-05 2.43872577442401e-05 2.43872577442401e-05 1.70911306064559e-05 6.02870909597002e-06 1.78772711308987e-05 1.45570612100505e-05 7.41300835624629e-05 9.67009012019762e-05 0.000173102422607037 6.51515675179048e-07 1.11750312359781e-06 8.68695908848274e-07 5.71589856849798e-07 4.99559079480142e-07 6.26355307846262e-07 4.25578124720245e-07 6.92862511853417e-07 7.41727508714528e-07 8.51421001519201e-07 9.45285344943614e-07 1.01678620088795e-06 1.23066914254816e-06 0.000231995499982325 0.000250614824302876 0.000228656791383999 0.000216806611645986 0.00025992642032754 7.24789122153612e-05 0.000104816033374804 0.000208277908296385 0.000300026737677145 0.000300026737677145 0.000300026737677145 0.000283109561415243 0.000188427867736322 0.000172270206852795 -9999 -9999 -9999 -9999 -9999 -9999 -9999 -9999 -9999 -9999 -9999 -9999 -9999 -9999 -9999 -9999 -9999 -9999 -9999 -9999 -9999
0 0 0 0 0 0 0 0 0 0 0 0 0 0 0 0 2.43872577442401e-05 2.43872577442401e-05 2.43872577442401e-05 2.43872577442401e-05 2.43872577442401e-05 2.43872577442401e-05 2.43872577442401e-05 2.43872577442401e-05 2.66391420026668e-05 1.21098394249291e-05 1.18559944024156e-05 9.37752568057688e-06 6.7014683408545e-05 0.000143764717548697 5.28139172381183e-07 7.51570345363685e-07 9.83526218672902e-07 7.0887445727378e-07 6.36871582484133e-07 5.33551442630842e-07 5.82730421259815e-07 1.00681819716622e-06 5.87103257947458e-07 4.98203931408078e-07 1.19356724857139e-06 1.14685723841928e-06 9.12208688204268e-07 7.97880085868367e-07 0.000295005036215707 0.000170048361785033 0.000127905791557602 0.000241680018105824 0.000300026737677145 0.0002550157547793 0.000117830615384841 0.000244425297616066 0.000300026737677145 0.000288549158463075 0.000165641237627133 0.000158860411786569 0.000158267320464301 0.000159511133861434 -9999 -9999 -9999 -9999 -9999 -9999 -9999 -9999 -9999 -9999 -9999 -9999 -9999 -9999 -9999 -9999 -9999 -9999 -9999 -9999
0 0 0 0 0 0 0 0 0 0 0 0 0 0 0 0 0 2.43872577442401e-05 2.43872577442401e-05 2.43872577442401e-05 2.43872577442401e-05 2.43872577442401e-05 2.43872577442401e-05 2.0728599570062e-05 2.18969690886535e-05 3.02721351672177e-05 1.08599926095726e-05 1.11794105515207e-05 9.14193905790992e-06 1.62128668851325e-05 1.07483935788611e-06 6.92280276667061e-07 6.18326129292074e-07 1.04780000034336e-06 1.18370234878156e-06 7.78424436780679e-07 6.43825501320451e-07 7.96177822930224e-07 7.13536184572804e-07 1.18081926108659e-06 9.17956091424759e-07 4.28298939175824e-07 4.3450017593695e-07 8.63289515343648e-07 0.000131414728113517 9.94954701029396e-05 0.00012343584539509 0.000187449790911214 0.0002325501263665 0.000153864178241397 0.0003227659849299 0.000300026737677145 0.000162406495741072 0.000283109561415243 0.000166655102956902 0.00015947315373122 0.000158304728336069 0.000158672244635401 -9999 -9999 -9999 -9999 -9999 -9999 -9999 -9999 -9999 -9999 -9999 -9999 -9999 -9999 -9999 -9999 -9999 -9999 -9999 0.000300026737677145
0 0 0 0 0 0 0 0 0 0 0 0 0 0 0 0 0 0 2.43872577442401e-05 2.43872577442401e-05 2.43872577442401e-05 2.43872577442401e-05 2.43872577442401e-05 1.96774366693838e-05 1.87278996192293e-05 1.96755233013177e-05 2.43872577442401e-05 1.59118995212309e-05 1.42830833992428e-05 1.02121699855587e-05 1.11609492948883e-06 8.91544588704603e-07 1.0536837063803e-06 1.28297511618635e-06 1.03957595739308e-06 6.29030935963167e-07 6.2911350698488e-07 6.61727960067889e-07 1.21207231291674e-06 8.34944019089589e-07 4.73872653885023e-07 6.09607089559763e-07 9.07753708242514e-07 7.8217409618552e-07 1.57880279150708e-06 0.000121429835151996 0.00013224082585433 0.000170283005809977 0.000287990340455297 0.000172765769202384 0.000240474288318271 0.000300026737677145 0.000186781643732726 0.000283109561415243 0.000168686535311157 0.000159769864752329 0.000158319693759952 0.000158252364939653 -9999 -9999 -9999 -9999 -9999 -9999 -9999 -9999 -9999 -9999 -9999 -9999 -9999 -9999 -9999 -9999 -9999 -9999 -9999 -9999
0 0 0 0 0 0 0 0 0 0 0 0 0 0 0 0 0 0 2.43872577442401e-05 2.43872577442401e-05 2.43872577442401e-05 2.43872577442401e-05 2.43872577442401e-05 2.43872577442401e-05 2.43872577442401e-05 2.43872577442401e-05 2.43872577442401e-05 2.43872577442401e-05 1.55525051389846e-05 2.0532629512876e-05 7.90603713429452e-08 7.50847896958571e-07 1.57880279150708e-06 1.45848641569775e-06 1.05427343648574e-06 8.82177261556733e-07 7.42244606634573e-07 3.68404357236566e-07 1.15637861501307e-06 1.20322311579559e-06 8.0277184945502e-07 6.39365009314787e-07 8.32047068119225e-07 7.37020020844862e-07 4.38617665538999e-07 8.63051653794836e-07 0.000214010402234187 0.00015963682548567 0.000310299774263215 0.000300026737677145 0.000238696837714996 0.000134003574470373 0.000208879266372615 0.000283109561415243 0.000168763037455169 0.000159571933368106 0.000158304728336069 0.000158252364939653 -9999 -9999 -9999 -9999 -9999 -9999 -9999 -9999 -9999 -9999 -9999 -9999 -9999 -9999 -9999 -9999 -9999 -9999 -9999 -9999
0 0 0 0 0 0 0 0 0 0 0 0 0 0 0 0 0 0 0 2.43872577442401e-05 2.43872577442401e-05 2.43872577442401e-05 2.43872577442401e-05 2.43872577442401e-05 2.43872577442401e-05 2.43872577442401e-05 2.43872577442401e-05 2.43872577442401e-05 2.0720849582621e-05 5.54180714946562e-06 1.12880835941612e-07 1.57880279150708e-06 1.57880279150708e-06 1.30032192244769e-06 1.02547507838558e-06 1.16525114372843e-06 1.17361117402549e-06 8.05764844436228e-07 1.04111439457715e-06 6.86406638217914e-07 9.86639617902803e-07 8.77159959610525e-07 6.36480661938993e-07 9.71736524096464e-07 5.03166884131389e-07 1.46114546904897e-06 0.000186653299625877 0.000208006039070757 0.000146367888781565 0.000150713740212581 0.000300026737677145 0.00024532399845775 0.000240657366587867 0.000284456182304018 0.000169850051184772 0.00015973938146675 0.000158312212924653 0.000158252364939653 -9999 -9999 -9999 -9999 -9999 -9999 -9999 -9999 -9999 -9999 -9999 -9999 -9999 -9999 -9999 -9999 -9999 -9999 -9999 -9999
0 0 0 0 0 0 0 0 0 0 0 0 0 0 0 0 0 0 0 0 0 2.43872577442401e-05 2.43872577442401e-05 2.43872577442401e-05 2.43872577442401e-05 2.43872577442401e-05 2.43872577442401e-05 2.43872577442401e-05 1.23475382660631e-05 1.4123802694742e-05 1.41384504293379e-07 1.12132353709666e-07 1.00573305384381e-07 1.61098476604725e-07 1.10468735624908e-07 1.58149347137639e-06 8.60353678175986e-07 9.46886935517204e-07 8.08527301518014e-07 5.85285930182345e-07 9.23393129453154e-07 4.69442965440378e-07 1.1160873473983e-06 6.63115226210035e-07 7.12228098715818e-07 5.18562737419872e-07 7.64047645501566e-07 0.000162946288641325 0.000155125780316063 0.000267605122496481 0.000300026737677145 0.000186657073255461 0.000300026737677145 0.000300026737677145 0.000173844082146178 0.000160712923740579 0.000158357126396522 0.000159086804111364 -9999 -9999 -9999 -9999 -9999 -9999 -9999 -9999 -9999 -9999 -9999 -9999 -9999 -9999 -9999 -9999 -9999 -9999 -9999 -9999
0 0 0 0 0 0 0 0 0 0 0 0 0 0 0 0 0 0 0 0 0 0 2.43872577442401e-05 2.43872577442401e-05 2.43872577442401e-05 2.43872577442401e-05 2.43872577442401e-05 2.43872577442401e-05 2.27453806667303e-05 1.21912328930872e-05 3.49308920194699e-06 1.38823490929711e-07 9.01930896203606e-08 1.50673124928174e-07 1.61098476604725e-07 6.99485299929122e-08 1.58147781798989e-06 8.02088757513889e-07 1.4896685781185e-06 8.64692351492918e-07 8.88353753723357e-07 7.94788987181521e-07 6.81266794643959e-07 1.14340217854071e-06 6.65734255092039e-07 9.73821834004294e-07 7.48692486564761e-07 7.18131302800338e-07 0.000132853672138731 0.000147428920667345 0.000163056026660483 0.000193970750947598 0.000184578466701947 0.000300026737677145 0.000178191508727434 0.000160805522752773 0.000158342153895377 -9999 -9999 -9999 -9999 -9999 -9999 -9999 -9999 -9999 -9999 -9999 -9999 -9999 -9999 -9999 -9999 -9999 -9999 -9999 -9999 -9999
0 0 0 0 0 0 0 0 0 0 0 0 0 0 0 0 0 0 0 0 0 0 0 0 2.43872577442401e-05 2.43872577442401e-05 2.43872577442401e-05 2.43872577442401e-05 2.43872577442401e-05 1.68119641355169e-05 1.19900665491781e-07 9.95666285456345e-08 9.39901710683249e-08 7.35911322640432e-08 1.61098476604725e-07 1.47749364828934e-07 9.22151359383095e-07 8.58389622770029e-07 8.3791799101768e-07 1.57880279150708e-06 5.16701669043866e-07 9.81656176034226e-07 1.11552732197394e-06 1.5193168722448e-06 8.70634056464121e-07 1.35590000764881e-06 6.26430728121801e-07 7.40300597543329e-07 0.000124556914017502 0.000158154703090678 0.000139628076296549 0.000215781665448678 0.000300026737677145 0.00177908224884816 0.000234632943723801 0.000166563926799164 0.000158289765741181 -9999 -9999 -9999 -9999 -9999 -9999 -9999 -9999 -9999 -9999 -9999 -9999 -9999 -9999 -9999 -9999 -9999 -9999 -9999 -9999 -9999
0 0 0 0 0 0 0 0 0 0 0 0 0 0 0 0 0 0 0 0 0 0 0 0 0 2.43872577442401e-05 2.43872577442401e-05 2.43872577442401e-05 2.43872577442401e-05 2.43872577442401e-05 1.61098476604725e-07 1.61098476604725e-07 1.12772692891796e-07 8.88906614183877e-08 8.30326074688546e-08 1.61098476604725e-07 1.12697116132291e-07 1.03878351251572e-06 8.18980792324621e-07 3.60409895692207e-07 9.46967094785838e-07 6.17252973765923e-07 1.09200040836204e-06 9.73042043477256e-07 7.12636661139605e-07 6.49777655665231e-07 1.11300087487011e-06 1.09203758583556e-06 0.00011336744144237 0.000300026737677145 0.000300026737677145 0.000300026737677145 0.000224619555453959 0.000220245396163142 0.000300026737677145 0.000169841435913409 0.000175787717346288 -9999 -9999 -9999 -9999 -9999 -9999 -9999 -9999 -9999 -9999 -9999 -9999 -9999 -9999 -9999 -9999 -9999 -9999 -9999 -9999 -9999
0 0 0 0 0 0 0 0 0 0 0 0 0 0 0 0 0 0 0 0 0 0 0 0 0 0 0 0 2.43872577442401e-05 2.43872577442401e-05 1.61098476604725e-07 1.12755071687307e-07 4.95869402596979e-08 7.35559495001643e-08 7.72894257589229e-08 1.34687344307274e-07 8.60165247884281e-08 1.61098476604725e-07 1.57880279150708e-06 1.07252680353598e-06 6.38867066966382e-07 1.17268611354521e-06 4.97422876919703e-07 1.09454921735803e-06 7.79653105918548e-07 6.56522940114283e-07 1.00500964202519e-06 1.00946795954655e-06 1.11274487600673e-06 1.39541888717203e-06 0.000300026737677145 0.00019908302742228 0.0001297754732178 0.000300026737677145 0.000300026737677145 0.000249175008939599 -9999 -9999 -9999 -9999 -9999 -9999 -9999 -9999 -9999 -9999 -9999 -9999 -9999 -9999 -9999 -9999 -9999 -9999 -9999 -9999 -9999 -9999
0 0 0 0 0 0 0 0 0 0 0 0 0 0 0 0 0 0 0 0 0 0 0 0 0 0 0 0 2.43872577442401e-05 1.61098476604725e-07 1.61098476604725e-07 1.61098476604725e-07 8.50267665066307e-08 6.25103996703087e-08 1.36186637339825e-07 1.61098476604725e-07 1.17953105087812e-07 1.53659254269208e-07 1.11118011148393e-06 1.11403160619962e-06 1.2436505326155e-06 6.45454076414466e-07 9.83568091018718e-07 8.14047070966909e-07 6.0706762641425e-07 7.76165815013277e-07 5.027537215696e-07 8.66715605866908e-07 1.57880279150708e-06 1.19268587554528e-06 0.000300026737677145 0.000210482367478341 0.000218551839319074 0.000464988282774979 0.000224280304792012 0.00029707258409853 -9999 -9999 -9999 -9999 -9999 -9999 -9999 -9999 -9999 -9999 -9999 -9999 -9999 -9999 -9999 -9999 -9999 -9999 -9999 -9999 -9999 -9999
0 0 0 0 0 0 0 0 0 0 0 0 0 0 0 0 0 0 0 0 0 0 0 0 0 0 0 0 0 1.61098476604725e-07 1.61098476604725e-07 1.61098476604725e-07 1.12713572123265e-07 1.61098476604725e-07 9.69102504544927e-08 4.15589706005015e-08 8.21801946299706e-08 7.71921259822137e-08 1.02050431332214e-07 8.93056411744513e-07 5.30099859435851e-07 8.66765640223972e-07 1.57880279150708e-06 1.45787958361833e-06 4.61641548092798e-07 5.1710133815388e-07 6.27648824448875e-07 1.58136069648272e-06 7.10156013985192e-07 8.11390438149497e-07 4.41253412368654e-07 0.000124613906711823 8.37484349249068e-05 0.00268690580235995 4.91909697626823e-05 0.000289923051149192 -9999 -9999 0.000250217559489012 0.000249175008939599 -9999 -9999 -9999 -9999 -9999 -9999 -9999 -9999 -9999 -9999 -9999 -9999 -9999 -9999 -9999 -9999 -9999 -9999
0 0 0 0 0 0 0 0 0 0 0 0 0 0 0 0 0 0 0 0 0 0 0 0 0 0 0 0 0 0 1.61098476604725e-07 1.61098476604725e-07 1.61098476604725e-07 1.61098476604725e-07 1.61098476604725e-07 5.48755652696167e-08 6.45111410234776e-08 6.63068451940389e-08 1.12667532262639e-07 2.67096612521885e-07 1.75644224338314e-07 6.3943480514903e-07 4.45000421532342e-07 6.51392925795886e-07 4.35442746378192e-07 5.81062154926176e-07 6.5802564847027e-07 1.3799899431268e-06 1.38000678877987e-06 7.79018442584817e-07 3.78536453321711e-07 0.000109037890178507 8.74777792393576e-05 0.000737835607525662 9.57992125918651e-05 0.000268019770346709 -9999 -9999 0.000221694657480389 0.000246135009720041 0.000258802899947403 -9999 -9999 -9999 -9999 -9999 -9999 -9999 -9999 -9999 -9999 -9999 -9999 -9999 -9999 -9999 -9999 -9999
0 0 0 0 0 0 0 0 0 0 0 0 0 0 0 0 0 0 0 0 0 0 0 0 0 0 0 0 0 0 0 1.61098476604725e-07 1.61098476604725e-07 1.61098476604725e-07 1.61098476604725e-07 5.34184482671073e-08 5.96013777336882e-08 7.48802973621974e-08 6.81642383733986e-08 3.295565384141e-08 1.27035678256334e-07 1.57880279150708e-06 8.41128553693597e-07 1.05149878507757e-06 6.40589302515072e-07 6.08329638436544e-07 5.84989270942435e-07 6.23545438239179e-07 4.88321191865122e-07 1.04283120579876e-06 5.14855278477066e-06 6.39886074651923e-07 7.57875977148493e-05 6.37079639691555e-05 6.89959701652885e-05 0.000372183270857189 0.000230150314417986 -9999 -9999 0.000275358088421413 0.000248159494913438 -9999 -9999 -9999 -9999 -9999 -9999 -9999 -9999 -9999 -9999 -9999 -9999 -9999 -9999 -9999 -9999 -9999
0 0 0 0 0 0 0 0 0 0 0 0 0 0 0 0 0 0 0 0 0 0 0 0 0 0 0 0 0 0 0 1.61098476604725e-07 1.61098476604725e-07 1.61098476604725e-07 1.61098476604725e-07 6.79108705701937e-08 5.98897070154146e-08 1.21646474670535e-07 8.17319144283383e-08 1.81186198226799e-08 1.83001429109988e-08 5.7430725254524e-07 6.26990482411467e-07 1.03666989752115e-06 6.79629374535694e-07 5.15588659069064e-07 6.0646030213242e-07 3.04353011977624e-07 5.36038007181125e-07 6.80393926789068e-07 2.78042476283215e-05 1.57880279150708e-06 0.000180045898073988 6.45813286284317e-05 0.00150948798174002 0.000175645682849777 0.000295604169455034 0.000184392112319924 0.000222504767341003 0.00024216602767118 -9999 -9999 -9999 -9999 -9999 -9999 -9999 -9999 -9999 -9999 -9999 -9999 -9999 -9999 -9999 -9999 -9999 -9999
0 0 0 0 0 0 0 0 0 0 0 0 0 0 0 0 0 0 0 0 0 0 0 0 0 0 0 0 0 0 0 1.61098476604725e-07 1.61098476604725e-07 1.61098476604725e-07 6.6197369856339e-08 2.73932535103919e-08 6.35149277803501e-08 6.04389124396324e-08 5.46763535267867e-08 7.21988935984499e-08 9.36039318945851e-08 9.21824068934984e-07 1.05569922995032e-06 6.98965531526425e-07 1.02023804193685e-06 1.08641445241867e-06 6.95525896196274e-07 9.95102711714214e-07 8.84327638228021e-07 1.48886086477154e-06 1.09868280413015e-06 4.01555082107e-07 8.25997578204628e-05 9.09747033897245e-05 6.95496914946649e-05 8.36755784349738e-05 0.000292736049580708 0.000207209713519225 0.000263320358538834 0.000243150638580052 -9999 -9999 -9999 -9999 -9999 -9999 -9999 -9999 -9999 -9999 -9999 -9999 -9999 -9999 -9999 -9999 -9999 -9999
0 0 0 0 0 0 0 0 0 0 0 0 0 0 0 0 0 0 0 0 0 0 0 0 0 0 0 0 0 0 0 1.61098476604725e-07 1.61098476604725e-07 1.61098476604725e-07 8.57472714044383e-08 4.99398816369739e-08 1.17023078359628e-07 8.37808093361616e-08 8.38895149652629e-08 2.80330470914031e-06 4.88794765491232e-08 5.47450909412444e-08 5.96229378118179e-07 3.57366444680433e-07 6.57965770598242e-05 8.12429548049457e-07 1.06576756518728e-06 7.25366654753976e-07 6.42187301614538e-07 5.21389310194587e-07 7.56178201789263e-07 1.33051164120708e-06 0.00276539385533353 0.000552359530142999 0.000293421103232992 0.00500517271140592 0.00100404263540266 0.000231039461786414 0.000189612057771222 -9999 -9999 -9999 -9999 -9999 -9999 -9999 -9999 -9999 -9999 -9999 -9999 -9999 -9999 -9999 -9999 -9999 -9999 -9999
0 0 0 0 0 0 0 0 0 0 0 0 0 0 0 0 0 0 0 0 0 0 0 0 0 0 0 0 0 0 0 0 1.61098476604725e-07 1.61098476604725e-07 7.60186883740189e-08 7.84299261521579e-08 5.29322110812981e-08 5.61476568452538e-08 5.99628968420671e-08 2.94218015147424e-08 7.26155600673698e-08 5.99841344230312e-08 5.25806378962078e-08 4.51256707867585e-07 7.59698350364695e-07 1.11216309107618e-06 9.21089933627684e-07 1.11286081476149e-06 9.38974986923353e-07 4.76776212164793e-07 2.54637340623582e-06 1.57880279150708e-06 3.95527881148963e-07 0.000105990509853736 0.0001061032609266 6.77189377155424e-05 0.000590167662913668 0.000231039461786414 -9999 -9999 -9999 -9999 -9999 -9999 -9999 -9999 -9999 -9999 -9999 -9999 -9999 -9999 -9999 -9999 -9999 -9999 -9999 -9999
0 0 0 0 0 0 0 0 0 0 0 0 0 0 0 0 0 0 0 0 0 0 0 0 0 0 0 0 0 0 0 0 1.61098476604725e-07 1.61098476604725e-07 1.34931613504278e-07 8.95162497007527e-08 3.82196632574323e-08 5.09701874064665e-08 6.74039963543932e-08 7.85859116657036e-08 4.75168839984508e-08 5.92823978835491e-08 8.86474261334941e-08 6.78469027886562e-08 7.00116437274587e-07 3.67959329683852e-07 7.00156935595454e-07 7.45439938284397e-07 4.33996322287961e-07 8.67086252364727e-07 9.8530123545924e-07 8.16998669846146e-07 1.57880279150708e-06 0.000300026737677145 0.000300026737677145 0.000183883260989464 0.000146925677353118 0.000197336776656743 0.000222504767341003 -9999 -9999 -9999 -9999 -9999 -9999 -9999 -9999 -9999 -9999 -9999 -9999 -9999 -9999 -9999 -9999 -9999 -9999 -9999
0 0 0 0 0 0 0 0 0 0 0 0 0 0 0 0 0 0 0 0 0 0 0 0 0 0 0 0 0 0 0 0 1.61098476604725e-07 1.61098476604725e-07 9.31599506202887e-08 9.25136968028534e-08 9.19089139732558e-08 9.2713781782508e-08 1.3945823470447e-07 1.27685496974061e-07 7.75102552995144e-08 1.29876297488542e-07 4.92390713414227e-08 1.03261132284448e-07 9.20577910879271e-07 5.2885775456661e-07 5.08368803095283e-07 5.1701236571857e-07 6.72983670648697e-07 3.98106309912521e-07 3.08592194174651e-07 4.19242934623259e-07 1.10114124644309e-06 1.57880279150708e-06 0.000433374167602781 0.000300026737677145 0.000215106626337858 0.000664797341538124 0.00029707258409853 0.000231919441562744 -9999 -9999 -9999 -9999 -9999 -9999 -9999 -9999 -9999 -9999 -9999 -9999 -9999 -9999 -9999 -9999 -9999 -9999
0 0 0 0 0 0 0 0 0 0 0 0 0 0 0 0 0 0 0 0 0 0 0 0 0 0 0 0 0 0 0 0 1.61098476604725e-07 1.61098476604725e-07 1.61098476604725e-07 1.61098476604725e-07 1.12394337447925e-07 1.25348009741936e-07 1.61098476604725e-07 1.47609585730756e-07 9.38217699788548e-08 4.99711811039132e-08 3.73248090089661e-08 5.26580240380169e-08 4.0677897640176e-07 6.92726398437762e-07 4.31365292934252e-07 4.49770465818839e-07 4.58792299823979e-07 7.107672776551e-07 7.138213787943e-07 5.58037694146006e-07 8.85215382967878e-07 1.11091343619934e-06 0.000227207974333644 0.000168853883229737 0.000253830350548492 0.000540241900028757 0.000205935498499121 0.000262186535259912 -9999 -9999 -9999 -9999 -9999 -9999 -9999 -9999 -9999 -9999 -9999 -9999 -9999 -9999 -9999 -9999 -9999 -9999
0 0 0 0 0 0 0 0 0 0 0 0 0 0 0 0 0 0 0 0 0 0 0 0 0 0 0 0 0 0 0 0 1.61098476604725e-07 1.61098476604725e-07 1.61098476604725e-07 8.00813582232792e-08 8.6617634598999e-08 1.01580397844949e-07 1.12442781294049e-07 1.61098476604725e-07 7.38161845841854e-08 8.40394073746613e-08 6.200203733837e-08 6.32888228641153e-08 4.26825736052994e-07 5.34618219057512e-07 6.38326739433341e-07 6.02059509511494e-07 4.38078664284263e-07 4.44497596891831e-07 1.28349587715062e-06 4.57608549174019e-07 5.60409618630198e-07 7.22323023256842e-07 1.16373070598317e-06 0.00011385598927271 0.000158068959899035 0.000210878743359752 0.000238190561706624 0.000413568347936378 -9999 -9999 -9999 -9999 -9999 -9999 -9999 -9999 -9999 -9999 -9999 -9999 -9999 -9999 -9999 -9999 -9999 -9999
0 0 0 0 0 0 0 0 0 0 0 0 0 0 0 0 0 0 0 0 0 0 0 0 0 0 0 0 0 0 0 0 1.61098476604725e-07 1.61098476604725e-07 1.61098476604725e-07 1.61098476604725e-07 1.39414966230176e-07 5.05221723848552e-08 1.12418206525566e-07 6.66583009114037e-08 8.27468316988445e-08 5.79517963698104e-08 6.62505744495961e-08 7.84039825898507e-08 6.05110529977625e-07 5.80142550157238e-07 8.01127491123305e-07 3.80669287142154e-07 4.30797531982123e-07 6.22989347413533e-07 5.25117074920841e-07 1.57880279150708e-06 8.13093534909456e-07 8.9742911536482e-07 5.561933843765e-07 9.19666047340514e-07 0.000292614812911831 0.000278669723936272 0.000433342756893543 0.000433379898511756 0.000187820839356402 -9999 -9999 -9999 -9999 -9999 -9999 -9999 -9999 -9999 -9999 -9999 -9999 -9999 -9999 -9999 -9999 -9999
0 0 0 0 0 0 0 0 0 0 0 0 0 0 0 0 0 0 0 0 0 0 0 0 0 0 0 0 0 0 0 0 1.61098476604725e-07 1.61098476604725e-07 3.57295641483639e-07 3.57295641483639e-07 2.46072451706586e-07 3.50859971299265e-07 2.25883626179251e-07 2.74860904475676e-07 2.46139062548646e-07 2.45844186382303e-07 2.42438717023994e-07 1.091494300976e-07 2.0351369141287e-07 1.79168582582004e-07 3.85755853534578e-07 1.81398183278028e-07 3.77461544004203e-07 2.47381841055798e-07 2.79471660866625e-07 2.42160275765363e-07 2.94064432813965e-07 1.87500666873412e-07 3.32160970674002e-07 3.82091662900481e-07 0.000154867053726823 0.000233704173309637 0.000277912227925917 7.94366832060558e-05 0.00167724903722382 -9999 -9999 -9999 -9999 -9999 -9999 -9999 -9999 -9999 -9999 -9999 -9999 -9999 -9999 -9999 -9999 -9999
0 0 0 0 0 0 0 0 0 0 0 0 0 0 0 0 0 0 0 0 0 0 0 0 0 0 0 0 0 0 0 0 3.57295641483639e-07 3.57295641483639e-07 3.57295641483639e-07 3.57295641483639e-07 9.76360841578106e-08 3.43549917666243e-07 3.57295641483639e-07 2.45976222971657e-07 3.57295641483639e-07 2.4610556890516e-07 1.73318057462812e-07 2.29693178363765e-07 1.28154175025796e-07 1.05493735101788e-07 2.33075446578804e-07 2.94255165803123e-07 2.23172705885852e-07 2.91928911493526e-07 2.97343910463686e-07 3.99636598705176e-07 2.97964642223012e-07 1.10273577195724e-07 1.84158106684039e-05 5.50836421744675e-07 7.27636542516506e-07 8.45768545591934e-05 9.69855336449561e-05 0.000156788482516703 0.000241115753223917 0.000186849827108826 -9999 -9999 0.000171871321367902 -9999 -9999 -9999 -9999 -9999 -9999 -9999 -9999 -9999 -9999 -9999 -9999 -9999
0 0 0 0 0 0 0 0 0 0 0 0 0 0 0 0 0 0 0 0 0 0 0 0 0 0 0 0 0 0 0 0 3.57295641483639e-07 3.57295641483639e-07 3.57295641483639e-07 3.57295641483639e-07 1.26104247098116e-07 1.70943952039526e-07 2.94353725597449e-07 2.45983141554672e-07 3.57295641483639e-07 2.46028800925934e-07 2.08482716599618e-07 1.16929470260758e-07 1.02401630489952e-07 1.17407861668753e-07 1.19367866921038e-07 2.89278743115359e-07 2.58145297636208e-07 2.35727351775888e-07 2.43328731498145e-07 2.01446213678339e-07 3.2058885184367e-06 1.52180858049767e-07 2.3311482567515e-07 3.78355518648287e-07 3.05070953846712e-07 0.000199110461869711 0.000138611304594235 0.00107364734163345 0.00016059642324773 0.000119635035864242 0.000157054090606211 0.000114938623388376 0.000173506792990515 -9999 -9999 -9999 -9999 -9999 -9999 -9999 -9999 -9999 -9999 -9999 -9999 -9999
0 0 0 0 0 0 0 0 0 0 0 0 0 0 0 0 0 0 0 0 0 0 0 0 0 0 0 0 0 0 0 0 3.57295641483639e-07 3.57295641483639e-07 3.57295641483639e-07 3.57295641483639e-07 3.57295641483639e-07 2.74380320406375e-07 3.57295641483639e-07 3.57295641483639e-07 2.45949076914225e-07 2.74706206877122e-07 1.17608764017857e-07 1.43098626359429e-07 1.69589942255355e-07 9.66551829625827e-08 1.41961731610684e-07 3.29146235502322e-07 2.31874308233289e-07 2.24578593111943e-07 3.7554532070416e-07 2.55528169649319e-07 2.28100816000993e-07 1.38604634131285e-07 1.32508010920922e-07 3.40835395289156e-07 7.27636542516506e-07 3.98053585382312e-07 0.000130140982131092 0.000135546656064518 0.000124450765784918 0.000200182110228757 0.000192794586844564 0.00013200854018519 0.000144012770243845 -9999 -9999 -9999 -9999 -9999 -9999 -9999 -9999 -9999 -9999 -9999 -9999 -9999
0 0 0 0 0 0 0 0 0 0 0 0 0 0 0 0 0 0 0 0 0 0 0 0 0 0 0 0 0 0 0 0 0 3.57295641483639e-07 3.57295641483639e-07 3.57295641483639e-07 3.57295641483639e-07 2.35104206475631e-07 2.57288522053566e-07 2.45551947696544e-07 3.57295641483639e-07 2.38762409597927e-07 2.28787301222314e-07 3.11051950471969e-07 3.11050100522402e-07 3.57295641483639e-07 1.87139521691088e-07 3.8153611778651e-07 6.47211684464755e-07 4.66711304579802e-07 2.8429071114897e-07 2.84533113008017e-07 4.46085289107528e-07 1.98153790932962e-07 1.41404939087369e-07 2.36040020353664e-07 5.14154863930813e-07 4.32465764453908e-07 9.56754949334852e-05 0.000143624188026189 0.00071727753427683 0.000125405753222105 0.000199110461869711 0.000115298749914088 -9999 -9999 -9999 -9999 -9999 -9999 -9999 -9999 -9999 -9999 -9999 -9999 -9999 -9999
0 0 0 0 0 0 0 0 0 0 0 0 0 0 0 0 0 0 0 0 0 0 0 0 0 0 0 0 0 0 0 0 0 3.57295641483639e-07 3.57295641483639e-07 3.57295641483639e-07 3.57295641483639e-07 3.57295641483639e-07 2.45659304088506e-07 3.57295641483639e-07 3.57295641483639e-07 3.57295641483639e-07 3.29769413032815e-07 2.0328334876969e-07 1.61034552597943e-05 1.32164465225709e-07 2.89148606160394e-07 2.05835803064432e-07 6.73185594066289e-07 5.33612354074621e-07 6.86984720163352e-07 2.56607654029253e-07 2.71412314435208e-07 2.47548040314645e-07 3.49535193065316e-07 2.30570739632175e-07 3.10451535784521e-07 3.80246723896576e-07 0.000199110461869711 0.000199110461869711 0.000152765196215034 0.000151336668529556 0.000416237340217247 0.000151188152403074 -9999 -9999 -9999 -9999 -9999 -9999 -9999 -9999 -9999 -9999 -9999 -9999 -9999 -9999
0 0 0 0 0 0 0 0 0 0 0 0 0 0 0 0 0 0 0 0 0 0 0 0 0 0 0 0 0 0 0 0 0 3.57295641483639e-07 3.57295641483639e-07 3.57295641483639e-07 3.57295641483639e-07 3.57295641483639e-07 3.57295641483639e-07 3.57295641483639e-07 3.57295641483639e-07 3.57295641483639e-07 2.77468826972134e-07 1.51093195326174e-07 1.08958211785043e-07 9.7176117272051e-08 3.1701520165679e-07 2.89112522231892e-07 4.09320455466661e-07 5.42138134714194e-07 3.15330532110964e-07 3.12829193493119e-07 2.27183425039633e-07 2.60029461853217e-07 2.39694112928374e-07 2.23271225297644e-07 4.25070613359598e-07 7.27636542516506e-07 7.27636542516506e-07 0.000199110461869711 7.84652485915199e-05 3.10832800655955e-05 0.000226305683120509 0.000185905876733259 0.00013200854018519 0.000131059697304133 0.000166375375323718 0.000170266393685489 -9999 -9999 -9999 -9999 -9999 -9999 -9999 -9999 -9999 -9999
0 0 0 0 0 0 0 0 0 0 0 0 0 0 0 0 0 0 0 0 0 0 0 0 0 0 0 0 0 0 0 0 0 3.57295641483639e-07 3.57295641483639e-07 3.57295641483639e-07 3.57295641483639e-07 3.57295641483639e-07 3.57295641483639e-07 2.49369650297935e-07 3.50809435402476e-07 2.45732466600844e-07 3.45823730012943e-07 2.33788869174543e-07 8.52873879774132e-08 7.08131129518646e-08 1.15690500940745e-07 1.01407790392922e-07 6.47022874217686e-07 5.50492640828103e-05 4.68556822791131e-07 2.77006101811387e-07 3.09294238746741e-07 3.10640762160873e-07 1.34714739123077e-07 1.84393194084289e-07 4.15137785600011e-07 4.53311447931212e-07 5.01376666155943e-07 7.27636542516506e-07 0.000147104817451778 0.000362379761837593 0.000223891729762068 0.000199110461869711 0.000313678428899477 0.000199110461869711 0.000199110461869711 0.000145744620594713 -9999 -9999 -9999 -9999 -9999 -9999 -9999 -9999 -9999 -9999
0 0 0 0 0 0 0 0 0 0 0 0 0 0 0 0 0 0 0 0 0 0 0 0 0 0 0 0 0 0 0 0 0 0 3.57295641483639e-07 3.57295641483639e-07 3.57295641483639e-07 3.57295641483639e-07 3.57295641483639e-07 3.57295641483639e-07 2.45392654770016e-07 3.57295641483639e-07 3.57295641483639e-07 2.53154990250106e-07 1.02863708395607e-07 9.714725351946e-08 1.64393364223195e-07 1.21665625707965e-07 4.14172346540721e-07 2.97319876274005e-07 3.28511281997046e-07 4.52716460818332e-07 3.33415100432058e-07 5.64979879689055e-07 1.82120660889715e-07 1.27871150731336e-07 3.26404265942365e-07 4.14190076051939e-07 7.27636542516506e-07 0.000199110461869711 0.000199110461869711 0.000199110461869711 0.000137867004883458 0.000592122448675537 0.000128693020700058 0.00031367827913974 0.000199110461869711 0.000198019547859713 -9999 -9999 -9999 -9999 -9999 -9999 -9999 -9999 -9999 -9999
0 0 0 0 0 0 0 0 0 0 0 0 0 0 0 0 0 0 0 0 0 0 0 0 0 0 0 0 0 0 0 0 0 0 3.57295641483639e-07 3.57295641483639e-07 3.57295641483639e-07 3.57295641483639e-07 3.57295641483639e-07 2.83555118283321e-07 2.99547752645164e-07 2.45501763834899e-07 2.53201720102104e-07 3.25302877900329e-07 8.54953785715242e-08 1.22955815657337e-07 1.25341196026116e-07 1.53519082432138e-07 7.16183692803969e-07 7.27636542516506e-07 4.30027954398482e-07 3.0986390826596e-07 2.64531523088883e-07 3.3604807157232e-07 3.30585574538056e-07 1.3906713887176e-07 1.64573036472837e-07 3.80819394435739e-07 2.63395345321521e-07 5.01096423266011e-07 0.000199110461869711 0.000199110461869711 8.45360784303746e-05 3.67074223636112e-05 0.000145615573821002 0.000129194454317247 0.000106441487101283 0.000199110461869711 -9999 -9999 -9999 -9999 -9999 -9999 -9999 -9999 -9999 -9999
0 0 0 0 0 0 0 0 0 0 0 0 0 0 0 0 0 0 0 0 0 0 0 0 0 0 0 0 0 0 0 0 0 0 0 3.57295641483639e-07 3.57295641483639e-07 3.57295641483639e-07 3.57295641483639e-07 3.57295641483639e-07 3.57295641483639e-07 2.45376902299559e-07 3.57295641483639e-07 1.43612591271364e-07 1.86045154080394e-07 8.45100171608461e-08 1.16389318265801e-07 1.29240295282567e-07 7.27636542516506e-07 7.27636542516506e-07 4.39306353801755e-07 3.59586061837712e-07 2.24219772855818e-07 2.46856637594787e-07 2.45706239120282e-07 3.66392045369725e-07 2.83454368675411e-07 5.79373560853626e-07 2.46089636917266e-07 7.27636542516506e-07 0.000138388834879829 0.000199110461869711 0.000197647255909326 3.96080254532506e-05 0.000115767696478331 0.00061548895121463 0.000143919098016659 0.000199110461869711 -9999 -9999 -9999 -9999 -9999 -9999 -9999 -9999 -9999 -9999
0 0 0 0 0 0 0 0 0 0 0 0 0 0 0 0 0 0 0 0 0 0 0 0 0 0 0 0 0 0 0 0 0 0 0 3.57295641483639e-07 3.57295641483639e-07 3.57295641483639e-07 3.57295641483639e-07 3.21763692563695e-07 8.59254902295744e-08 3.57295641483639e-07 2.45225199006714e-07 2.19211009469777e-07 2.07119114712611e-07 1.582225019938e-07 2.79056194349213e-07 1.70998874252377e-07 2.45520739104185e-07 5.0089774160072e-07 4.54077800573492e-07 2.97541511480745e-06 2.89529823373054e-06 2.64991305425019e-07 5.00083277408783e-07 2.30235221732272e-07 3.72134254513183e-07 4.53197935212819e-07 4.18940107631491e-07 5.00937377626963e-07 5.59859648170044e-07 0.000175126249541629 0.00017521575641519 0.000115739223100167 0.000662692848948985 0.00122629805911403 0.000570042463566618 0.000199110461869711 0.000178605450635683 -9999 -9999 -9999 -9999 -9999 -9999 -9999 -9999 -9999
0 0 0 0 0 0 0 0 0 0 0 0 0 0 0 0 0 0 0 0 0 0 0 0 0 0 0 0 0 0 0 0 0 0 0 3.57295641483639e-07 3.57295641483639e-07 3.57295641483639e-07 3.57295641483639e-07 3.57295641483639e-07 3.57295641483639e-07 2.23760289575602e-07 1.98748084342364e-07 3.57295641483639e-07 3.57295641483639e-07 1.36590839291417e-07 2.26084981221956e-07 1.51660840226005e-07 2.7900462069704e-07 7.27636542516506e-07 7.27636542516506e-07 5.41544278689438e-07 6.59584353923279e-07 4.296177714341e-07 3.48592879557941e-07 4.08178291663242e-07 3.0669599951863e-07 7.27636542516506e-07 7.27636542516506e-07 7.27636542516506e-07 5.00785691595021e-07 0.000171925717796471 0.000157033246659337 0.000199110461869711 0.000199110461869711 0.00013812535167983 0.000199110461869711 0.000199110461869711 0.000198019547859713 0.000177742771266817 -9999 -9999 -9999 -9999 -9999 -9999 -9999 -9999
0 0 0 0 0 0 0 0 0 0 0 0 0 0 0 0 0 0 0 0 0 0 0 0 0 0 0 0 0 0 0 0 0 0 0 3.57295641483639e-07 3.57295641483639e-07 3.57295641483639e-07 3.37218775005017e-07 2.29350003589567e-07 2.44978951251226e-07 3.57295641483639e-07 3.57295641483639e-07 3.57295641483639e-07 2.789712129348e-07 3.0500981867783e-07 2.45433888211905e-07 3.57295641483639e-07 3.57295641483639e-07 2.45430681754489e-07 7.27636542516506e-07 7.27636542516506e-07 5.00693721861443e-07 7.27636542516506e-07 7.27636542516506e-07 4.35027654717471e-07 4.85948365424887e-07 4.0847353488982e-07 7.27636542516506e-07 4.99672865030959e-07 7.27636542516506e-07 7.27636542516506e-07 0.000199110461869711 0.000195428867885518 0.000199110461869711 0.000171910775440525 0.00132612550110406 0.000226147951945559 0.000199110461869711 0.000189775662870317 0.00017602686093575 0.000161942411234324 -9999 -9999 -9999 -9999 -9999 -9999
0 0 0 0 0 0 0 0 0 0 0 0 0 0 0 0 0 0 0 0 0 0 0 0 0 0 0 0 0 0 0 0 0 0 0 0 3.57295641483639e-07 3.57295641483639e-07 1.22061401740878e-07 1.0969690181752e-07 1.01714194520677e-07 1.48015028001478e-07 3.57295641483639e-07 3.57295641483639e-07 3.57295641483639e-07 3.57295641483639e-07 1.86505351695136e-07 2.45150352314663e-07 2.45349934771785e-07 3.57295641483639e-07 7.27636542516506e-07 4.93174362936836e-07 5.16149264590048e-07 3.80044628400526e-07 3.80295367461706e-07 3.63625641723514e-07 3.98107297622495e-07 5.50257976531256e-07 3.51622782669408e-07 7.27636542516506e-07 7.27636542516506e-07 7.27636542516506e-07 3.80306688833067e-07 0.000199110461869711 0.000199110461869711 0.000199110461869711 0.00031367102589219 0.000199110461869711 0.000199110461869711 0.000199110461869711 0.000199110461869711 0.000196959687955538 0.000196959687955538 0.000190777405079896 -9999 -9999 -9999 -9999
0 0 0 0 0 0 0 0 0 0 0 0 0 0 0 0 0 0 0 0 0 0 0 0 0 0 0 0 0 0 0 0 0 0 0 0 3.57295641483639e-07 3.57295641483639e-07 1.32562021427048e-07 9.15170647453775e-08 3.50524791500161e-07 3.57295641483639e-07 2.56892423109151e-07 3.36359172512383e-07 3.57295641483639e-07 1.86405624677344e-07 1.95207797844245e-07 1.28865974870029e-07 2.1887630474125e-07 2.0784226656274e-07 3.48284405841648e-07 7.27636542516506e-07 4.93047750639862e-07 3.89028908094054e-07 5.35366153589313e-07 3.01152002190737e-07 3.98211038367307e-07 1.74299497508033e-07 4.18181598663598e-07 7.27636542516506e-07 7.27636542516506e-07 7.27636542516506e-07 0.000199110461869711 0.000138232757768216 0.000199110461869711 0.000199110461869711 0.000199110461869711 0.000199110461869711 0.000199110461869711 0.000199110461869711 0.000199110461869711 0.000199110461869711 0.000199110461869711 0.000160516789913393 0.000196959687955538 -9999 -9999 -9999
0 0 0 0 0 0 0 0 0 0 0 0 0 0 0 0 0 0 0 0 0 0 0 0 0 0 0 0 0 0 0 0 0 0 0 0 3.57295641483639e-07 3.57295641483639e-07 3.57295641483639e-07 3.57295641483639e-07 1.41675058527748e-07 2.19762861045322e-07 2.31268518855818e-07 1.29883481515831e-07 2.45274342455342e-07 3.57295641483639e-07 2.45111363716138e-07 3.57295641483639e-07 3.57295641483639e-07 2.45255307491963e-07 7.27636542516506e-07 5.0038041131337e-07 7.27636542516506e-07 7.27636542516506e-07 4.6924767424857e-07 5.7222571195276e-07 4.12993938903776e-07 3.03406966316096e-07 3.97906173444325e-07 4.4055935302372e-07 5.00251079556413e-07 3.37382636011274e-07 7.27636542516506e-07 0.000199110461869711 0.000134793959019292 0.000176244068826225 0.000142478677006593 0.000199110461869711 0.000199110461869711 0.000199110461869711 0.000199110461869711 0.000199110461869711 0.000199110461869711 0.000199110461869711 0.000167144808215601 -9999 -9999 -9999
0 0 0 0 0 0 0 0 0 0 0 0 0 0 0 0 0 0 0 0 0 0 0 0 0 0 0 0 0 0 0 0 0 0 0 0 3.57295641483639e-07 3.57295641483639e-07 3.57295641483639e-07 3.10484692155722e-07 2.72258652147887e-07 2.9325844776032e-07 2.09549246522273e-07 3.57295641483639e-07 3.57295641483639e-07 1.85697362033506e-07 1.57367757097993e-07 1.78115794763275e-07 3.57295641483639e-07 3.57295641483639e-07 3.57295641483639e-07 7.27636542516506e-07 3.55390527700406e-07 4.07767063949685e-07 6.46518276937856e-07 3.67135474337785e-07 2.95299037314847e-07 4.52438777411941e-07 4.0296170359045e-07 3.61658165008694e-07 7.27636542516506e-07 4.99874835574803e-07 7.27636542516506e-07 1.03211037762278e-05 0.000161741058984988 0.000152838738270582 0.000168679783756155 0.000137779069062831 0.000199110461869711 0.000199110461869711 0.000199110461869711 0.000199110461869711 0.000199110461869711 0.000199110461869711 0.000199110461869711 0.00016561299599095 0.000199110461869711 -9999
0 0 0 0 0 0 0 0 0 0 0 0 0 0 0 0 0 0 0 0 0 0 0 0 0 0 0 0 0 0 0 0 0 0 0 0 0 3.57295641483639e-07 3.57295641483639e-07 3.57295641483639e-07 1.27170747034648e-07 3.57295641483639e-07 1.79844639316117e-07 2.56380895468413e-07 2.83605760647458e-07 2.99244057113969e-07 2.45151054935657e-07 3.57295641483639e-07 3.22993690959754e-07 2.65144919055589e-07 3.57295641483639e-07 3.84189915819043e-07 4.92474537303249e-07 7.27636542516506e-07 6.21948042715461e-07 4.16694790524863e-07 7.27636542516506e-07 7.27636542516506e-07 7.27636542516506e-07 7.27636542516506e-07 7.01083030289047e-07 5.1573068259314e-07 7.27636542516506e-07 7.27636542516506e-07 0.000199110461869711 0.000176212737088814 0.000173971932401947 0.000199110461869711 7.07003489246789e-05 0.000199110461869711 0.000199110461869711 0.000199110461869711 0.000199110461869711 0.000199110461869711 0.000199110461869711 0.000178605450635683 -9999 -9999
0 0 0 0 0 0 0 0 0 0 0 0 0 0 0 0 0 0 0 0 0 0 0 0 0 0 0 0 0 0 0 0 0 0 0 0 0 3.57295641483639e-07 3.57295641483639e-07 3.57295641483639e-07 2.44736235267315e-07 2.93735583985521e-07 2.56647483917671e-07 2.14621893835667e-07 3.57295641483639e-07 1.16378156211232e-07 2.39136117976566e-07 2.45129033580203e-07 3.57295641483639e-07 2.34532791097749e-07 1.92840702369876e-07 1.25734942984903e-07 3.44124935173592e-07 4.68403879953468e-07 2.20256262256271e-07 2.81364564403418e-07 2.46690494710836e-07 4.99873842981381e-07 6.29988123777016e-07 2.52913511352717e-07 5.15625409830518e-07 7.27636542516506e-07 2.43101485092869e-07 9.60798318017477e-05 8.8078333377509e-05 9.48340258121477e-05 0.000123796868545697 6.76199856473502e-05 6.83627824718215e-05 0.000159568634388031 0.000106081015525528 0.000199110461869711 0.000199110461869711 0.000199110461869711 0.000199110461869711 0.000199110461869711 0.000199110461869711 -9999
0 0 0 0 0 0 0 0 0 0 0 0 0 0 0 0 0 0 0 0 0 0 0 0 0 0 0 0 0 0 0 0 0 0 0 0 0 0 3.57295641483639e-07 3.57295641483639e-07 3.57295641483639e-07 3.57295641483639e-07 1.15747358676577e-07 1.08923286247982e-07 1.44669758137521e-07 1.31684060686995e-07 1.51367997052703e-07 2.52686031610257e-07 3.57295641483639e-07 3.57295641483639e-07 2.15765584121846e-07 1.15840998543654e-07 4.34277467215434e-07 3.54819619112903e-07 3.62772823313834e-07 3.75040167888765e-07 3.51283579821347e-07 5.5901484118448e-07 3.2176082138158e-07 5.12861713319694e-07 7.27636542516506e-07 4.07570917718894e-07 2.7303423263787e-07 3.08584836930865e-07 0.000190861895235923 0.000145079406853039 0.000146936041131181 0.000199110461869711 0.000199110461869711 0.000199110461869711 0.000199110461869711 0.000199110461869711 0.000199110461869711 0.000199110461869711 0.000199110461869711 0.000199110461869711 -9999 0.000199110461869711
0 0 0 0 0 0 0 0 0 0 0 0 0 0 0 0 0 0 0 0 0 0 0 0 0 0 0 0 0 0 0 0 0 0 0 0 0 0 3.57295641483639e-07 3.57295641483639e-07 3.57295641483639e-07 3.4337259025987e-07 1.58569288548339e-07 1.08679799398134e-07 1.97341996382365e-07 2.58699693488943e-07 3.57295641483639e-07 2.45013183519533e-07 3.57295641483639e-07 3.10577851907585e-07 1.79887739648496e-07 4.23133003786115e-07 3.8818359696192e-07 4.28466182286985e-07 4.23082738352194e-07 7.27636542516506e-07 4.99807830577354e-07 7.10990647612406e-07 2.25198891870947e-07 4.87504727404067e-07 4.21264589563941e-07 7.27636542516506e-07 3.88316270754169e-07 7.01025622213622e-07 9.60268129595002e-05 0.000149326922502198 0.000162609908463821 0.000199110461869711 0.000199110461869711 0.000199110461869711 0.000199110461869711 0.000199110461869711 0.000199110461869711 0.000199110461869711 0.000199110461869711 0.000199110461869711 -9999 -9999
0 0 0 0 0 0 0 0 0 0 0 0 0 0 0 0 0 0 0 0 0 0 0 0 0 0 0 0 0 0 0 0 0 0 0 0 0 0 0 2.88453514753483e-07 2.83355252128384e-07 2.18444564489556e-07 6.41145661737046e-08 8.73811965267776e-08 9.57111210795073e-08 1.95692166891651e-07 2.04191106762651e-07 2.83431950969146e-07 2.44978915534926e-07 1.58739795874097e-07 1.94952268190779e-07 2.12771804475029e-07 3.05379153086165e-07 7.27636542516506e-07 7.27636542516506e-07 3.79283559576962e-07 7.27636542516506e-07 7.21136718050932e-07 4.15871799147834e-07 1.4340471999614e-07 2.0176669177564e-07 2.53943182287427e-07 7.27636542516506e-07 6.10433995520599e-07 0.000118336075395465 0.000109966562003316 0.000130155347648631 0.000127121586246963 7.12400926433575e-05 0.000101289262046372 0.000199110461869711 0.000199110461869711 0.000199110461869711 0.000199110461869711 0.000199110461869711 0.000199110461869711 0.000196959687955538 0.000151811866626528
0 0 0 0 0 0 0 0 0 0 0 0 0 0 0 0 0 0 0 0 0 0 0 0 0 0 0 0 0 0 0 0 0 0 0 0 0 0 0 0 1.79633511015848e-07 3.50743639915099e-07 1.82750154255031e-07 1.68881431669646e-07 1.90335483185056e-07 2.78456053878455e-07 1.07646384820831e-07 1.8587568614391e-07 3.57295641483639e-07 1.85958973395697e-07 2.44879563062954e-07 3.57295641483639e-07 4.98851810590748e-07 7.27636542516506e-07 5.78326460221216e-07 6.10385378907998e-07 7.27636542516506e-07 7.27636542516506e-07 7.27636542516506e-07 6.59090649260007e-07 4.0223636534753e-07 7.27636542516506e-07 4.99598272682276e-07 5.31788143444291e-07 7.47210466031602e-05 0.000165495744052715 0.000199110461869711 0.000127706676706405 9.33097547077895e-05 0.000137998626053698 0.000199110461869711 0.000199110461869711 0.000199110461869711 0.000199110461869711 0.000199110461869711 0.000199110461869711 0.000198019547859713 0.000131536684995833
