NCOLS 78 
NROWS 66 
XLLCORNER -87.5 
YLLCORNER 25 
CELLSIZE 0.0833333333333333 
NODATA_value -9999 
-9999.000000000000000 -9999 -9999 -9999 2.71709095899914e-05 2.73179436838629e-05 -9999 -9999 -9999 -9999 -9999 2.28262015619974e-05 2.08294954241212e-05 2.49962836206887e-05 2.45064905479808e-05 2.70228194892243e-05 -9999 -9999 -9999 -9999 -9999 -9999 -9999 -9999 -9999 -9999 -9999 -9999 -9999 -9999 -9999 -9999 -9999 -9999 -9999 -9999 -9999 -9999 -9999 -9999 -9999 -9999 -9999 -9999 -9999 -9999 -9999 -9999 -9999 -9999 -9999 -9999 -9999 -9999 -9999 -9999 -9999 -9999 -9999 -9999 -9999 -9999 -9999 -9999 -9999 -9999 -9999 -9999 -9999 -9999 -9999 -9999 1.73997482249163e-05 1.73997482249163e-05 1.73997482249163e-05 1.73997482249163e-05 1.73997482249163e-05 1.73997482249163e-05
-9999 -9999 -9999 2.52485961996841e-05 2.15472172507072e-05 2.10921660649504e-05 2.21205906554567e-05 6.8248750189895e-06 3.77244969789179e-06 5.78838657209088e-06 9.5658817777555e-07 5.84493748879901e-06 1.09497482798412e-06 1.71090551081955e-05 1.63618375194732e-05 -9999 -9999 -9999 -9999 -9999 -9999 -9999 -9999 -9999 -9999 -9999 -9999 -9999 -9999 -9999 -9999 -9999 -9999 -9999 -9999 -9999 -9999 -9999 -9999 -9999 -9999 -9999 -9999 -9999 -9999 -9999 -9999 -9999 -9999 -9999 -9999 -9999 -9999 -9999 -9999 -9999 -9999 -9999 -9999 -9999 -9999 -9999 -9999 -9999 -9999 -9999 -9999 -9999 -9999 -9999 -9999 -9999 -9999 1.73997482249163e-05 1.73997482249163e-05 1.73997482249163e-05 1.73997482249163e-05 1.73997482249163e-05
2.21205906554567e-05 1.08674528019284e-05 2.31007929559314e-05 2.19550852450046e-06 0.000653419825507416 1.21704895224009e-05 4.12799944229537e-06 3.48888229625743e-05 1.50254440698904e-05 1.06739272123611e-05 9.84165489215213e-06 4.6806837183778e-06 5.33128281967869e-06 2.46648055440458e-06 4.97865635007568e-06 4.68242844503058e-06 7.30605538038694e-05 -9999 -9999 -9999 -9999 -9999 -9999 -9999 -9999 -9999 -9999 -9999 -9999 -9999 -9999 -9999 -9999 -9999 -9999 -9999 -9999 -9999 -9999 -9999 -9999 -9999 -9999 -9999 -9999 -9999 -9999 -9999 -9999 -9999 -9999 -9999 -9999 -9999 -9999 -9999 -9999 -9999 -9999 -9999 -9999 -9999 -9999 -9999 -9999 -9999 -9999 -9999 -9999 -9999 -9999 -9999 -9999 1.73997482249163e-05 1.73997482249163e-05 1.73997482249163e-05 1.73997482249163e-05 1.73997482249163e-05
2.95912745533196e-06 3.16995660377179e-06 2.9839121490184e-06 3.42461444830945e-05 0.000275253491597093 2.36999967846834e-05 1.96613849092007e-05 5.0429113514612e-06 1.68585455488626e-05 8.39060118753481e-06 2.52007918335048e-06 2.63326857513866e-06 1.19929991460633e-06 3.44580292875124e-06 1.08554792525294e-05 3.96777622708144e-06 2.22343123743262e-05 7.03758837791202e-07 4.50664944391774e-06 2.42228539701895e-06 2.23179588289199e-05 1.89345657928379e-05 -9999 -9999 -9999 -9999 -9999 -9999 -9999 -9999 -9999 -9999 -9999 -9999 -9999 -9999 -9999 -9999 -9999 -9999 -9999 -9999 -9999 -9999 -9999 -9999 -9999 -9999 -9999 -9999 -9999 -9999 -9999 -9999 -9999 -9999 -9999 -9999 -9999 -9999 -9999 -9999 -9999 -9999 -9999 -9999 -9999 -9999 -9999 -9999 -9999 -9999 -9999 1.73997482249163e-05 1.73997482249163e-05 1.73997482249163e-05 1.73997482249163e-05 1.73997482249163e-05
2.56062043363795e-05 2.75170376789709e-05 4.66222878883153e-07 1.16074817955012e-05 2.74491385105003e-06 3.56247505142681e-05 4.32702478342074e-05 5.18266407808913e-06 9.50587597481313e-05 3.65551151807386e-05 1.60302821404908e-05 2.61383096110836e-05 1.50899701786862e-05 0.000103617687715238 2.5928580743361e-05 1.19654751653747e-05 2.84153603771113e-05 5.22359565510105e-06 4.57337368284392e-06 3.84395959304268e-06 3.26565029177525e-06 1.89028677442785e-06 1.83102245156481e-05 2.04882710954102e-05 -9999 -9999 -9999 -9999 -9999 -9999 -9999 -9999 -9999 -9999 -9999 -9999 -9999 -9999 -9999 -9999 -9999 1.4332286415194e-05 -9999 -9999 -9999 -9999 -9999 -9999 -9999 -9999 -9999 -9999 -9999 -9999 -9999 -9999 -9999 -9999 -9999 -9999 -9999 -9999 -9999 -9999 -9999 -9999 -9999 -9999 -9999 -9999 -9999 -9999 -9999 -9999 1.73997482249163e-05 1.73997482249163e-05 1.73997482249163e-05 1.73997482249163e-05
1.4283472922151e-05 6.29864498065345e-06 1.21391044842808e-05 3.94049874067988e-05 3.53488320239982e-05 3.17273921340422e-05 2.56130884379122e-05 1.39923160201631e-05 1.2295186278457e-05 1.8926890458648e-05 6.08600231704249e-05 2.85321351303188e-05 1.79289128247308e-05 5.87855887354292e-05 7.47477410394915e-05 5.38334974352298e-05 3.20628374033715e-05 3.38167321893848e-06 7.02407305199895e-06 3.57507063454368e-06 4.92952502113807e-06 3.92657737942311e-06 2.2639449083371e-05 2.02388627071584e-05 -9999 -9999 -9999 -9999 -9999 -9999 -9999 -9999 -9999 -9999 -9999 -9999 -9999 -9999 1.18137158218984e-05 1.13537715298863e-05 9.87783586585095e-06 9.58013584549301e-06 1.0194631473644e-05 1.47558653527076e-05 -9999 -9999 -9999 -9999 -9999 -9999 -9999 -9999 -9999 -9999 -9999 -9999 -9999 -9999 -9999 -9999 -9999 -9999 -9999 -9999 -9999 -9999 -9999 -9999 -9999 -9999 -9999 -9999 -9999 -9999 1.73997482249163e-05 1.73997482249163e-05 1.73997482249163e-05 1.73997482249163e-05
1.24571590453172e-05 1.12106914641979e-06 6.67351231693256e-07 2.01765342823519e-05 3.53237310574164e-06 1.6015057360744e-05 3.03049928442425e-05 2.9143487683313e-05 3.2975560278129e-05 4.26714778337235e-05 0.000110385162037566 0.000135214071886205 2.35245670694436e-05 0.000150510808319284 4.63110515741922e-05 4.31906177598775e-05 7.08188491942157e-05 5.99442868640428e-05 3.9459019102388e-05 1.04538082374286e-05 5.54423693137357e-06 6.10639291333731e-06 2.64844178789352e-06 4.60075548039834e-06 -9999 -9999 -9999 -9999 -9999 -9999 -9999 -9999 -9999 -9999 -9999 -9999 -9999 -9999 1.5612256402106e-05 1.51388725889877e-05 1.52052438286174e-05 9.79464592929509e-06 9.36668183413435e-06 9.25465446566128e-06 1.10659047267133e-05 -9999 -9999 -9999 -9999 -9999 -9999 -9999 -9999 -9999 -9999 -9999 -9999 -9999 -9999 -9999 -9999 -9999 -9999 -9999 -9999 -9999 -9999 -9999 -9999 -9999 -9999 -9999 -9999 -9999 1.73997482249163e-05 1.73997482249163e-05 1.73997482249163e-05 1.73997482249163e-05
1.06526563046456e-06 1.29177924465124e-05 7.75211966035754e-05 1.37291624059163e-05 1.32350162011063e-05 0.000197539894175307 0.000197539894175307 3.02810055644822e-05 0.000197539894175307 2.22353617748075e-05 3.55352170377753e-05 2.26054386945678e-05 3.73640428084535e-05 0.000144935925734053 7.39962603773852e-05 3.52400104261083e-06 4.78840348583068e-05 4.6413035770247e-05 8.46520428724488e-06 3.6659345679993e-05 7.83374804168956e-06 3.5569182441654e-05 3.44034413522627e-06 1.78194356650911e-05 2.54000446049887e-06 2.5903447662666e-05 -9999 -9999 -9999 -9999 -9999 -9999 -9999 -9999 -9999 -9999 1.32970761167228e-05 1.73128911627145e-05 1.59691147773054e-05 1.25788397220823e-05 1.45111151435003e-05 1.29998108250821e-05 1.20169184683509e-05 1.08598604683913e-05 9.29006843036545e-06 9.18332761404416e-06 -9999 -9999 -9999 -9999 -9999 -9999 -9999 -9999 -9999 -9999 -9999 -9999 -9999 -9999 -9999 -9999 -9999 -9999 -9999 -9999 -9999 -9999 -9999 -9999 -9999 -9999 -9999 -9999 1.73997482249163e-05 1.73997482249163e-05 1.73997482249163e-05 1.73997482249163e-05
1.73402429634735e-06 6.66085367246025e-05 0.00169635228000238 9.66206012908487e-06 0.000197539894175307 0.000197539894175307 0.000197539894175307 0.0030323566692766 0.000197539894175307 0.000110839668922865 4.29928262529673e-05 2.51913455517142e-05 1.06701278644822e-05 7.53744986777965e-06 6.33355342320616e-05 2.96435432055386e-05 7.44151198359442e-05 1.2379801548008e-05 3.67663259828404e-05 7.04907833824461e-06 3.5096285177828e-05 9.77128213026253e-07 6.31396704623602e-06 5.24032738210943e-06 3.03521883344674e-06 2.39195656641932e-05 -9999 -9999 -9999 -9999 -9999 -9999 1.53385359902913e-05 1.47558653527076e-05 1.47558653527076e-05 5.0832102073032e-06 1.72719866328565e-06 1.73997482249163e-05 1.33927141596582e-06 7.64873080260461e-07 1.358984350903e-06 1.34360908212299e-06 5.40121018078041e-06 1.35433542393283e-05 1.2058700217725e-05 1.24890560198055e-05 9.34954771971936e-06 -9999 -9999 -9999 -9999 -9999 -9999 -9999 -9999 -9999 -9999 -9999 -9999 -9999 -9999 -9999 -9999 -9999 -9999 -9999 -9999 -9999 -9999 -9999 -9999 -9999 -9999 -9999 -9999 1.73997482249163e-05 1.73997482249163e-05 1.73997482249163e-05
3.44952102019124e-05 6.16617629290798e-05 2.7006288684488e-05 4.46576318411025e-05 0.000197539894175307 0.000197539894175307 0.000197539894175307 0.000197539894175307 0.000197539894175307 3.44173151828964e-05 0.000197539894175307 0.000197539894175307 4.75045946419246e-05 7.68130707133167e-05 3.74366412565883e-05 2.18302359804142e-05 1.40036093483126e-05 8.77369764791591e-06 6.99304286088315e-05 3.48580769234501e-05 1.23252155018723e-05 3.25936732153533e-06 1.85512401438432e-06 1.16467049504994e-06 9.99002619146909e-07 2.08294954241212e-05 2.1455637396271e-05 -9999 -9999 -9999 1.50090133093696e-05 1.58246893570153e-05 1.43917597629671e-05 1.38915808689395e-05 1.51446524772945e-06 4.72432689697404e-07 6.21122153785165e-07 1.65522829402318e-06 2.10288581155235e-06 2.36972327910057e-06 6.88621173682162e-07 7.24499211821791e-06 2.67717148444867e-06 2.68582695200213e-06 7.70764550270199e-06 1.54741859335207e-05 1.1172207888399e-05 1.08598604683913e-05 -9999 -9999 -9999 -9999 -9999 -9999 -9999 -9999 -9999 -9999 -9999 -9999 -9999 -9999 -9999 -9999 -9999 -9999 -9999 -9999 -9999 -9999 -9999 -9999 -9999 -9999 -9999 1.73997482249163e-05 1.73997482249163e-05 1.73997482249163e-05
5.72126433478778e-06 4.13397071187085e-06 0.000133503073140913 0.000197539894175307 0.000197539894175307 0.000197539894175307 0.000197539894175307 0.000197539894175307 0.000197539894175307 0.000197539894175307 0.000197539894175307 0.000197539894175307 0.000197539894175307 0.000197539894175307 6.95434608972492e-05 7.53247100627363e-05 2.66498433853434e-05 3.840643375429e-06 0.000103391571955129 5.62210580880143e-05 3.14068272290964e-05 6.95762436243076e-06 2.96303576589352e-06 2.3667787690649e-06 4.17449632503012e-06 2.74692951780079e-05 2.74692951780079e-05 2.74692951780079e-05 2.68789367780283e-05 2.34706808597507e-05 1.48189137513437e-05 6.15643801124277e-06 9.7444798437161e-06 1.41029094049072e-06 1.9672140179668e-06 9.62786660069283e-06 1.05176371889165e-06 5.14533167826694e-06 1.52853523793783e-06 1.10533050758935e-06 1.19629384428994e-06 3.05703202539792e-07 1.22375444772679e-06 6.05042832072421e-07 5.14067109783878e-07 1.9652438888639e-06 1.68137951092342e-05 1.68957046495359e-05 1.14279255784315e-05 -9999 -9999 -9999 -9999 -9999 -9999 -9999 -9999 -9999 -9999 -9999 -9999 -9999 -9999 -9999 -9999 -9999 -9999 -9999 -9999 -9999 -9999 -9999 -9999 -9999 -9999 -9999 1.73997482249163e-05 1.73997482249163e-05
7.85848514753636e-05 6.01482709115173e-05 0.000197539894175307 0 0 0 0 0.000197539894175307 0.000197539894175307 0.000197539894175307 0.000197539894175307 0.000197539894175307 0.000197539894175307 3.02097278529107e-05 0.000197539894175307 3.02109682795467e-05 2.7953622033179e-05 2.12201137739584e-06 8.74268238731402e-05 8.01115160651026e-06 1.40636388343949e-06 6.93708853906598e-06 1.5339350063553e-05 3.46998476208494e-06 2.74692951780079e-05 2.74692951780079e-05 5.48640837078836e-06 2.74692951780079e-05 2.53847684336165e-05 2.74692951780079e-05 6.6607350963903e-06 9.13341670129819e-07 5.68407617716395e-07 3.65470628916984e-06 1.12459456017034e-06 1.14231225735137e-06 5.59753972984504e-06 2.21853991140249e-06 3.29277865559908e-06 4.12920960902848e-06 6.37457739496459e-07 3.07523016532702e-07 3.25007106379315e-05 7.0312711006563e-07 3.86101702418744e-06 2.013602226592e-06 6.00031057828251e-06 1.73997482249163e-05 1.04071304739624e-05 -9999 -9999 -9999 -9999 -9999 -9999 -9999 -9999 -9999 -9999 -9999 -9999 -9999 -9999 -9999 -9999 -9999 -9999 -9999 -9999 -9999 -9999 -9999 -9999 -9999 -9999 -9999 1.73997482249163e-05 1.73997482249163e-05
0 0 0 0 0 0 0 0 0 0 0 0.000197539894175307 0.000197539894175307 0.000197539894175307 0.000197539894175307 0.000116449088831827 2.24594244405585e-05 2.07784230578363e-05 2.37568658982815e-05 1.53039230479674e-06 1.52105572127398e-06 1.39617181877466e-05 1.39617179916451e-05 2.74692951780079e-05 3.79311119343595e-06 2.28965671799627e-06 3.96796138671249e-06 3.76828855976198e-06 1.18112455872161e-05 2.74692951780079e-05 1.80389857674246e-06 1.42007243527303e-06 2.1946940219802e-05 6.24671402720624e-06 1.32200501552405e-05 1.02482062060219e-05 4.37665158915591e-07 5.08412386920129e-07 1.60789428543571e-06 1.28964717840269e-06 9.67299564124724e-07 1.34574747645361e-06 9.483549833542e-07 2.73830867273515e-06 3.20196502257066e-06 1.18559747496074e-06 1.32809786745492e-06 1.73997482249163e-05 1.40441746716617e-05 1.05962036250579e-05 1.4332286415194e-05 -9999 -9999 -9999 -9999 -9999 -9999 -9999 -9999 -9999 -9999 -9999 -9999 -9999 -9999 -9999 -9999 -9999 -9999 -9999 -9999 -9999 -9999 -9999 -9999 -9999 1.73997482249163e-05 1.73997482249163e-05
0 0 0 0 0 0 0 0 0 0 0 0 0.000197539894175307 0.000197539894175307 0.000197539894175307 2.5682405368981e-05 1.77636028529893e-05 3.30527462983078e-06 1.03483849136795e-05 3.43443105049113e-06 4.19139997267687e-05 6.83053679421851e-06 5.64713608541379e-05 1.17689616291017e-06 2.05150741467719e-06 1.68356912082646e-06 3.26574147646544e-06 2.50117029004875e-05 5.22291228193152e-06 2.8045488872999e-06 6.51083245964455e-05 7.97443381678287e-06 7.6250130793126e-06 8.20410944941743e-06 9.23793164099434e-06 6.47453373308901e-06 1.51115803344466e-05 1.38114332619464e-05 2.08483540072635e-06 5.93839242893588e-05 1.41564825544413e-06 1.51643673596431e-06 3.56960618734104e-06 1.11659682521611e-06 2.5560600111124e-06 9.34266142958088e-07 1.66296523537505e-06 1.36475021135481e-06 1.52052438286174e-05 1.53385359902913e-05 1.71432658388196e-05 1.61162007015399e-05 -9999 -9999 -9999 -9999 -9999 -9999 -9999 -9999 -9999 -9999 -9999 -9999 -9999 -9999 -9999 -9999 -9999 -9999 -9999 -9999 -9999 -9999 -9999 -9999 -9999 1.73997482249163e-05
0 0 0 0 0 0 0 0 0 0 0 0 0 0.000197539894175307 0.000197539894175307 0.000197539894175307 0.000197539894175307 1.92608359650301e-05 2.54407031751647e-05 2.73381659956572e-05 6.73888081695991e-06 2.27033305948408e-05 3.99100881931318e-05 7.97094862701191e-06 2.063583891145e-06 2.14419354476522e-06 1.40480787718533e-06 2.50117029004875e-05 2.05006050874305e-06 7.99796659546325e-06 6.29567138210195e-05 3.32300608631365e-05 1.73283477955818e-05 9.51284666129311e-06 7.47245606290505e-06 2.08123444878301e-05 5.74663259416466e-06 8.19191482301069e-06 1.29896437306911e-05 7.85056015609586e-06 1.85229437904376e-06 5.79281542170667e-07 1.87599819294907e-05 6.23506089528022e-07 1.71100340900134e-06 2.07367859737768e-06 3.08426367483969e-06 1.29802449849237e-06 1.69318634037007e-05 1.24005449282811e-05 1.6496749561157e-05 1.54741859335207e-05 -9999 -9999 -9999 -9999 -9999 -9999 -9999 -9999 -9999 -9999 -9999 -9999 -9999 -9999 -9999 -9999 -9999 -9999 1.73997482249163e-05 1.73997482249163e-05 -9999 -9999 -9999 -9999 -9999 1.73997482249163e-05
0 0 0 0 0 0 0 0 0 0 0 0 0 0 0.000197539894175307 0.000197539894175307 0.000197539894175307 0.000197539894175307 3.13995780527944e-05 0.000116331365336575 8.1419523121616e-06 7.42652338716381e-06 2.08642428213756e-05 8.06571483733262e-06 7.49844885166704e-06 8.18645598800944e-06 8.41219027626177e-07 7.09556655348305e-07 2.50477634047971e-05 4.59260714762346e-06 3.01598059796118e-05 1.30714677618696e-05 1.58028026118362e-05 1.48063606666557e-05 5.43367898606969e-06 8.9121106976362e-06 1.15782401492306e-05 9.68065003384555e-06 4.43594603040779e-05 6.92219412667704e-07 7.54234304899691e-07 8.72794945062593e-07 5.29103908354479e-07 1.07835779493539e-06 2.76263674332108e-06 1.13154927903196e-06 1.314845325692e-06 1.73997482249163e-05 1.73997482249163e-05 1.73997482249163e-05 1.69769321177702e-05 1.73997482249163e-05 1.45709917866228e-05 -9999 -9999 -9999 -9999 -9999 -9999 -9999 -9999 -9999 -9999 -9999 -9999 -9999 -9999 -9999 -9999 -9999 -9999 1.73997482249163e-05 -9999 -9999 -9999 -9999 -9999 -9999
0 0 0 0 0 0 0 0 0 0 0 0 0 0 0 0.000197539894175307 0.000197539894175307 0.000197539894175307 0.000197539894175307 9.22555900284882e-05 7.60064615382651e-06 3.55364353857204e-05 6.62972849915921e-06 1.3549213230856e-05 4.30870498836126e-06 2.73893958645705e-05 4.39262329132834e-06 3.49704381315945e-06 2.2269688673634e-06 3.5918055535874e-06 2.93388627204064e-05 1.09421610262837e-05 3.07953692341877e-05 8.30705369495322e-06 7.1867783916675e-06 9.03281887220974e-06 5.95338318206696e-06 1.43976751030522e-05 1.60630352718116e-05 9.15326676384133e-06 6.65598762409485e-06 4.52561501353789e-07 1.06786507372775e-06 1.53450919499021e-06 1.45864353809679e-06 2.00594899213483e-06 1.87449576081781e-06 7.41234051506334e-07 1.51895182776283e-06 1.10001312683429e-06 1.73997482249163e-05 1.73997482249163e-05 1.46324669471657e-05 1.18137158218984e-05 1.2058700217725e-05 9.60619660997364e-06 -9999 -9999 -9999 -9999 -9999 -9999 -9999 -9999 -9999 -9999 -9999 -9999 -9999 -9999 -9999 -9999 1.73997482249163e-05 -9999 -9999 -9999 -9999 -9999
0 0 0 0 0 0 0 0 0 0 0 0 0 0 0 0 0.000197539894175307 0.000197539894175307 0.000197539894175307 0.000197539894175307 0.000197539894175307 0.000197539894175307 0.000197539894175307 1.71548815272732e-05 1.3042842191325e-06 2.33967520268977e-05 2.13906132848029e-06 9.98149573933235e-07 3.78370591671079e-06 3.50080485950097e-06 3.01336018165135e-05 1.52435194055731e-05 8.07984129228052e-06 5.85430228413029e-06 5.76529934769121e-06 9.99655360817571e-06 5.40660966686303e-06 9.15083612500321e-06 1.75344686717922e-05 5.57340714380932e-06 3.49910491986012e-05 1.49042783172442e-05 1.4816823239212e-06 7.80218328546872e-07 1.16649121260227e-06 3.31232018699787e-06 8.74797310248766e-07 7.35749570404564e-07 6.96321022180046e-07 4.62790590273278e-06 3.68523835584783e-06 1.73997482249163e-05 1.73128911627145e-05 1.46933513369786e-05 1.2903939697345e-05 9.32441107356378e-06 9.22607884508948e-06 -9999 -9999 -9999 -9999 -9999 -9999 -9999 -9999 -9999 -9999 -9999 -9999 -9999 -9999 -9999 -9999 -9999 -9999 -9999 -9999 -9999
0 0 0 0 0 0 0 0 0 0 0 0 0 0 0 0 0.000197539894175307 0.000197539894175307 0.000197539894175307 0.000197539894175307 0.000197539894175307 0.000197539894175307 0.000197539894175307 3.00666331059811e-05 1.55374483506568e-05 3.4213475417926e-05 1.17356272067877e-05 2.74858066921774e-05 3.80769339218643e-06 4.51003757025414e-06 9.51659527606847e-06 2.8148576437373e-05 1.57845872888008e-05 7.851122443017e-06 6.43225438089958e-06 9.11815176265711e-06 5.68513600020137e-06 1.06473910506421e-05 1.18715065056646e-05 1.51899771962996e-05 1.87795952060772e-05 2.21586243231146e-05 3.77977847671885e-05 3.00047508732542e-06 3.89673545204565e-06 2.87991314521524e-06 2.50633876071692e-06 4.6100273646604e-06 4.31479757004468e-07 7.14466047076809e-07 1.44939760509721e-06 1.73997482249163e-05 1.73997482249163e-05 1.73997482249163e-05 1.64186536401051e-05 1.09276842542543e-05 9.99063699822114e-06 -9999 -9999 -9999 -9999 -9999 -9999 -9999 -9999 -9999 -9999 -9999 -9999 -9999 -9999 -9999 -9999 -9999 -9999 -9999 -9999 -9999
0 0 0 0 0 0 0 0 0 0 0 0 0 0 0 0 0.000197539894175307 0.000197539894175307 0.000197539894175307 0.000197539894175307 0.000197539894175307 0.000197539894175307 0.000197539894175307 0.000197539894175307 3.9898862290677e-05 1.41103064432447e-05 1.39350077266437e-05 1.7271688620013e-05 1.85568086935081e-05 2.77005874662567e-06 7.13084462082739e-06 1.20844054752016e-05 2.05678443859694e-05 1.10796892950229e-05 9.17848700400354e-06 7.04086752210906e-06 8.08619214714924e-06 2.16682923581604e-05 8.10352631450926e-06 6.44816031816837e-06 3.41200510549275e-05 3.10940724059091e-05 1.8113860211012e-05 1.35931263337849e-05 7.57596135920253e-06 1.60625581597488e-06 1.04120738551615e-06 3.57494644619275e-06 1.73997482249163e-05 4.01639898290105e-06 8.05852873943291e-07 3.61513876302085e-06 1.73997482249163e-05 1.67341175877854e-05 9.60619660997364e-06 9.21294945041622e-06 9.17855371701679e-06 9.25068742122076e-06 -9999 -9999 -9999 -9999 -9999 -9999 -9999 -9999 -9999 -9999 -9999 -9999 -9999 -9999 -9999 -9999 -9999 -9999 -9999 -9999
0 0 0 0 0 0 0 0 0 0 0 0 0 0 0 0 0 0.000197539894175307 0.000197539894175307 0.000197539894175307 0.000197539894175307 0.000197539894175307 0.000197539894175307 5.82807152814335e-05 7.62691665883877e-05 0.00207015809888477 1.16707406978396e-05 1.22521473208305e-05 1.96801687217619e-05 2.8818648493562e-05 2.53825666268128e-05 1.0631480592311e-05 8.82628343534338e-06 2.42094242031559e-05 3.34499030940048e-05 1.2842730209557e-05 9.33620880426647e-06 1.33588224325091e-05 1.10282086440599e-05 3.30091665248664e-05 1.81330802631125e-05 5.73584294575748e-06 5.30732543910826e-06 1.56156902430556e-05 9.51121897048417e-07 6.44285872203036e-07 9.25349761453529e-07 1.79293331866598e-06 3.15087683305476e-06 1.39670871734532e-06 1.72922376996399e-05 1.73997482249163e-05 1.44756407867375e-06 1.64186536401051e-05 9.66499470779833e-06 9.24848480185293e-06 9.1807231488329e-06 9.20203688615654e-06 -9999 -9999 -9999 -9999 -9999 -9999 -9999 -9999 -9999 -9999 -9999 -9999 -9999 -9999 -9999 -9999 -9999 -9999 -9999 1.73997482249163e-05
0 0 0 0 0 0 0 0 0 0 0 0 0 0 0 0 0 0 0.000197539894175307 0.000197539894175307 0.000197539894175307 0.000197539894175307 0.000197539894175307 4.71595052762665e-05 3.96095405078975e-05 0.000151499779856814 0.000197539894175307 2.49703230191598e-05 1.95096984884664e-05 1.05521352511833e-05 2.80778655713169e-05 6.75281634148802e-05 2.4168545156703e-05 4.40362822425944e-05 2.3364633461937e-05 1.05806549314271e-05 9.21237227209211e-06 9.93827855178775e-06 3.58252316271746e-05 1.4726710003728e-05 6.05552983164103e-06 8.6991371831908e-06 1.73634432619072e-05 1.36594088545132e-05 0.000183150572306708 8.90447018410739e-07 9.81853288243823e-07 1.53366073874095e-06 7.1788702833959e-06 1.53932043014147e-06 3.78338440120883e-06 1.73997482249163e-05 2.34926848510219e-06 1.64186536401051e-05 9.78280557950144e-06 9.26569225843776e-06 9.18159105350586e-06 9.17768638643997e-06 -9999 -9999 -9999 -9999 -9999 -9999 -9999 -9999 -9999 -9999 -9999 -9999 -9999 -9999 -9999 -9999 -9999 -9999 -9999 -9999
0 0 0 0 0 0 0 0 0 0 0 0 0 0 0 0 0 0 0.000197539894175307 0.000197539894175307 0.000197539894175307 0.000197539894175307 0.000197539894175307 0.000197539894175307 0.000197539894175307 0.000197539894175307 0.000197539894175307 0.000197539894175307 2.36295441550365e-05 1.52060487355352e-05 3.52173690089671e-07 1.20312464180595e-05 0.000183150572306708 7.95202299922961e-05 2.4169236583151e-05 5.32645177865181e-05 1.19837070975767e-05 4.57719458614805e-06 3.10113786318328e-05 3.68777214137025e-05 1.35799068506986e-05 9.25136258911262e-06 1.45225000101755e-05 1.16689280172991e-05 5.37609617011414e-06 1.57189077473394e-05 2.41900679140207e-06 1.33806904904116e-06 1.05642228386089e-05 1.73997482249163e-05 3.75499398070003e-06 1.0580475174487e-06 2.62581461861173e-06 1.64186536401051e-05 9.78724224422933e-06 9.25421342732435e-06 9.1807231488329e-06 9.17768638643997e-06 -9999 -9999 -9999 -9999 -9999 -9999 -9999 -9999 -9999 -9999 -9999 -9999 -9999 -9999 -9999 -9999 -9999 -9999 -9999 -9999
0 0 0 0 0 0 0 0 0 0 0 0 0 0 0 0 0 0 0 0.000197539894175307 0.000197539894175307 0.000197539894175307 0.000197539894175307 0.000197539894175307 0.000197539894175307 0.000197539894175307 0.000197539894175307 0.000197539894175307 5.81845927311259e-05 0.00276005342030596 7.64480464230567e-07 0.000183150572306708 0.000183150572306708 4.93637170768634e-05 2.25848886482948e-05 3.18662243781333e-05 3.31235576429261e-05 1.62134573411221e-05 2.45542059900606e-05 1.08141010662855e-05 2.07176800133757e-05 1.60921536646865e-05 9.16298517029122e-06 1.99647019039318e-05 6.88515636172244e-06 7.96486510371109e-05 1.77592784303845e-06 2.26175306658145e-06 1.17210442521284e-06 1.42149285421665e-06 1.73997482249163e-05 3.71040417484682e-06 5.99444082630796e-06 1.6496749561157e-05 9.85028250976881e-06 9.26392441101771e-06 9.18115721000335e-06 9.17768638643997e-06 -9999 -9999 -9999 -9999 -9999 -9999 -9999 -9999 -9999 -9999 -9999 -9999 -9999 -9999 -9999 -9999 -9999 -9999 -9999 -9999
0 0 0 0 0 0 0 0 0 0 0 0 0 0 0 0 0 0 0 0 0 0.000197539894175307 0.000197539894175307 0.000197539894175307 0.000197539894175307 0.000197539894175307 0.000197539894175307 0.000197539894175307 1.4618699402028e-05 0.00220534316717258 1.71000947521958e-06 0.00136732854582301 5.75192987077014e-07 5.03543639442303e-06 7.48069724880661e-07 0.000147378129565758 1.54828920440333e-05 2.07165740850707e-05 1.45507133680618e-05 8.70040142033757e-06 1.8129608558815e-05 5.89463647581014e-06 2.80508772246407e-05 9.78747293543887e-06 1.0993760491613e-05 1.17662001665495e-05 1.26237987892322e-05 1.42581828950135e-06 1.26085701575119e-06 4.81344814215791e-06 1.73997482249163e-05 2.34534210453787e-06 1.73997482249163e-05 1.73997482249163e-05 1.00819123093961e-05 9.32038401385875e-06 9.18376192153166e-06 9.22607884508948e-06 -9999 -9999 -9999 -9999 -9999 -9999 -9999 -9999 -9999 -9999 -9999 -9999 -9999 -9999 -9999 -9999 -9999 -9999 -9999 -9999
0 0 0 0 0 0 0 0 0 0 0 0 0 0 0 0 0 0 0 0 0 0 0.000197539894175307 0.000197539894175307 0.000197539894175307 0.000197539894175307 0.000197539894175307 0.000197539894175307 9.58912308477708e-05 2.34012236487834e-05 1.62316967461835e-07 1.56782518783928e-06 4.526592448303e-07 2.45105976265984e-06 5.03543639442303e-06 2.86075448880998e-07 0.000147362225274232 1.42754558130332e-05 8.99372795202588e-05 2.79297702224236e-05 1.67522588848838e-05 1.33516912012517e-05 1.02201665488896e-05 3.03202912636957e-05 9.84147437450744e-06 2.03201203382729e-05 1.19861249991806e-05 1.13070137855241e-05 9.92609113568503e-07 1.24181356988691e-06 1.45087409569326e-06 2.57174563377565e-06 2.20787633001447e-06 1.73997482249163e-05 1.03340369317741e-05 9.3257542002312e-06 9.18289360642e-06 -9999 -9999 -9999 -9999 -9999 -9999 -9999 -9999 -9999 -9999 -9999 -9999 -9999 -9999 -9999 -9999 -9999 -9999 -9999 -9999 -9999
0 0 0 0 0 0 0 0 0 0 0 0 0 0 0 0 0 0 0 0 0 0 0 0 0.000197539894175307 0.000197539894175307 0.000197539894175307 0.000197539894175307 0.000197539894175307 2.87514284967189e-05 9.10577699760465e-07 5.59535237653594e-07 5.11571782838765e-07 3.17319629483799e-07 5.03543639442303e-06 2.16763248745232e-06 1.78430016063702e-05 1.54390675943214e-05 1.47556894149586e-05 0.000183150572306708 7.7947206243929e-06 2.18697689662934e-05 2.80123503634856e-05 0.000103313269041835 1.58308945899065e-05 5.44574010148487e-05 9.12997066001624e-06 1.29050511330385e-05 8.90090409534865e-07 1.29836773391848e-06 1.08870760171005e-06 2.46866993106584e-06 1.73997482249163e-05 9.25334329564908e-07 1.3607301061475e-05 9.65970703843579e-06 9.1798554082246e-06 -9999 -9999 -9999 -9999 -9999 -9999 -9999 -9999 -9999 -9999 -9999 -9999 -9999 -9999 -9999 -9999 -9999 -9999 -9999 -9999 -9999
0 0 0 0 0 0 0 0 0 0 0 0 0 0 0 0 0 0 0 0 0 0 0 0 0 0.000197539894175307 0.000197539894175307 0.000197539894175307 0.000197539894175307 0.000197539894175307 5.03543639442303e-06 5.03543639442303e-06 7.62477075724369e-07 4.40438957122637e-07 3.86041383033402e-07 5.03543639442303e-06 7.62097828256628e-07 2.3767848401819e-05 1.42717192068719e-05 4.64429672608063e-06 1.88378829628365e-05 9.20292310779453e-06 2.74086502993754e-05 2.06357401802207e-05 1.16061006761809e-05 9.7063397003051e-06 2.7929539851123e-05 2.65211459224625e-05 7.68294202543955e-07 1.73997482249163e-05 1.73997482249163e-05 1.73997482249163e-05 2.81799288035363e-06 2.63113092815798e-06 1.73997482249163e-05 9.84978287579027e-06 1.0194631473644e-05 -9999 -9999 -9999 -9999 -9999 -9999 -9999 -9999 -9999 -9999 -9999 -9999 -9999 -9999 -9999 -9999 -9999 -9999 -9999 -9999 -9999
0 0 0 0 0 0 0 0 0 0 0 0 0 0 0 0 0 0 0 0 0 0 0 0 0 0 0 0 0.000197539894175307 0.000197539894175307 5.03543639442303e-06 7.62151269216474e-07 1.70189083558251e-07 3.10317712006804e-07 3.3817097173916e-07 1.37464075502511e-06 4.1209193467513e-07 5.03543639442303e-06 0.000183150572306708 2.52424931771925e-05 9.21459248387806e-06 3.23257857535648e-05 6.85981202171805e-06 2.74617742983807e-05 1.28659377580928e-05 9.67979922302831e-06 2.16830668970021e-05 2.17788764886433e-05 2.79134832121557e-05 6.4088890480496e-05 1.73997482249163e-05 2.10962737471023e-06 1.03015664146809e-06 1.73997482249163e-05 1.73997482249163e-05 1.44506534752771e-05 -9999 -9999 -9999 -9999 -9999 -9999 -9999 -9999 -9999 -9999 -9999 -9999 -9999 -9999 -9999 -9999 -9999 -9999 -9999 -9999 -9999 -9999
0 0 0 0 0 0 0 0 0 0 0 0 0 0 0 0 0 0 0 0 0 0 0 0 0 0 0 0 0.000197539894175307 5.03543639442303e-06 5.03543639442303e-06 5.03543639442303e-06 4.03031893144742e-07 2.38771395619341e-07 1.47206835883103e-06 5.03543639442303e-06 8.66700014087432e-07 2.81284643859056e-06 0.00142858528423275 0.00054469838254554 3.90194238324063e-05 9.36835698647627e-06 2.04901319185039e-05 1.41305805474316e-05 9.37829301800655e-06 1.28037089101802e-05 6.48156223322511e-06 1.57475698163693e-05 0.000183150572306708 3.74212056355782e-05 1.73997482249163e-05 2.63900779458823e-06 2.73964427454227e-06 8.08137612167773e-07 2.96903704040389e-06 1.72284250659086e-05 -9999 -9999 -9999 -9999 -9999 -9999 -9999 -9999 -9999 -9999 -9999 -9999 -9999 -9999 -9999 -9999 -9999 -9999 -9999 -9999 -9999 -9999
0 0 0 0 0 0 0 0 0 0 0 0 0 0 0 0 0 0 0 0 0 0 0 0 0 0 0 0 0 5.03543639442303e-06 5.03543639442303e-06 5.03543639442303e-06 7.61384663329093e-07 5.03543639442303e-06 5.26729927697001e-07 1.34360365317791e-07 3.78152688941751e-07 3.37548288067935e-07 5.92748011519852e-07 1.67395751866208e-05 0.00153264259514159 0.0108460032020362 0.000183150572306708 0.000103549104773409 5.79881803248181e-06 1.17171814458674e-05 8.96328882442091e-06 0.000147243359037846 6.9219480926984e-05 1.39889916300983e-05 5.46621440656929e-06 8.86895546308737e-07 5.23133994037079e-07 3.38467000299385e-06 1.22456069634415e-06 1.68137951092342e-05 -9999 -9999 1.45111151435003e-05 1.44506534752771e-05 -9999 -9999 -9999 -9999 -9999 -9999 -9999 -9999 -9999 -9999 -9999 -9999 -9999 -9999 -9999 -9999 -9999 -9999
0 0 0 0 0 0 0 0 0 0 0 0 0 0 0 0 0 0 0 0 0 0 0 0 0 0 0 0 0 0 5.03543639442303e-06 5.03543639442303e-06 5.03543639442303e-06 5.03543639442303e-06 5.03543639442303e-06 1.96428330805003e-07 2.50911312651587e-07 2.61812197692644e-07 7.60535331850056e-07 2.93124564572441e-06 1.80383155883787e-06 9.23014641320642e-06 5.48865435037801e-06 0.00578385951810144 0.00616508953422821 8.16079962403945e-06 9.65993447007309e-06 5.89738980892222e-05 5.89772594383702e-05 1.28412058393175e-05 4.43221014330339e-06 5.57182471951242e-05 6.6271066502053e-07 4.56419689105018e-07 6.36247110132874e-07 1.55435364175807e-05 -9999 -9999 1.28569581925687e-05 1.42743517848552e-05 1.50090133093696e-05 -9999 -9999 -9999 -9999 -9999 -9999 -9999 -9999 -9999 -9999 -9999 -9999 -9999 -9999 -9999 -9999 -9999
0 0 0 0 0 0 0 0 0 0 0 0 0 0 0 0 0 0 0 0 0 0 0 0 0 0 0 0 0 0 0 5.03543639442303e-06 5.03543639442303e-06 5.03543639442303e-06 5.03543639442303e-06 1.89391908213113e-07 2.21830665856132e-07 3.19976342252292e-07 2.73457493118432e-07 2.7317019403211e-05 1.27071365715347e-06 0.000183150572306708 1.49356360454084e-05 2.40109570832992e-05 9.43387414855699e-06 8.61683745898815e-06 0.0016461167920786 0.00328947450405 6.21539717454488e-06 2.50744665095015e-06 5.99445425392135e-06 9.69366424108351e-06 4.87275392999724e-07 3.75163812473505e-07 1.77882353036351e-06 0.000551071006497014 1.33473354933704e-05 -9999 -9999 1.59691147773054e-05 1.43917597629671e-05 -9999 -9999 -9999 -9999 -9999 -9999 -9999 -9999 -9999 -9999 -9999 -9999 -9999 -9999 -9999 -9999 -9999
0 0 0 0 0 0 0 0 0 0 0 0 0 0 0 0 0 0 0 0 0 0 0 0 0 0 0 0 0 0 0 5.03543639442303e-06 5.03543639442303e-06 5.03543639442303e-06 5.03543639442303e-06 2.73890646375e-07 2.23737639468742e-07 9.52599991879022e-07 3.75764209404256e-07 5.08982012115754e-08 5.12593411011708e-08 7.86964483304426e-06 8.96062416630257e-06 2.31857214441333e-05 1.01736903772035e-05 6.70304720467025e-06 8.51396760289709e-06 0.00142312139357514 0.00207708772849958 1.02249888280417e-05 1.47340947461932e-05 0.000183150572306708 1.93814194404368e-06 3.77386755472501e-07 3.24626027719961e-07 9.68221864370123e-07 1.71432658388196e-05 1.0693634686918e-05 1.2903939697345e-05 1.40441746716617e-05 -9999 -9999 -9999 -9999 -9999 -9999 -9999 -9999 -9999 -9999 -9999 -9999 -9999 -9999 -9999 -9999 -9999 -9999
0 0 0 0 0 0 0 0 0 0 0 0 0 0 0 0 0 0 0 0 0 0 0 0 0 0 0 0 0 0 0 5.03543639442303e-06 5.03543639442303e-06 5.03543639442303e-06 2.61167486494803e-07 8.03662310062345e-08 2.4453151128674e-07 2.2665746500855e-07 1.95592279704488e-07 3.12123331677866e-07 4.88792660493505e-07 1.77867510877439e-05 2.4257895778009e-05 1.06912125608601e-05 2.23720366005405e-05 2.60982052962664e-05 1.06378093595465e-05 2.10446562926792e-05 1.64199432129062e-05 8.96152561016429e-05 0.00464633819263373 0.00659638404149079 0.00101843621662647 1.92345569818373e-06 3.19371250338195e-06 3.52050804461247e-06 1.69769321177702e-05 1.20169184683509e-05 1.52709987667857e-05 1.41012761888349e-05 -9999 -9999 -9999 -9999 -9999 -9999 -9999 -9999 -9999 -9999 -9999 -9999 -9999 -9999 -9999 -9999 -9999 -9999
0 0 0 0 0 0 0 0 0 0 0 0 0 0 0 0 0 0 0 0 0 0 0 0 0 0 0 0 0 0 0 5.03543639442303e-06 5.03543639442303e-06 5.03543639442303e-06 4.09818294247521e-07 1.7249152542166e-07 8.57790103769556e-07 3.92340453323964e-07 3.92829401185885e-07 9.59940763252948e-08 1.66981545752182e-07 1.95783344676695e-07 8.28515273443933e-06 4.14504390653229e-06 1.04318161265815e-05 1.3939843578151e-05 2.5594285543562e-05 1.1412916954873e-05 9.30571677162519e-06 6.81488016101504e-06 1.2252123438099e-05 5.02520756083422e-05 9.60664481386705e-07 7.80882980260418e-07 5.58952113664283e-06 1.52421995998734e-05 4.27416999984538e-06 1.33989006987426e-05 1.09963601616659e-05 -9999 -9999 -9999 -9999 -9999 -9999 -9999 -9999 -9999 -9999 -9999 -9999 -9999 -9999 -9999 -9999 -9999 -9999 -9999
0 0 0 0 0 0 0 0 0 0 0 0 0 0 0 0 0 0 0 0 0 0 0 0 0 0 0 0 0 0 0 0 5.03543639442303e-06 5.03543639442303e-06 3.29265213937835e-07 3.47840131228184e-07 1.89879706705576e-07 2.04165045345646e-07 2.23849484436276e-07 8.79998484544775e-08 3.03616547985779e-07 2.28696874521011e-07 1.86265670581517e-07 5.59570509284779e-06 1.23051301710838e-05 2.78123798107814e-05 1.77570093941582e-05 2.78298278518296e-05 1.86196810672425e-05 6.03391190313754e-06 4.34849798897273e-06 0.000183150572306708 4.79928241408664e-06 7.05447940437257e-07 7.37929501160489e-07 3.95553563172227e-07 2.2715940647441e-06 1.33989006987426e-05 -9999 -9999 -9999 -9999 -9999 -9999 -9999 -9999 -9999 -9999 -9999 -9999 -9999 -9999 -9999 -9999 -9999 -9999 -9999 -9999
0 0 0 0 0 0 0 0 0 0 0 0 0 0 0 0 0 0 0 0 0 0 0 0 0 0 0 0 0 0 0 0 5.03543639442303e-06 5.03543639442303e-06 1.39808097065985e-06 4.47377306714307e-07 1.21148412248003e-07 1.7739667384183e-07 2.68551470342086e-07 3.48419324822276e-07 1.60846129903064e-07 2.21259434799207e-07 4.37715181567182e-07 2.71791080018781e-07 1.07216592155481e-05 4.28148709959066e-06 1.07228002200041e-05 1.18912359677892e-05 5.29458455716836e-06 1.57107128749108e-05 2.05774540687405e-05 1.4009965253457e-05 0.000183150572306708 1.73997482249163e-05 1.73997482249163e-05 1.90935388126646e-06 0.000406030395650957 3.5301350899923e-06 1.2903939697345e-05 -9999 -9999 -9999 -9999 -9999 -9999 -9999 -9999 -9999 -9999 -9999 -9999 -9999 -9999 -9999 -9999 -9999 -9999 -9999
0 0 0 0 0 0 0 0 0 0 0 0 0 0 0 0 0 0 0 0 0 0 0 0 0 0 0 0 0 0 0 0 5.03543639442303e-06 5.03543639442303e-06 4.90309260743549e-07 4.8024386105922e-07 4.70767403890125e-07 4.8126609222687e-07 1.60118481177709e-06 1.12062403996757e-06 3.40802978361682e-07 1.19208884566731e-06 1.68669333515784e-07 6.09231406780511e-07 1.77362969349157e-05 6.94972514801948e-06 6.58376513664439e-06 1.80788647098995e-05 1.01177137675033e-05 4.77311552489645e-06 3.44751428230473e-06 5.06105289256385e-06 2.70550691432495e-05 0.000183150572306708 1.72735504254521e-05 1.73997482249163e-05 1.33213136592646e-06 0.000455788890527799 1.72284250659086e-05 1.34499342388521e-05 -9999 -9999 -9999 -9999 -9999 -9999 -9999 -9999 -9999 -9999 -9999 -9999 -9999 -9999 -9999 -9999 -9999 -9999
0 0 0 0 0 0 0 0 0 0 0 0 0 0 0 0 0 0 0 0 0 0 0 0 0 0 0 0 0 0 0 0 5.03543639442303e-06 5.03543639442303e-06 5.03543639442303e-06 5.03543639442303e-06 7.5647341504584e-07 1.05484343634049e-06 5.03543639442303e-06 2.1554759161755e-06 4.93610533364271e-07 1.73221055900343e-07 1.17033050586168e-07 1.85302069258141e-07 4.86560792630299e-06 1.06036390361906e-05 5.29142088415804e-06 5.63552081463367e-06 5.73593669654193e-06 1.10200094770978e-05 1.12974069607466e-05 3.31147519958947e-05 1.64066338389765e-05 2.77500753142055e-05 2.83699617275501e-06 1.49551549185933e-06 6.99933772305258e-07 7.18134277111323e-05 2.33808490258541e-06 1.52052438286174e-05 -9999 -9999 -9999 -9999 -9999 -9999 -9999 -9999 -9999 -9999 -9999 -9999 -9999 -9999 -9999 -9999 -9999 -9999
0 0 0 0 0 0 0 0 0 0 0 0 0 0 0 0 0 0 0 0 0 0 0 0 0 0 0 0 0 0 0 0 5.03543639442303e-06 5.03543639442303e-06 5.03543639442303e-06 3.63956380664369e-07 4.17721828900892e-07 5.87803947439801e-07 7.56406400452801e-07 5.03543639442303e-06 3.12456911001137e-07 3.94208883325275e-07 2.35821354211285e-07 2.50625096962603e-07 5.18494082402802e-06 7.07316521850258e-06 9.22411070074492e-06 8.5243330783491e-06 5.37279999069781e-06 5.47374663778004e-06 4.36927239162147e-05 7.11371519549945e-06 2.2337435345909e-05 1.12706526189283e-05 3.15950130917166e-05 0.00015824695900654 1.29928313918967e-06 3.5893343998368e-06 3.23368514689168e-06 9.99920514844361e-06 -9999 -9999 -9999 -9999 -9999 -9999 -9999 -9999 -9999 -9999 -9999 -9999 -9999 -9999 -9999 -9999 -9999 -9999
0 0 0 0 0 0 0 0 0 0 0 0 0 0 0 0 0 0 0 0 0 0 0 0 0 0 0 0 0 0 0 0 5.03543639442303e-06 5.03543639442303e-06 5.03543639442303e-06 5.03543639442303e-06 1.59887551287477e-06 1.74762440302367e-07 7.55956659367685e-07 2.63913360187324e-07 3.83059807089704e-07 2.12776603237325e-07 2.62295946038699e-07 3.5008745758091e-07 8.47844948778454e-06 7.95575711406976e-06 1.36759418883538e-05 4.46906258064878e-06 5.27226715073749e-06 9.35951183483466e-06 6.93929732979121e-06 0.000183150572306708 1.4246738565441e-05 1.68256381446516e-05 7.47190870097481e-06 1.76994727182385e-05 7.23903104440178e-06 1.03675975494355e-06 6.06620462787189e-06 1.72714266128984e-05 2.69603089902081e-05 -9999 -9999 -9999 -9999 -9999 -9999 -9999 -9999 -9999 -9999 -9999 -9999 -9999 -9999 -9999 -9999 -9999
0 0 0 0 0 0 0 0 0 0 0 0 0 0 0 0 0 0 0 0 0 0 0 0 0 0 0 0 0 0 0 0 5.03543639442303e-06 5.03543639442303e-06 0 0 0 0 0 0 0 0 0 0 0 0 9.04259183731195e-08 2.83696650650446e-08 8.66304516195126e-08 4.33869349991333e-08 5.27116544275327e-08 4.20545394315755e-08 5.63033140285244e-08 2.95692577342198e-08 6.89917754006829e-08 8.86139500549545e-08 5.97826643347958e-06 3.3055519140659e-06 3.43164709503961e-05 1.42891708459573e-06 5.6629780779643e-06 -9999 -9999 -9999 -9999 -9999 -9999 -9999 -9999 -9999 -9999 -9999 -9999 -9999 -9999 -9999 -9999 -9999
0 0 0 0 0 0 0 0 0 0 0 0 0 0 0 0 0 0 0 0 0 0 0 0 0 0 0 0 0 0 0 0 0 0 0 0 0 0 0 0 0 0 0 0 0 0 3.97356289364079e-08 5.66211676289044e-08 3.74260046255238e-08 5.56930718014875e-08 5.77298175298969e-08 9.6923967121368e-08 5.76421046787179e-08 1.5429382419301e-08 2.34835314767793e-08 2.16558788545284e-07 1.10603209998542e-06 1.57149223206533e-06 3.83710561286036e-06 7.74064928478825e-06 2.13937105880128e-06 2.68209272777334e-05 -9999 -9999 2.46708722339445e-05 -9999 -9999 -9999 -9999 -9999 -9999 -9999 -9999 -9999 -9999 -9999 -9999 -9999
0 0 0 0 0 0 0 0 0 0 0 0 0 0 0 0 0 0 0 0 0 0 0 0 0 0 0 0 0 0 0 0 0 0 0 0 0 0 0 0 0 0 0 0 0 0 0 5.48043519938519e-08 4.60629030330197e-08 4.03751264829765e-08 4.24203740091585e-08 3.26137123959043e-08 2.77720732508232e-05 2.27364515100014e-08 3.98054205263168e-05 8.86304927014287e-08 5.96630087234467e-08 2.85808518031601e-05 4.27491104156437e-06 6.57587428624211e-05 0.000336290062995341 9.44548587377343e-06 2.25439670349085e-05 1.64985994742555e-05 2.49056322341737e-05 -9999 -9999 -9999 -9999 -9999 -9999 -9999 -9999 -9999 -9999 -9999 -9999 -9999
0 0 0 0 0 0 0 0 0 0 0 0 0 0 0 0 0 0 0 0 0 0 0 0 0 0 0 0 0 0 0 0 0 0 0 0 0 0 0 0 0 0 0 0 0 0 0 6.76645248306861e-08 3.95157572848037e-08 3.78470909062655e-08 8.61167680081088e-08 4.55273605395171e-08 3.86881850811917e-08 2.02476141950135e-08 1.91840793960967e-08 7.2724379965765e-08 1.10603209998542e-06 9.64750250068371e-08 3.63428417842255e-06 4.17865425682633e-06 3.83774129957426e-06 2.65060983990927e-05 2.76742540965106e-05 1.89488612921467e-05 2.06719807962437e-05 -9999 -9999 -9999 -9999 -9999 -9999 -9999 -9999 -9999 -9999 -9999 -9999 -9999
0 0 0 0 0 0 0 0 0 0 0 0 0 0 0 0 0 0 0 0 0 0 0 0 0 0 0 0 0 0 0 0 0 0 0 0 0 0 0 0 0 0 0 0 0 0 0 8.83662955127795e-08 4.19028867639912e-07 1.36116647638221e-07 5.33132428165213e-08 5.34453838858943e-08 1.2306163625502e-07 3.18522127289643e-08 2.0786707127844e-08 4.04525088249529e-08 1.77158539728894e-07 1.44909326134095e-07 1.94273202464335e-06 4.81430150047474e-06 1.84957798009258e-06 3.3253958600807e-06 2.85808518031601e-05 1.65502930053996e-05 -9999 -9999 -9999 -9999 -9999 -9999 -9999 -9999 -9999 -9999 -9999 -9999 -9999 -9999
0 0 0 0 0 0 0 0 0 0 0 0 0 0 0 0 0 0 0 0 0 0 0 0 0 0 0 0 0 0 0 0 0 0 0 0 0 0 0 0 0 0 0 0 0 0 0 0 5.28738944725174e-07 1.95426222284927e-07 6.08542722261187e-07 4.81124615032051e-08 4.99046411593353e-08 4.48285938204172e-08 7.51427392837405e-08 3.9165201636641e-08 6.13814604802424e-08 8.80502105518035e-08 2.85808518031601e-05 2.85808518031601e-05 4.07151620954109e-06 0.000290188645981967 0.000205083673680059 2.17019544711486e-05 -9999 -9999 -9999 -9999 -9999 -9999 -9999 -9999 -9999 -9999 -9999 -9999 -9999 -9999
0 0 0 0 0 0 0 0 0 0 0 0 0 0 0 0 0 0 0 0 0 0 0 0 0 0 0 0 0 0 0 0 0 0 0 0 0 0 0 0 0 0 0 0 0 0 0 0 1.01626086994199e-07 2.05237548509011e-07 6.29583835554807e-08 6.6691641443154e-08 3.86558842686502e-08 4.69511338208859e-08 4.21252443787786e-08 3.74064205333699e-08 1.11629582172656e-07 1.10603209998542e-06 1.10603209998542e-06 2.85808518031601e-05 1.4024611100362e-06 3.88523188677116e-07 0.000312846960173301 2.66854300992313e-05 1.89488612921467e-05 1.88126618302333e-05 2.38819693408871e-05 2.44404965931313e-05 -9999 -9999 -9999 -9999 -9999 -9999 -9999 -9999 -9999 -9999
0 0 0 0 0 0 0 0 0 0 0 0 0 0 0 0 0 0 0 0 0 0 0 0 0 0 0 0 0 0 0 0 0 0 0 0 0 0 0 0 0 0 0 0 0 0 0 0 4.1837247568229e-07 0.000140596895243561 1.37426889970083e-07 5.16721562682881e-08 6.18691017943226e-08 6.20074647741451e-08 1.95472887915293e-08 2.8947830848849e-08 1.12502849394607e-07 1.27134954054323e-07 1.63476666846939e-07 1.10603209998542e-06 5.44960024148898e-06 8.00359427005564e-07 1.1517113289379e-06 2.85808518031601e-05 2.64985216312161e-05 2.85808518031601e-05 2.85808518031601e-05 2.0920575258627e-05 -9999 -9999 -9999 -9999 -9999 -9999 -9999 -9999 -9999 -9999
0 0 0 0 0 0 0 0 0 0 0 0 0 0 0 0 0 0 0 0 0 0 0 0 0 0 0 0 0 0 0 0 0 0 0 0 0 0 0 0 0 0 0 0 0 0 0 0 1.04139918039792e-07 5.72154937690921e-08 6.74421281923367e-08 1.26951604926719e-07 6.94229855303125e-08 2.39961039521675e-07 2.84920601362854e-08 1.83651478266412e-08 7.328043625872e-08 1.04149221337026e-07 1.10603209998542e-06 2.85808518031601e-05 2.85808518031601e-05 2.85808518031601e-05 4.24212774934547e-06 1.98395929387183e-06 3.53862280673708e-06 2.64981522938196e-05 2.85808518031601e-05 2.84242590688709e-05 -9999 -9999 -9999 -9999 -9999 -9999 -9999 -9999 -9999 -9999
0 0 0 0 0 0 0 0 0 0 0 0 0 0 0 0 0 0 0 0 0 0 0 0 0 0 0 0 0 0 0 0 0 0 0 0 0 0 0 0 0 0 0 0 0 0 0 0 8.71122055367974e-07 1.10603209998542e-06 1.12823759868129e-07 6.13131931768074e-08 4.77968149631685e-08 7.01218713982673e-08 6.81709132629124e-08 2.03125307877972e-08 2.50065968189405e-08 8.80675565604691e-08 4.74636602409437e-08 1.63229621748569e-07 2.85808518031601e-05 2.85808518031601e-05 1.56744925823649e-06 5.02052279595789e-07 1.8358790139807e-06 3.9738382026019e-06 2.34956802306465e-06 2.85808518031601e-05 -9999 -9999 -9999 -9999 -9999 -9999 -9999 -9999 -9999 -9999
0 0 0 0 0 0 0 0 0 0 0 0 0 0 0 0 0 0 0 0 0 0 0 0 0 0 0 0 0 0 0 0 0 0 0 0 0 0 0 0 0 0 0 0 0 0 0 0 1.10603209998542e-06 1.10603209998542e-06 1.18270179797665e-07 7.91995522580325e-08 3.76659112122493e-06 4.33003596902791e-08 4.29031623010511e-08 8.21992291177421e-08 5.30780967523407e-08 2.57174741350867e-07 4.33644900823857e-08 1.10603209998542e-06 4.25635623507124e-06 2.85808518031601e-05 2.27000578583315e-05 5.5028686014981e-07 2.78490564621003e-06 0.000142364760410628 4.81197136642789e-06 2.85808518031601e-05 -9999 -9999 -9999 -9999 -9999 -9999 -9999 -9999 -9999 -9999
0 0 0 0 0 0 0 0 0 0 0 0 0 0 0 0 0 0 0 0 0 0 0 0 0 0 0 0 0 0 0 0 0 0 0 0 0 0 0 0 0 0 0 0 0 0 0 0 0 1.63054761097389e-07 1.27981071242838e-07 6.79958535632762e-08 5.77089750941551e-08 4.79196483608994e-08 1.67114406675295e-07 3.64420531292615e-06 8.42793336865986e-08 1.26953552142664e-07 1.06673311338184e-07 1.63089626092117e-07 2.27906029649694e-07 9.86051070366686e-06 9.86583910431843e-06 2.78345753941407e-06 0.00103680919852845 2.77989046179789e-06 8.06910465812302e-06 2.85808518031601e-05 2.56375072807343e-05 -9999 -9999 -9999 -9999 -9999 -9999 -9999 -9999 -9999
0 0 0 0 0 0 0 0 0 0 0 0 0 0 0 0 0 0 0 0 0 0 0 0 0 0 0 0 0 0 0 0 0 0 0 0 0 0 0 0 0 0 0 0 0 0 0 0 0 1.10603209998542e-06 1.10603209998542e-06 2.045327758255e-07 4.66034278948194e-07 1.12586676187948e-07 3.62798297348391e-06 1.01127974407376e-07 6.01727916644466e-08 1.10603209998542e-06 1.10603209998542e-06 1.10603209998542e-06 1.62956249455009e-07 9.01128303234251e-06 6.29008473573407e-06 2.85808518031601e-05 2.85808518031601e-05 4.24453448822409e-06 2.85808518031601e-05 2.85808518031601e-05 2.84242590688709e-05 2.55136759613566e-05 -9999 -9999 -9999 -9999 -9999 -9999 -9999 -9999
0 0 0 0 0 0 0 0 0 0 0 0 0 0 0 0 0 0 0 0 0 0 0 0 0 0 0 0 0 0 0 0 0 0 0 0 0 0 0 0 0 0 0 0 0 0 0 0 0 0 1.10603209998542e-06 1.10603209998542e-06 1.62875447916197e-07 1.10603209998542e-06 1.10603209998542e-06 1.15748891751941e-07 1.50572011023793e-07 1.01193751606963e-07 1.10603209998542e-06 1.62539742281618e-07 1.10603209998542e-06 1.10603209998542e-06 2.85808518031601e-05 0.00434959711376249 2.85808518031601e-05 9.00767177686542e-06 5.93082843180563e-06 2.4451732353288e-05 2.85808518031601e-05 2.7240909620772e-05 2.52673695723341e-05 2.32456497397071e-05 -9999 -9999 -9999 -9999 -9999 -9999
0 0 0 0 0 0 0 0 0 0 0 0 0 0 0 0 0 0 0 0 0 0 0 0 0 0 0 0 0 0 0 0 0 0 0 0 0 0 0 0 0 0 0 0 0 0 0 0 0 0 1.10603209998542e-06 1.56435679122708e-07 1.77201805792149e-07 8.77409463617773e-08 8.78155801272232e-08 8.07236415329007e-08 9.61396187826314e-08 2.15216827230092e-07 7.66731555525211e-08 1.10603209998542e-06 1.10603209998542e-06 1.10603209998542e-06 8.7820590304998e-08 2.85808518031601e-05 2.85808518031601e-05 2.85808518031601e-05 2.64886384694137e-05 2.85808518031601e-05 2.85808518031601e-05 2.85808518031601e-05 2.85808518031601e-05 2.82721239245451e-05 2.82721239245451e-05 2.73847023947333e-05 -9999 -9999 -9999 -9999
0 0 0 0 0 0 0 0 0 0 0 0 0 0 0 0 0 0 0 0 0 0 0 0 0 0 0 0 0 0 0 0 0 0 0 0 0 0 0 0 0 0 0 0 0 0 0 0 0 0 7.46643352977476e-08 1.10603209998542e-06 1.56339134978546e-07 9.17645991522454e-08 3.5373783059387e-05 5.8589830514456e-08 9.61477476037846e-08 2.6903787158299e-08 1.06332557177209e-07 1.10603209998542e-06 1.10603209998542e-06 1.10603209998542e-06 2.85808518031601e-05 4.24339941740248e-06 2.85808518031601e-05 2.85808518031601e-05 2.85808518031601e-05 2.85808518031601e-05 2.85808518031601e-05 2.85808518031601e-05 2.85808518031601e-05 2.85808518031601e-05 2.85808518031601e-05 2.30410122168048e-05 2.82721239245451e-05 -9999 -9999 -9999
0 0 0 0 0 0 0 0 0 0 0 0 0 0 0 0 0 0 0 0 0 0 0 0 0 0 0 0 0 0 0 0 0 0 0 0 0 0 0 0 0 0 0 0 0 0 0 0 0 0 1.10603209998542e-06 1.6260056213568e-07 1.10603209998542e-06 1.10603209998542e-06 1.38093339335053e-07 2.45859011676386e-07 1.0354981885003e-07 5.91280959929109e-08 9.60407219039952e-08 1.190155743979e-07 1.62527825992345e-07 7.0616557121666e-08 1.10603209998542e-06 2.85808518031601e-05 3.97003356382334e-06 1.01596429874864e-05 4.61458105071954e-06 2.85808518031601e-05 2.85808518031601e-05 2.85808518031601e-05 2.85808518031601e-05 2.85808518031601e-05 2.85808518031601e-05 2.85808518031601e-05 2.39924158098918e-05 -9999 -9999 -9999
0 0 0 0 0 0 0 0 0 0 0 0 0 0 0 0 0 0 0 0 0 0 0 0 0 0 0 0 0 0 0 0 0 0 0 0 0 0 0 0 0 0 0 0 0 0 0 0 0 0 0 1.10603209998542e-06 7.74275328304965e-08 1.00883386200433e-07 4.16626456435082e-07 8.22018841189247e-08 5.66007329559758e-08 1.26469330668152e-07 9.84256865192911e-08 8.02121208086861e-08 1.10603209998542e-06 1.62375587226706e-07 1.10603209998542e-06 8.96227485024684e-08 6.98349786980523e-06 5.78547673138718e-06 8.27672659004936e-06 4.22649239957643e-06 2.85808518031601e-05 2.85808518031601e-05 2.85808518031601e-05 2.85808518031601e-05 2.85808518031601e-05 2.85808518031601e-05 2.85808518031601e-05 2.37725353587497e-05 2.85808518031601e-05 -9999
0 0 0 0 0 0 0 0 0 0 0 0 0 0 0 0 0 0 0 0 0 0 0 0 0 0 0 0 0 0 0 0 0 0 0 0 0 0 0 0 0 0 0 0 0 0 0 0 0 0 0 8.95553619376635e-08 1.55957885031392e-07 1.10603209998542e-06 3.44465319393634e-07 1.05862430405843e-07 1.10603209998542e-06 1.10603209998542e-06 1.10603209998542e-06 1.10603209998542e-06 7.14482094104712e-07 1.76792927751339e-07 1.10603209998542e-06 1.10603209998542e-06 2.85808518031601e-05 1.01504844649178e-05 9.53042037375629e-06 2.85808518031601e-05 1.18720060909736e-06 2.85808518031601e-05 2.85808518031601e-05 2.85808518031601e-05 2.85808518031601e-05 2.85808518031601e-05 2.85808518031601e-05 2.56375072807343e-05 -9999 -9999
0 0 0 0 0 0 0 0 0 0 0 0 0 0 0 0 0 0 0 0 0 0 0 0 0 0 0 0 0 0 0 0 0 0 0 0 0 0 0 0 0 0 0 0 0 0 0 0 0 0 0 0 7.30929671192231e-08 1.38637041938074e-07 3.67156783216106e-08 2.6673992548761e-05 4.30945712006916e-08 1.62244077018095e-07 3.65333970389152e-07 4.46892781722931e-08 1.76690288215154e-07 1.10603209998542e-06 4.21894716910231e-08 1.94299301800748e-06 1.67617987540197e-06 1.90230717032712e-06 3.22760797225805e-06 1.1118063150341e-06 1.13951361741195e-06 6.66650268561821e-06 2.33417753331707e-06 2.85808518031601e-05 2.85808518031601e-05 2.85808518031601e-05 2.85808518031601e-05 2.85808518031601e-05 2.85808518031601e-05 -9999
0 0 0 0 0 0 0 0 0 0 0 0 0 0 0 0 0 0 0 0 0 0 0 0 0 0 0 0 0 0 0 0 0 0 0 0 0 0 0 0 0 0 0 0 0 0 0 0 0 0 0 0 1.15276903076359e-07 7.72407971955534e-08 8.03960522693432e-08 8.55565540631311e-08 7.58166738364002e-08 2.26748162270099e-07 6.51146138872183e-08 1.74023103573366e-07 1.10603209998542e-06 1.0073506375674e-07 5.00987549101856e-08 6.07742632792923e-08 1.66341272110599e-05 5.10007200285155e-06 5.0509550191204e-06 2.85808518031601e-05 2.85808518031601e-05 2.85808518031601e-05 2.85808518031601e-05 2.85808518031601e-05 2.85808518031601e-05 2.85808518031601e-05 2.85808518031601e-05 2.85808518031601e-05 -9999 2.85808518031601e-05
0 0 0 0 0 0 0 0 0 0 0 0 0 0 0 0 0 0 0 0 0 0 0 0 0 0 0 0 0 0 0 0 0 0 0 0 0 0 0 0 0 0 0 0 0 0 0 0 0 0 0 1.08954897772408e-07 9.14038277016936e-08 1.119652811567e-07 1.08927241090748e-07 1.10603209998542e-06 1.6209971000682e-07 8.10623828335262e-07 3.78544686823643e-08 1.51788195344374e-07 1.07931870642334e-07 1.10603209998542e-06 9.14350313509783e-08 7.13985440724606e-07 1.95667888308996e-06 5.30785152322563e-06 7.12815167125342e-06 2.85808518031601e-05 2.85808518031601e-05 2.85808518031601e-05 2.85808518031601e-05 2.85808518031601e-05 2.85808518031601e-05 2.85808518031601e-05 2.85808518031601e-05 2.85808518031601e-05 -9999 -9999
0 0 0 0 0 0 0 0 0 0 0 0 0 0 0 0 0 0 0 0 0 0 0 0 0 0 0 0 0 0 0 0 0 0 0 0 0 0 0 0 0 0 0 0 0 0 0 0 0 0 0 0 5.97617416852615e-08 1.10603209998542e-06 1.10603209998542e-06 8.7376047453808e-08 1.10603209998542e-06 9.37658173854848e-07 1.05048235707998e-07 2.10811011651744e-08 3.25768967488535e-08 4.49525954491687e-08 1.10603209998542e-06 3.16519379918117e-07 2.91891876564111e-06 6.05734540547344e-05 3.63460495327304e-06 3.43343458895259e-06 1.21199938090049e-06 2.13850119183213e-06 2.85808518031601e-05 2.85808518031601e-05 2.85808518031601e-05 2.85808518031601e-05 2.85808518031601e-05 2.85808518031601e-05 2.82721239245451e-05 2.17914840901383e-05
0 0 0 0 0 0 0 0 0 0 0 0 0 0 0 0 0 0 0 0 0 0 0 0 0 0 0 0 0 0 0 0 0 0 0 0 0 0 0 0 0 0 0 0 0 0 0 0 0 0 0 0 1.61695743403052e-07 1.10603209998542e-06 2.55470435261106e-07 3.16410896800747e-07 1.10603209998542e-06 1.10603209998542e-06 1.10603209998542e-06 4.63994564022219e-07 9.80671998507605e-08 1.10603209998542e-06 1.6191688897833e-07 1.93409445703908e-07 1.28838735290116e-06 7.64201951213086e-06 2.85808518031601e-05 3.47119803247813e-06 1.84560121470289e-06 4.22405585715382e-06 2.85808518031601e-05 2.85808518031601e-05 2.85808518031601e-05 2.85808518031601e-05 2.85808518031601e-05 2.85808518031601e-05 2.84242590688709e-05 1.88811299277927e-05
